P3
400 300
255
2 2 5
2 2 5
2 2 5
2 2 5
2 2 5
2 2 5
2 2 5
2 2 5
2 2 5
2 2 5
2 2 5
2 2 5
2 2 5
2 2 5
2 2 5
2 2 5
2 2 5
2 2 5
2 2 5
2 2 5
2 2 5
2 2 5
2 2 5
2 2 5
2 2 5
2 2 5
2 2 5
2 2 5
2 2 5
2 2 5
2 2 5
2 2 5
2 2 5
2 2 5
2 2 5
2 2 5
2 2 5
2 2 5
2 2 5
2 2 5
2 2 5
2 2 5
2 2 5
2 2 5
2 2 5
2 2 5
2 2 5
2 2 5
2 2 5
2 2 5
2 2 5
2 2 5
2 2 5
2 2 5
2 2 5
2 2 5
2 2 5
2 2 5
2 2 5
2 2 5
2 2 5
2 2 5
2 2 5
2 2 5
2 2 5
2 2 5
2 2 5
2 2 5
2 2 5
2 2 5
2 2 5
2 2 5
2 2 5
2 2 5
2 2 5
2 2 5
2 2 5
2 2 5
2 2 5
2 2 5
2 2 5
2 2 5
2 2 5
2 2 5
2 2 5
2 2 5
2 2 5
2 2 5
2 2 5
2 2 5
2 2 5
2 2 5
2 2 5
2 2 5
2 2 5
2 2 5
2 2 5
2 2 5
2 2 5
2 2 5
2 2 5
2 2 5
2 2 5
2 2 5
2 2 5
2 2 5
2 2 5
2 2 5
2 2 5
2 2 5
2 2 5
2 2 5
2 2 5
2 2 5
2 2 5
2 2 5
2 2 5
2 2 5
2 2 5
2 2 5
2 2 5
2 2 5
2 2 5
2 2 5
2 2 5
2 2 5
2 2 5
2 2 5
2 2 5
2 2 5
2 2 5
2 2 5
2 2 5
2 2 5
2 2 5
2 2 5
2 2 5
2 2 5
2 2 5
2 2 5
2 2 5
2 2 5
2 2 5
2 2 5
2 2 5
2 2 5
2 2 5
2 2 5
2 2 5
2 2 5
2 2 5
2 2 5
2 2 5
2 2 5
2 2 5
2 2 5
2 2 5
2 2 5
2 2 5
255 255 255
255 255 255
255 255 255
255 255 255
255 255 255
255 255 255
255 255 255
255 255 255
255 255 255
255 255 255
255 255 255
255 255 255
255 255 255
255 255 255
255 255 255
255 255 255
255 255 255
255 255 255
255 255 255
255 255 255
255 255 255
255 255 255
255 255 255
255 255 255
255 255 255
255 255 255
255 255 255
255 255 255
255 255 255
255 255 255
255 255 255
255 255 255
255 255 255
255 255 255
255 255 255
255 255 255
255 255 255
255 255 255
255 255 255
255 255 255
255 255 255
255 255 255
255 255 255
255 255 255
255 255 255
255 255 255
255 255 255
255 255 255
255 255 255
255 255 255
255 255 255
255 255 255
255 255 255
255 255 255
255 255 255
255 255 255
255 255 255
255 255 255
255 255 255
255 255 255
255 255 255
255 255 255
255 255 255
255 255 255
255 255 255
255 255 255
255 255 255
255 255 255
255 255 255
255 255 255
255 255 255
255 255 255
255 255 255
255 255 255
255 255 255
255 255 255
255 255 255
255 255 255
255 255 255
255 255 255
255 255 255
255 255 255
2 2 5
2 2 5
2 2 5
2 2 5
2 2 5
2 2 5
2 2 5
2 2 5
2 2 5
2 2 5
2 2 5
2 2 5
2 2 5
2 2 5
2 2 5
2 2 5
2 2 5
2 2 5
2 2 5
2 2 5
2 2 5
2 2 5
2 2 5
2 2 5
2 2 5
2 2 5
2 2 5
2 2 5
2 2 5
2 2 5
2 2 5
2 2 5
2 2 5
2 2 5
2 2 5
2 2 5
2 2 5
2 2 5
2 2 5
2 2 5
2 2 5
2 2 5
2 2 5
2 2 5
2 2 5
2 2 5
2 2 5
2 2 5
2 2 5
2 2 5
2 2 5
2 2 5
2 2 5
2 2 5
2 2 5
2 2 5
2 2 5
2 2 5
2 2 5
2 2 5
2 2 5
2 2 5
2 2 5
2 2 5
2 2 5
2 2 5
2 2 5
2 2 5
2 2 5
2 2 5
2 2 5
2 2 5
2 2 5
2 2 5
2 2 5
2 2 5
2 2 5
2 2 5
2 2 5
2 2 5
2 2 5
2 2 5
2 2 5
2 2 5
2 2 5
2 2 5
2 2 5
2 2 5
2 2 5
2 2 5
2 2 5
2 2 5
2 2 5
2 2 5
2 2 5
2 2 5
2 2 5
2 2 5
2 2 5
2 2 5
2 2 5
2 2 5
2 2 5
2 2 5
2 2 5
2 2 5
2 2 5
2 2 5
2 2 5
2 2 5
2 2 5
2 2 5
2 2 5
2 2 5
2 2 5
2 2 5
2 2 5
2 2 5
2 2 5
2 2 5
2 2 5
2 2 5
2 2 5
2 2 5
2 2 5
2 2 5
2 2 5
2 2 5
2 2 5
2 2 5
2 2 5
2 2 5
2 2 5
2 2 5
2 2 5
2 2 5
2 2 5
2 2 5
2 2 5
2 2 5
2 2 5
2 2 5
2 2 5
2 2 5
2 2 5
2 2 5
2 2 5
2 2 5
2 2 5
2 2 5
2 2 5
2 2 5
2 2 5
2 2 5
2 2 5
2 2 5
2 2 5
2 2 5
2 2 5
2 2 5
2 2 5
2 2 5
2 2 5
2 2 5
2 2 5
2 2 5
2 2 5
2 2 5
2 2 5
2 2 5
2 2 5
2 2 5
2 2 5
2 2 5
2 2 5
2 2 5
2 2 5
2 2 5
2 2 5
2 2 5
2 2 5
2 2 5
2 2 5
2 2 5
2 2 5
2 2 5
2 2 5
2 2 5
2 2 5
2 2 5
2 2 5
2 2 5
2 2 5
2 2 5
2 2 5
2 2 5
2 2 5
2 2 5
2 2 5
2 2 5
2 2 5
2 2 5
2 2 5
2 2 5
2 2 5
2 2 5
2 2 5
2 2 5
2 2 5
2 2 5
2 2 5
2 2 5
2 2 5
2 2 5
2 2 5
2 2 5
2 2 5
2 2 5
2 2 5
2 2 5
2 2 5
2 2 5
2 2 5
2 2 5
2 2 5
2 2 5
2 2 5
2 2 5
2 2 5
2 2 5
2 2 5
2 2 5
2 2 5
2 2 5
2 2 5
2 2 5
2 2 5
2 2 5
2 2 5
2 2 5
2 2 5
2 2 5
2 2 5
2 2 5
2 2 5
2 2 5
2 2 5
2 2 5
2 2 5
2 2 5
2 2 5
2 2 5
2 2 5
2 2 5
2 2 5
2 2 5
2 2 5
2 2 5
2 2 5
2 2 5
2 2 5
2 2 5
2 2 5
2 2 5
2 2 5
2 2 5
2 2 5
2 2 5
2 2 5
2 2 5
2 2 5
2 2 5
2 2 5
2 2 5
2 2 5
2 2 5
2 2 5
2 2 5
2 2 5
2 2 5
2 2 5
2 2 5
2 2 5
2 2 5
2 2 5
2 2 5
2 2 5
2 2 5
2 2 5
2 2 5
2 2 5
2 2 5
2 2 5
2 2 5
2 2 5
2 2 5
2 2 5
2 2 5
2 2 5
2 2 5
2 2 5
2 2 5
2 2 5
2 2 5
2 2 5
2 2 5
2 2 5
2 2 5
2 2 5
2 2 5
2 2 5
2 2 5
2 2 5
2 2 5
2 2 5
2 2 5
2 2 5
2 2 5
2 2 5
255 255 255
255 255 255
255 255 255
255 255 255
255 255 255
255 255 255
255 255 255
255 255 255
255 255 255
255 255 255
255 255 255
255 255 255
255 255 255
255 255 255
255 255 255
255 255 255
255 255 255
255 255 255
255 255 255
255 255 255
255 255 255
255 255 255
255 255 255
255 255 255
255 255 255
255 255 255
255 255 255
255 255 255
255 255 255
255 255 255
255 255 255
255 255 255
255 255 255
255 255 255
255 255 255
255 255 255
255 255 255
255 255 255
255 255 255
255 255 255
255 255 255
255 255 255
255 255 255
255 255 255
255 255 255
255 255 255
255 255 255
255 255 255
255 255 255
255 255 255
255 255 255
255 255 255
255 255 255
255 255 255
255 255 255
255 255 255
255 255 255
255 255 255
255 255 255
255 255 255
255 255 255
255 255 255
255 255 255
255 255 255
255 255 255
255 255 255
255 255 255
255 255 255
255 255 255
255 255 255
255 255 255
255 255 255
255 255 255
255 255 255
255 255 255
255 255 255
255 255 255
255 255 255
255 255 255
255 255 255
2 2 5
2 2 5
2 2 5
2 2 5
2 2 5
2 2 5
2 2 5
2 2 5
2 2 5
2 2 5
2 2 5
2 2 5
2 2 5
2 2 5
2 2 5
2 2 5
2 2 5
2 2 5
2 2 5
2 2 5
2 2 5
2 2 5
2 2 5
2 2 5
2 2 5
2 2 5
2 2 5
2 2 5
2 2 5
2 2 5
2 2 5
2 2 5
2 2 5
2 2 5
2 2 5
2 2 5
2 2 5
2 2 5
2 2 5
2 2 5
2 2 5
2 2 5
2 2 5
2 2 5
2 2 5
2 2 5
2 2 5
2 2 5
2 2 5
2 2 5
2 2 5
2 2 5
2 2 5
2 2 5
2 2 5
2 2 5
2 2 5
2 2 5
2 2 5
2 2 5
2 2 5
2 2 5
2 2 5
2 2 5
2 2 5
2 2 5
2 2 5
2 2 5
2 2 5
2 2 5
2 2 5
2 2 5
2 2 5
2 2 5
2 2 5
2 2 5
2 2 5
2 2 5
2 2 5
2 2 5
2 2 5
2 2 5
2 2 5
2 2 5
2 2 5
2 2 5
2 2 5
2 2 5
2 2 5
2 2 5
2 2 5
2 2 5
2 2 5
2 2 5
2 2 5
2 2 5
2 2 5
2 2 5
2 2 5
2 2 5
2 2 5
2 2 5
2 2 5
2 2 5
2 2 5
2 2 5
2 2 5
2 2 5
2 2 5
2 2 5
2 2 5
2 2 5
2 2 5
2 2 5
2 2 5
2 2 5
2 2 5
2 2 5
2 2 5
2 2 5
2 2 5
2 2 5
2 2 5
2 2 5
2 2 5
2 2 5
2 2 5
2 2 5
2 2 5
2 2 5
2 2 5
2 2 5
2 2 5
2 2 5
2 2 5
2 2 5
2 2 5
2 2 5
2 2 5
2 2 5
2 2 5
2 2 5
2 2 5
2 2 5
2 2 5
2 2 5
2 2 5
2 2 5
2 2 5
2 2 5
2 2 5
2 2 5
2 2 5
2 2 5
2 2 5
2 2 5
2 2 5
2 2 5
2 2 5
2 2 5
2 2 5
2 2 5
2 2 5
2 2 5
2 2 5
2 2 5
2 2 5
2 2 5
2 2 5
2 2 5
2 2 5
2 2 5
2 2 5
2 2 5
2 2 5
2 2 5
2 2 5
2 2 5
2 2 5
2 2 5
2 2 5
2 2 5
2 2 5
2 2 5
2 2 5
2 2 5
2 2 5
2 2 5
2 2 5
2 2 5
2 2 5
2 2 5
2 2 5
2 2 5
2 2 5
2 2 5
2 2 5
2 2 5
2 2 5
2 2 5
2 2 5
2 2 5
2 2 5
2 2 5
2 2 5
2 2 5
2 2 5
2 2 5
2 2 5
2 2 5
2 2 5
2 2 5
2 2 5
2 2 5
2 2 5
2 2 5
2 2 5
2 2 5
2 2 5
2 2 5
2 2 5
2 2 5
2 2 5
2 2 5
2 2 5
2 2 5
2 2 5
2 2 5
2 2 5
2 2 5
2 2 5
2 2 5
2 2 5
2 2 5
2 2 5
2 2 5
2 2 5
2 2 5
2 2 5
2 2 5
2 2 5
2 2 5
2 2 5
2 2 5
2 2 5
2 2 5
2 2 5
2 2 5
2 2 5
2 2 5
2 2 5
2 2 5
2 2 5
2 2 5
2 2 5
2 2 5
2 2 5
2 2 5
2 2 5
2 2 5
2 2 5
2 2 5
2 2 5
2 2 5
2 2 5
2 2 5
2 2 5
2 2 5
2 2 5
2 2 5
2 2 5
2 2 5
2 2 5
2 2 5
2 2 5
2 2 5
2 2 5
2 2 5
2 2 5
2 2 5
2 2 5
2 2 5
2 2 5
2 2 5
2 2 5
2 2 5
2 2 5
2 2 5
2 2 5
2 2 5
2 2 5
2 2 5
2 2 5
2 2 5
2 2 5
2 2 5
2 2 5
2 2 5
2 2 5
2 2 5
2 2 5
2 2 5
2 2 5
2 2 5
2 2 5
2 2 5
2 2 5
2 2 5
2 2 5
2 2 5
2 2 5
2 2 5
2 2 5
2 2 5
2 2 5
2 2 5
2 2 5
2 2 5
2 2 5
255 255 255
255 255 255
255 255 255
255 255 255
255 255 255
255 255 255
255 255 255
255 255 255
255 255 255
255 255 255
255 255 255
255 255 255
255 255 255
255 255 255
255 255 255
255 255 255
255 255 255
255 255 255
255 255 255
255 255 255
255 255 255
255 255 255
255 255 255
255 255 255
255 255 255
255 255 255
255 255 255
255 255 255
255 255 255
255 255 255
255 255 255
255 255 255
255 255 255
255 255 255
255 255 255
255 255 255
255 255 255
255 255 255
255 255 255
255 255 255
255 255 255
255 255 255
255 255 255
255 255 255
255 255 255
255 255 255
255 255 255
255 255 255
255 255 255
255 255 255
255 255 255
255 255 255
255 255 255
255 255 255
255 255 255
255 255 255
255 255 255
255 255 255
255 255 255
255 255 255
255 255 255
255 255 255
255 255 255
255 255 255
255 255 255
255 255 255
255 255 255
255 255 255
255 255 255
255 255 255
255 255 255
255 255 255
255 255 255
255 255 255
255 255 255
255 255 255
255 255 255
255 255 255
255 255 255
255 255 255
255 255 255
255 255 255
2 2 5
2 2 5
2 2 5
2 2 5
2 2 5
2 2 5
2 2 5
2 2 5
2 2 5
2 2 5
2 2 5
2 2 5
2 2 5
2 2 5
2 2 5
2 2 5
2 2 5
2 2 5
2 2 5
2 2 5
2 2 5
2 2 5
2 2 5
2 2 5
2 2 5
2 2 5
2 2 5
2 2 5
2 2 5
2 2 5
2 2 5
2 2 5
2 2 5
2 2 5
2 2 5
2 2 5
2 2 5
2 2 5
2 2 5
2 2 5
2 2 5
2 2 5
2 2 5
2 2 5
2 2 5
2 2 5
2 2 5
2 2 5
2 2 5
2 2 5
2 2 5
2 2 5
2 2 5
2 2 5
2 2 5
2 2 5
2 2 5
2 2 5
2 2 5
2 2 5
2 2 5
2 2 5
2 2 5
2 2 5
2 2 5
2 2 5
2 2 5
2 2 5
2 2 5
2 2 5
2 2 5
2 2 5
2 2 5
2 2 5
2 2 5
2 2 5
2 2 5
2 2 5
2 2 5
2 2 5
2 2 5
2 2 5
2 2 5
2 2 5
2 2 5
2 2 5
2 2 5
2 2 5
2 2 5
2 2 5
2 2 5
2 2 5
2 2 5
2 2 5
2 2 5
2 2 5
2 2 5
2 2 5
2 2 5
2 2 5
2 2 5
2 2 5
2 2 5
2 2 5
2 2 5
2 2 5
2 2 5
2 2 5
2 2 5
2 2 5
2 2 5
2 2 5
2 2 5
2 2 5
2 2 5
2 2 5
2 2 5
2 2 5
2 2 5
2 2 5
2 2 5
2 2 5
2 2 5
2 2 5
2 2 5
2 2 5
2 2 5
2 2 5
2 2 5
2 2 5
2 2 5
2 2 5
2 2 5
2 2 5
2 2 5
2 2 5
2 2 5
2 2 5
2 2 5
2 2 5
2 2 5
2 2 5
2 2 5
2 2 5
2 2 5
2 2 5
2 2 5
2 2 5
2 2 5
2 2 5
2 2 5
2 2 5
2 2 5
2 2 5
2 2 5
2 2 5
2 2 5
2 2 5
2 2 5
2 2 5
2 2 5
2 2 5
2 2 5
2 2 5
2 2 5
2 2 5
2 2 5
2 2 5
2 2 5
2 2 5
2 2 5
2 2 5
2 2 5
2 2 5
2 2 5
2 2 5
2 2 5
2 2 5
2 2 5
2 2 5
2 2 5
2 2 5
2 2 5
2 2 5
2 2 5
2 2 5
2 2 5
2 2 5
2 2 5
2 2 5
2 2 5
2 2 5
2 2 5
2 2 5
2 2 5
2 2 5
2 2 5
2 2 5
2 2 5
2 2 5
2 2 5
2 2 5
2 2 5
2 2 5
2 2 5
2 2 5
2 2 5
2 2 5
2 2 5
2 2 5
2 2 5
2 2 5
2 2 5
2 2 5
2 2 5
2 2 5
2 2 5
2 2 5
2 2 5
2 2 5
2 2 5
2 2 5
2 2 5
2 2 5
2 2 5
2 2 5
2 2 5
2 2 5
2 2 5
2 2 5
2 2 5
2 2 5
2 2 5
2 2 5
2 2 5
2 2 5
2 2 5
2 2 5
2 2 5
2 2 5
2 2 5
2 2 5
2 2 5
2 2 5
2 2 5
2 2 5
2 2 5
2 2 5
2 2 5
2 2 5
2 2 5
2 2 5
2 2 5
2 2 5
2 2 5
2 2 5
2 2 5
2 2 5
2 2 5
2 2 5
2 2 5
2 2 5
2 2 5
2 2 5
2 2 5
2 2 5
2 2 5
2 2 5
2 2 5
2 2 5
2 2 5
2 2 5
2 2 5
2 2 5
2 2 5
2 2 5
2 2 5
2 2 5
2 2 5
2 2 5
2 2 5
2 2 5
2 2 5
2 2 5
2 2 5
2 2 5
2 2 5
2 2 5
2 2 5
2 2 5
2 2 5
2 2 5
2 2 5
2 2 5
2 2 5
2 2 5
2 2 5
2 2 5
2 2 5
2 2 5
2 2 5
2 2 5
2 2 5
2 2 5
2 2 5
2 2 5
2 2 5
2 2 5
2 2 5
2 2 5
2 2 5
2 2 5
2 2 5
2 2 5
2 2 5
2 2 5
2 2 5
2 2 5
2 2 5
255 255 255
255 255 255
255 255 255
255 255 255
255 255 255
255 255 255
255 255 255
255 255 255
255 255 255
255 255 255
255 255 255
255 255 255
255 255 255
255 255 255
255 255 255
255 255 255
255 255 255
255 255 255
255 255 255
255 255 255
255 255 255
255 255 255
255 255 255
255 255 255
255 255 255
255 255 255
255 255 255
255 255 255
255 255 255
255 255 255
255 255 255
255 255 255
255 255 255
255 255 255
255 255 255
255 255 255
255 255 255
255 255 255
255 255 255
255 255 255
255 255 255
255 255 255
255 255 255
255 255 255
255 255 255
255 255 255
255 255 255
255 255 255
255 255 255
255 255 255
255 255 255
255 255 255
255 255 255
255 255 255
255 255 255
255 255 255
255 255 255
255 255 255
255 255 255
255 255 255
255 255 255
255 255 255
255 255 255
255 255 255
255 255 255
255 255 255
255 255 255
255 255 255
255 255 255
255 255 255
255 255 255
255 255 255
255 255 255
255 255 255
255 255 255
255 255 255
255 255 255
255 255 255
255 255 255
255 255 255
2 2 5
2 2 5
2 2 5
2 2 5
2 2 5
2 2 5
2 2 5
2 2 5
2 2 5
2 2 5
2 2 5
2 2 5
2 2 5
2 2 5
2 2 5
2 2 5
2 2 5
2 2 5
2 2 5
2 2 5
2 2 5
2 2 5
2 2 5
2 2 5
2 2 5
2 2 5
2 2 5
2 2 5
2 2 5
2 2 5
2 2 5
2 2 5
2 2 5
2 2 5
2 2 5
2 2 5
2 2 5
2 2 5
2 2 5
2 2 5
2 2 5
2 2 5
2 2 5
2 2 5
2 2 5
2 2 5
2 2 5
2 2 5
2 2 5
2 2 5
2 2 5
2 2 5
2 2 5
2 2 5
2 2 5
2 2 5
2 2 5
2 2 5
2 2 5
2 2 5
2 2 5
2 2 5
2 2 5
2 2 5
2 2 5
2 2 5
2 2 5
2 2 5
2 2 5
2 2 5
2 2 5
2 2 5
2 2 5
2 2 5
2 2 5
2 2 5
2 2 5
2 2 5
2 2 5
2 2 5
2 2 5
2 2 5
2 2 5
2 2 5
2 2 5
2 2 5
2 2 5
2 2 5
2 2 5
2 2 5
2 2 5
2 2 5
2 2 5
2 2 5
2 2 5
2 2 5
2 2 5
2 2 5
2 2 5
2 2 5
2 2 5
2 2 5
2 2 5
2 2 5
2 2 5
2 2 5
2 2 5
2 2 5
2 2 5
2 2 5
2 2 5
2 2 5
2 2 5
2 2 5
2 2 5
2 2 5
2 2 5
2 2 5
2 2 5
2 2 5
2 2 5
2 2 5
2 2 5
2 2 5
2 2 5
2 2 5
2 2 5
2 2 5
2 2 5
2 2 5
2 2 5
2 2 5
2 2 5
2 2 5
2 2 5
2 2 5
2 2 5
2 2 5
2 2 5
2 2 5
2 2 5
2 2 5
2 2 5
2 2 5
2 2 5
2 2 5
2 2 5
2 2 5
2 2 5
2 2 5
2 2 5
2 2 5
2 2 5
2 2 5
2 2 5
2 2 5
2 2 5
2 2 5
2 2 5
2 2 5
2 2 5
2 2 5
2 2 5
2 2 5
2 2 5
2 2 5
2 2 5
2 2 5
2 2 5
2 2 5
2 2 5
2 2 5
2 2 5
2 2 5
2 2 5
2 2 5
2 2 5
2 2 5
2 2 5
2 2 5
2 2 5
2 2 5
2 2 5
2 2 5
2 2 5
2 2 5
2 2 5
2 2 5
2 2 5
2 2 5
2 2 5
2 2 5
2 2 5
2 2 5
2 2 5
2 2 5
2 2 5
2 2 5
2 2 5
2 2 5
2 2 5
2 2 5
2 2 5
2 2 5
2 2 5
2 2 5
2 2 5
2 2 5
2 2 5
2 2 5
2 2 5
2 2 5
2 2 5
2 2 5
2 2 5
2 2 5
2 2 5
2 2 5
2 2 5
2 2 5
2 2 5
2 2 5
2 2 5
2 2 5
2 2 5
2 2 5
2 2 5
2 2 5
2 2 5
2 2 5
2 2 5
2 2 5
2 2 5
2 2 5
2 2 5
2 2 5
2 2 5
2 2 5
2 2 5
2 2 5
2 2 5
2 2 5
2 2 5
2 2 5
2 2 5
2 2 5
2 2 5
2 2 5
2 2 5
2 2 5
2 2 5
2 2 5
2 2 5
2 2 5
2 2 5
2 2 5
2 2 5
2 2 5
2 2 5
2 2 5
2 2 5
2 2 5
2 2 5
2 2 5
2 2 5
2 2 5
2 2 5
2 2 5
2 2 5
2 2 5
2 2 5
2 2 5
2 2 5
2 2 5
2 2 5
2 2 5
2 2 5
2 2 5
2 2 5
2 2 5
2 2 5
2 2 5
2 2 5
2 2 5
2 2 5
2 2 5
2 2 5
2 2 5
2 2 5
2 2 5
2 2 5
2 2 5
2 2 5
2 2 5
2 2 5
2 2 5
2 2 5
2 2 5
2 2 5
2 2 5
2 2 5
2 2 5
2 2 5
2 2 5
2 2 5
2 2 5
2 2 5
2 2 5
2 2 5
2 2 5
2 2 5
2 2 5
2 2 5
2 2 5
2 2 5
2 2 5
2 2 5
2 2 5
2 2 5
2 2 5
255 255 255
255 255 255
255 255 255
255 255 255
255 255 255
255 255 255
255 255 255
255 255 255
255 255 255
255 255 255
255 255 255
255 255 255
255 255 255
255 255 255
255 255 255
255 255 255
255 255 255
255 255 255
255 255 255
255 255 255
255 255 255
255 255 255
255 255 255
255 255 255
255 255 255
255 255 255
255 255 255
255 255 255
255 255 255
255 255 255
255 255 255
255 255 255
255 255 255
255 255 255
255 255 255
255 255 255
255 255 255
255 255 255
255 255 255
255 255 255
255 255 255
255 255 255
255 255 255
255 255 255
255 255 255
255 255 255
255 255 255
255 255 255
255 255 255
255 255 255
255 255 255
255 255 255
255 255 255
255 255 255
255 255 255
255 255 255
255 255 255
255 255 255
255 255 255
255 255 255
255 255 255
255 255 255
255 255 255
255 255 255
255 255 255
255 255 255
255 255 255
255 255 255
255 255 255
255 255 255
255 255 255
255 255 255
255 255 255
255 255 255
255 255 255
255 255 255
255 255 255
255 255 255
255 255 255
2 2 5
2 2 5
2 2 5
2 2 5
2 2 5
2 2 5
2 2 5
2 2 5
2 2 5
2 2 5
2 2 5
2 2 5
2 2 5
2 2 5
2 2 5
2 2 5
2 2 5
2 2 5
2 2 5
2 2 5
2 2 5
2 2 5
2 2 5
2 2 5
2 2 5
2 2 5
2 2 5
2 2 5
2 2 5
2 2 5
2 2 5
2 2 5
2 2 5
2 2 5
2 2 5
2 2 5
2 2 5
2 2 5
2 2 5
2 2 5
2 2 5
2 2 5
2 2 5
2 2 5
2 2 5
2 2 5
2 2 5
2 2 5
2 2 5
2 2 5
2 2 5
2 2 5
2 2 5
2 2 5
2 2 5
2 2 5
2 2 5
2 2 5
2 2 5
2 2 5
2 2 5
2 2 5
2 2 5
2 2 5
2 2 5
2 2 5
2 2 5
2 2 5
2 2 5
2 2 5
2 2 5
2 2 5
2 2 5
2 2 5
2 2 5
2 2 5
2 2 5
2 2 5
2 2 5
2 2 5
2 2 5
2 2 5
2 2 5
2 2 5
2 2 5
2 2 5
2 2 5
2 2 5
2 2 5
2 2 5
2 2 5
2 2 5
2 2 5
2 2 5
2 2 5
2 2 5
2 2 5
2 2 5
2 2 5
2 2 5
2 2 5
2 2 5
2 2 5
2 2 5
2 2 5
2 2 5
2 2 5
2 2 5
2 2 5
2 2 5
2 2 5
2 2 5
2 2 5
2 2 5
2 2 5
2 2 5
2 2 5
2 2 5
2 2 5
2 2 5
2 2 5
2 2 5
2 2 5
2 2 5
2 2 5
2 2 5
2 2 5
2 2 5
2 2 5
2 2 5
2 2 5
2 2 5
2 2 5
2 2 5
2 2 5
2 2 5
2 2 5
2 2 5
2 2 5
2 2 5
2 2 5
2 2 5
2 2 5
2 2 5
2 2 5
2 2 5
2 2 5
2 2 5
2 2 5
2 2 5
2 2 5
2 2 5
2 2 5
2 2 5
2 2 5
2 2 5
2 2 5
2 2 5
2 2 5
2 2 5
2 2 5
2 2 5
2 2 5
2 2 5
2 2 5
2 2 5
2 2 5
2 2 5
2 2 5
2 2 5
2 2 5
2 2 5
2 2 5
2 2 5
2 2 5
2 2 5
2 2 5
2 2 5
2 2 5
2 2 5
2 2 5
2 2 5
2 2 5
2 2 5
2 2 5
2 2 5
2 2 5
2 2 5
2 2 5
2 2 5
2 2 5
2 2 5
2 2 5
2 2 5
2 2 5
2 2 5
2 2 5
2 2 5
2 2 5
2 2 5
2 2 5
2 2 5
2 2 5
2 2 5
2 2 5
2 2 5
2 2 5
2 2 5
2 2 5
2 2 5
2 2 5
2 2 5
2 2 5
2 2 5
2 2 5
2 2 5
2 2 5
2 2 5
2 2 5
2 2 5
2 2 5
2 2 5
2 2 5
2 2 5
2 2 5
2 2 5
2 2 5
2 2 5
2 2 5
2 2 5
2 2 5
2 2 5
2 2 5
2 2 5
2 2 5
2 2 5
2 2 5
2 2 5
2 2 5
2 2 5
2 2 5
2 2 5
2 2 5
2 2 5
2 2 5
2 2 5
2 2 5
2 2 5
2 2 5
2 2 5
2 2 5
2 2 5
2 2 5
2 2 5
2 2 5
2 2 5
2 2 5
2 2 5
2 2 5
2 2 5
2 2 5
2 2 5
2 2 5
2 2 5
2 2 5
2 2 5
2 2 5
2 2 5
2 2 5
2 2 5
2 2 5
2 2 5
2 2 5
2 2 5
2 2 5
2 2 5
2 2 5
2 2 5
2 2 5
2 2 5
2 2 5
2 2 5
2 2 5
2 2 5
2 2 5
2 2 5
2 2 5
2 2 5
2 2 5
2 2 5
2 2 5
2 2 5
2 2 5
2 2 5
2 2 5
2 2 5
2 2 5
2 2 5
2 2 5
2 2 5
2 2 5
2 2 5
2 2 5
2 2 5
2 2 5
2 2 5
2 2 5
2 2 5
2 2 5
2 2 5
2 2 5
2 2 5
2 2 5
2 2 5
2 2 5
2 2 5
2 2 5
2 2 5
2 2 5
2 2 5
2 2 5
2 2 5
255 255 255
255 255 255
255 255 255
255 255 255
255 255 255
255 255 255
255 255 255
255 255 255
255 255 255
255 255 255
255 255 255
255 255 255
255 255 255
255 255 255
255 255 255
255 255 255
255 255 255
255 255 255
255 255 255
255 255 255
255 255 255
255 255 255
255 255 255
255 255 255
255 255 255
255 255 255
255 255 255
255 255 255
255 255 255
255 255 255
255 255 255
255 255 255
255 255 255
255 255 255
255 255 255
255 255 255
255 255 255
255 255 255
255 255 255
255 255 255
255 255 255
255 255 255
255 255 255
255 255 255
255 255 255
255 255 255
255 255 255
255 255 255
255 255 255
255 255 255
255 255 255
255 255 255
255 255 255
255 255 255
255 255 255
255 255 255
255 255 255
255 255 255
255 255 255
255 255 255
255 255 255
255 255 255
255 255 255
255 255 255
255 255 255
255 255 255
255 255 255
255 255 255
255 255 255
255 255 255
255 255 255
255 255 255
255 255 255
255 255 255
255 255 255
255 255 255
255 255 255
255 255 255
2 2 5
2 2 5
2 2 5
2 2 5
2 2 5
2 2 5
2 2 5
2 2 5
2 2 5
2 2 5
2 2 5
2 2 5
2 2 5
2 2 5
2 2 5
2 2 5
2 2 5
2 2 5
2 2 5
2 2 5
2 2 5
2 2 5
2 2 5
2 2 5
2 2 5
2 2 5
2 2 5
2 2 5
2 2 5
2 2 5
2 2 5
2 2 5
2 2 5
2 2 5
2 2 5
2 2 5
2 2 5
2 2 5
2 2 5
2 2 5
2 2 5
2 2 5
2 2 5
2 2 5
2 2 5
2 2 5
2 2 5
2 2 5
2 2 5
2 2 5
2 2 5
2 2 5
2 2 5
2 2 5
2 2 5
2 2 5
2 2 5
2 2 5
2 2 5
2 2 5
2 2 5
2 2 5
2 2 5
2 2 5
2 2 5
2 2 5
2 2 5
2 2 5
2 2 5
2 2 5
2 2 5
2 2 5
2 2 5
2 2 5
2 2 5
2 2 5
2 2 5
2 2 5
2 2 5
2 2 5
2 2 5
2 2 5
2 2 5
2 2 5
2 2 5
2 2 5
2 2 5
2 2 5
2 2 5
2 2 5
2 2 5
2 2 5
2 2 5
2 2 5
2 2 5
2 2 5
2 2 5
2 2 5
2 2 5
2 2 5
2 2 5
2 2 5
2 2 5
2 2 5
2 2 5
2 2 5
2 2 5
2 2 5
2 2 5
2 2 5
2 2 5
2 2 5
2 2 5
2 2 5
2 2 5
2 2 5
2 2 5
2 2 5
2 2 5
2 2 5
2 2 5
2 2 5
2 2 5
2 2 5
2 2 5
2 2 5
2 2 5
2 2 5
2 2 5
2 2 5
2 2 5
2 2 5
2 2 5
2 2 5
2 2 5
2 2 5
2 2 5
2 2 5
2 2 5
2 2 5
2 2 5
2 2 5
2 2 5
2 2 5
2 2 5
2 2 5
2 2 5
2 2 5
2 2 5
2 2 5
2 2 5
2 2 5
2 2 5
2 2 5
2 2 5
2 2 5
2 2 5
2 2 5
2 2 5
2 2 5
2 2 5
2 2 5
2 2 5
2 2 5
2 2 5
2 2 5
2 2 5
2 2 5
2 2 5
2 2 5
2 2 5
2 2 5
2 2 5
2 2 5
2 2 5
2 2 5
2 2 5
2 2 5
2 2 5
2 2 5
2 2 5
2 2 5
2 2 5
2 2 5
2 2 5
2 2 5
2 2 5
2 2 5
2 2 5
2 2 5
2 2 5
2 2 5
2 2 5
2 2 5
2 2 5
2 2 5
2 2 5
2 2 5
2 2 5
2 2 5
2 2 5
2 2 5
2 2 5
2 2 5
2 2 5
2 2 5
2 2 5
2 2 5
2 2 5
2 2 5
2 2 5
2 2 5
2 2 5
2 2 5
2 2 5
2 2 5
2 2 5
2 2 5
2 2 5
2 2 5
2 2 5
2 2 5
2 2 5
2 2 5
2 2 5
2 2 5
2 2 5
2 2 5
2 2 5
2 2 5
2 2 5
2 2 5
2 2 5
2 2 5
2 2 5
2 2 5
2 2 5
2 2 5
2 2 5
2 2 5
2 2 5
2 2 5
2 2 5
2 2 5
2 2 5
2 2 5
2 2 5
2 2 5
2 2 5
2 2 5
2 2 5
2 2 5
2 2 5
2 2 5
2 2 5
2 2 5
2 2 5
2 2 5
2 2 5
2 2 5
2 2 5
2 2 5
2 2 5
2 2 5
2 2 5
2 2 5
2 2 5
2 2 5
2 2 5
2 2 5
2 2 5
2 2 5
2 2 5
2 2 5
2 2 5
2 2 5
2 2 5
2 2 5
2 2 5
2 2 5
2 2 5
2 2 5
2 2 5
2 2 5
2 2 5
2 2 5
2 2 5
2 2 5
2 2 5
2 2 5
2 2 5
2 2 5
2 2 5
2 2 5
2 2 5
2 2 5
2 2 5
2 2 5
2 2 5
2 2 5
2 2 5
2 2 5
2 2 5
2 2 5
2 2 5
2 2 5
2 2 5
2 2 5
2 2 5
2 2 5
2 2 5
2 2 5
2 2 5
2 2 5
2 2 5
2 2 5
2 2 5
2 2 5
2 2 5
2 2 5
2 2 5
2 2 5
255 255 255
255 255 255
255 255 255
255 255 255
255 255 255
255 255 255
255 255 255
255 255 255
255 255 255
255 255 255
255 255 255
255 255 255
255 255 255
255 255 255
255 255 255
255 255 255
255 255 255
255 255 255
255 255 255
255 255 255
255 255 255
255 255 255
255 255 255
255 255 255
255 255 255
255 255 255
255 255 255
255 255 255
255 255 255
255 255 255
255 255 255
255 255 255
255 255 255
255 255 255
255 255 255
255 255 255
255 255 255
255 255 255
255 255 255
255 255 255
255 255 255
255 255 255
255 255 255
255 255 255
255 255 255
255 255 255
255 255 255
255 255 255
255 255 255
255 255 255
255 255 255
255 255 255
255 255 255
255 255 255
255 255 255
255 255 255
255 255 255
255 255 255
255 255 255
255 255 255
255 255 255
255 255 255
255 255 255
255 255 255
255 255 255
255 255 255
255 255 255
255 255 255
255 255 255
255 255 255
255 255 255
255 255 255
255 255 255
255 255 255
255 255 255
255 255 255
255 255 255
255 255 255
2 2 5
2 2 5
2 2 5
2 2 5
2 2 5
2 2 5
2 2 5
2 2 5
2 2 5
2 2 5
2 2 5
2 2 5
2 2 5
2 2 5
2 2 5
2 2 5
2 2 5
2 2 5
2 2 5
2 2 5
2 2 5
2 2 5
2 2 5
2 2 5
2 2 5
2 2 5
2 2 5
2 2 5
2 2 5
2 2 5
2 2 5
2 2 5
2 2 5
2 2 5
2 2 5
2 2 5
2 2 5
2 2 5
2 2 5
2 2 5
2 2 5
2 2 5
2 2 5
2 2 5
2 2 5
2 2 5
2 2 5
2 2 5
2 2 5
2 2 5
2 2 5
2 2 5
2 2 5
2 2 5
2 2 5
2 2 5
2 2 5
2 2 5
2 2 5
2 2 5
2 2 5
2 2 5
2 2 5
2 2 5
2 2 5
2 2 5
2 2 5
2 2 5
2 2 5
2 2 5
2 2 5
2 2 5
2 2 5
2 2 5
2 2 5
2 2 5
2 2 5
2 2 5
2 2 5
2 2 5
2 2 5
2 2 5
2 2 5
2 2 5
2 2 5
2 2 5
2 2 5
2 2 5
2 2 5
2 2 5
2 2 5
2 2 5
2 2 5
2 2 5
2 2 5
2 2 5
2 2 5
2 2 5
2 2 5
2 2 5
2 2 5
2 2 5
2 2 5
2 2 5
2 2 5
2 2 5
2 2 5
2 2 5
2 2 5
2 2 5
2 2 5
2 2 5
2 2 5
2 2 5
2 2 5
2 2 5
2 2 5
2 2 5
2 2 5
2 2 5
2 2 5
2 2 5
2 2 5
2 2 5
2 2 5
2 2 5
2 2 5
2 2 5
2 2 5
2 2 5
2 2 5
2 2 5
2 2 5
2 2 5
2 2 5
2 2 5
2 2 5
2 2 5
2 2 5
2 2 5
2 2 5
2 2 5
2 2 5
2 2 5
2 2 5
2 2 5
2 2 5
2 2 5
2 2 5
2 2 5
2 2 5
2 2 5
2 2 5
2 2 5
2 2 5
2 2 5
2 2 5
2 2 5
2 2 5
2 2 5
2 2 5
2 2 5
2 2 5
2 2 5
2 2 5
2 2 5
2 2 5
2 2 5
2 2 5
2 2 5
2 2 5
2 2 5
2 2 5
2 2 5
2 2 5
2 2 5
2 2 5
2 2 5
2 2 5
2 2 5
2 2 5
2 2 5
2 2 5
2 2 5
2 2 5
2 2 5
2 2 5
2 2 5
2 2 5
2 2 5
2 2 5
2 2 5
2 2 5
2 2 5
2 2 5
2 2 5
2 2 5
2 2 5
2 2 5
2 2 5
2 2 5
2 2 5
2 2 5
2 2 5
2 2 5
2 2 5
2 2 5
2 2 5
2 2 5
2 2 5
2 2 5
2 2 5
2 2 5
2 2 5
2 2 5
2 2 5
2 2 5
2 2 5
2 2 5
2 2 5
2 2 5
2 2 5
2 2 5
2 2 5
2 2 5
2 2 5
2 2 5
2 2 5
2 2 5
2 2 5
2 2 5
2 2 5
2 2 5
2 2 5
2 2 5
2 2 5
2 2 5
2 2 5
2 2 5
2 2 5
2 2 5
2 2 5
2 2 5
2 2 5
2 2 5
2 2 5
2 2 5
2 2 5
2 2 5
2 2 5
2 2 5
2 2 5
2 2 5
2 2 5
2 2 5
2 2 5
2 2 5
2 2 5
2 2 5
2 2 5
2 2 5
2 2 5
2 2 5
2 2 5
2 2 5
2 2 5
2 2 5
2 2 5
2 2 5
2 2 5
2 2 5
2 2 5
2 2 5
2 2 5
2 2 5
2 2 5
2 2 5
2 2 5
2 2 5
2 2 5
2 2 5
2 2 5
2 2 5
2 2 5
2 2 5
2 2 5
2 2 5
2 2 5
2 2 5
2 2 5
2 2 5
2 2 5
2 2 5
2 2 5
2 2 5
2 2 5
2 2 5
2 2 5
2 2 5
2 2 5
2 2 5
2 2 5
2 2 5
2 2 5
2 2 5
2 2 5
2 2 5
2 2 5
2 2 5
2 2 5
2 2 5
2 2 5
2 2 5
2 2 5
2 2 5
2 2 5
2 2 5
2 2 5
2 2 5
2 2 5
2 2 5
2 2 5
255 255 255
255 255 255
255 255 255
255 255 255
255 255 255
255 255 255
255 255 255
255 255 255
255 255 255
255 255 255
255 255 255
255 255 255
255 255 255
255 255 255
255 255 255
255 255 255
255 255 255
255 255 255
255 255 255
255 255 255
255 255 255
255 255 255
255 255 255
255 255 255
255 255 255
255 255 255
255 255 255
255 255 255
255 255 255
255 255 255
255 255 255
255 255 255
255 255 255
255 255 255
255 255 255
255 255 255
255 255 255
255 255 255
255 255 255
255 255 255
255 255 255
255 255 255
255 255 255
255 255 255
255 255 255
255 255 255
255 255 255
255 255 255
255 255 255
255 255 255
255 255 255
255 255 255
255 255 255
255 255 255
255 255 255
255 255 255
255 255 255
255 255 255
255 255 255
255 255 255
255 255 255
255 255 255
255 255 255
255 255 255
255 255 255
255 255 255
255 255 255
255 255 255
255 255 255
255 255 255
255 255 255
255 255 255
255 255 255
255 255 255
255 255 255
255 255 255
255 255 255
255 255 255
2 2 5
2 2 5
2 2 5
2 2 5
2 2 5
2 2 5
2 2 5
2 2 5
2 2 5
2 2 5
2 2 5
2 2 5
2 2 5
2 2 5
2 2 5
2 2 5
2 2 5
2 2 5
2 2 5
2 2 5
2 2 5
2 2 5
2 2 5
2 2 5
2 2 5
2 2 5
2 2 5
2 2 5
2 2 5
2 2 5
2 2 5
2 2 5
2 2 5
2 2 5
2 2 5
2 2 5
2 2 5
2 2 5
2 2 5
2 2 5
2 2 5
2 2 5
2 2 5
2 2 5
2 2 5
2 2 5
2 2 5
2 2 5
2 2 5
2 2 5
2 2 5
2 2 5
2 2 5
2 2 5
2 2 5
2 2 5
2 2 5
2 2 5
2 2 5
2 2 5
2 2 5
2 2 5
2 2 5
2 2 5
2 2 5
2 2 5
2 2 5
2 2 5
2 2 5
2 2 5
2 2 5
2 2 5
2 2 5
2 2 5
2 2 5
2 2 5
2 2 5
2 2 5
2 2 5
2 2 5
2 2 5
2 2 5
2 2 5
2 2 5
2 2 5
2 2 5
2 2 5
2 2 5
2 2 5
2 2 5
2 2 5
2 2 5
2 2 5
2 2 5
2 2 5
2 2 5
2 2 5
2 2 5
2 2 5
2 2 5
2 2 5
2 2 5
2 2 5
2 2 5
2 2 5
2 2 5
2 2 5
2 2 5
2 2 5
2 2 5
2 2 5
2 2 5
2 2 5
2 2 5
2 2 5
2 2 5
2 2 5
2 2 5
2 2 5
2 2 5
2 2 5
2 2 5
2 2 5
2 2 5
2 2 5
2 2 5
2 2 5
2 2 5
2 2 5
2 2 5
2 2 5
2 2 5
2 2 5
2 2 5
2 2 5
2 2 5
2 2 5
2 2 5
2 2 5
2 2 5
2 2 5
2 2 5
2 2 5
2 2 5
2 2 5
2 2 5
2 2 5
2 2 5
2 2 5
2 2 5
2 2 5
2 2 5
2 2 5
2 2 5
2 2 5
2 2 5
2 2 5
2 2 5
2 2 5
2 2 5
2 2 5
2 2 5
2 2 5
2 2 5
2 2 5
2 2 5
2 2 5
2 2 5
2 2 5
2 2 5
2 2 5
2 2 5
2 2 5
2 2 5
2 2 5
2 2 5
2 2 5
2 2 5
2 2 5
2 2 5
2 2 5
2 2 5
2 2 5
2 2 5
2 2 5
2 2 5
2 2 5
2 2 5
2 2 5
2 2 5
2 2 5
2 2 5
2 2 5
2 2 5
2 2 5
2 2 5
2 2 5
2 2 5
2 2 5
2 2 5
2 2 5
2 2 5
2 2 5
2 2 5
2 2 5
2 2 5
2 2 5
2 2 5
2 2 5
2 2 5
2 2 5
2 2 5
2 2 5
2 2 5
2 2 5
2 2 5
2 2 5
2 2 5
2 2 5
2 2 5
2 2 5
2 2 5
2 2 5
2 2 5
2 2 5
2 2 5
2 2 5
2 2 5
2 2 5
2 2 5
2 2 5
2 2 5
2 2 5
2 2 5
2 2 5
2 2 5
2 2 5
2 2 5
2 2 5
2 2 5
2 2 5
2 2 5
2 2 5
2 2 5
2 2 5
2 2 5
2 2 5
2 2 5
2 2 5
2 2 5
2 2 5
2 2 5
2 2 5
2 2 5
2 2 5
2 2 5
2 2 5
2 2 5
2 2 5
2 2 5
2 2 5
2 2 5
2 2 5
2 2 5
2 2 5
2 2 5
2 2 5
2 2 5
2 2 5
2 2 5
2 2 5
2 2 5
2 2 5
2 2 5
2 2 5
2 2 5
2 2 5
2 2 5
2 2 5
2 2 5
2 2 5
2 2 5
2 2 5
2 2 5
2 2 5
2 2 5
2 2 5
2 2 5
2 2 5
2 2 5
2 2 5
2 2 5
2 2 5
2 2 5
2 2 5
2 2 5
2 2 5
2 2 5
2 2 5
2 2 5
2 2 5
2 2 5
2 2 5
2 2 5
2 2 5
2 2 5
2 2 5
2 2 5
2 2 5
2 2 5
2 2 5
2 2 5
2 2 5
2 2 5
2 2 5
2 2 5
2 2 5
2 2 5
2 2 5
2 2 5
2 2 5
2 2 5
2 2 5
255 255 255
255 255 255
255 255 255
255 255 255
255 255 255
255 255 255
255 255 255
255 255 255
255 255 255
255 255 255
255 255 255
255 255 255
255 255 255
255 255 255
255 255 255
255 255 255
255 255 255
255 255 255
255 255 255
255 255 255
255 255 255
255 255 255
255 255 255
255 255 255
255 255 255
255 255 255
255 255 255
255 255 255
255 255 255
255 255 255
255 255 255
255 255 255
255 255 255
255 255 255
255 255 255
255 255 255
255 255 255
255 255 255
255 255 255
255 255 255
255 255 255
255 255 255
255 255 255
255 255 255
255 255 255
255 255 255
255 255 255
255 255 255
255 255 255
255 255 255
255 255 255
255 255 255
255 255 255
255 255 255
255 255 255
255 255 255
255 255 255
255 255 255
255 255 255
255 255 255
255 255 255
255 255 255
255 255 255
255 255 255
255 255 255
255 255 255
255 255 255
255 255 255
255 255 255
255 255 255
255 255 255
255 255 255
255 255 255
255 255 255
255 255 255
255 255 255
255 255 255
2 2 5
2 2 5
2 2 5
2 2 5
2 2 5
2 2 5
2 2 5
2 2 5
2 2 5
2 2 5
2 2 5
2 2 5
2 2 5
2 2 5
2 2 5
2 2 5
2 2 5
2 2 5
2 2 5
2 2 5
2 2 5
2 2 5
2 2 5
2 2 5
2 2 5
2 2 5
2 2 5
2 2 5
2 2 5
2 2 5
2 2 5
2 2 5
2 2 5
2 2 5
2 2 5
2 2 5
2 2 5
2 2 5
2 2 5
2 2 5
2 2 5
2 2 5
2 2 5
2 2 5
2 2 5
2 2 5
2 2 5
2 2 5
2 2 5
2 2 5
2 2 5
2 2 5
2 2 5
2 2 5
2 2 5
2 2 5
2 2 5
2 2 5
2 2 5
2 2 5
2 2 5
2 2 5
2 2 5
2 2 5
2 2 5
2 2 5
2 2 5
2 2 5
2 2 5
2 2 5
2 2 5
2 2 5
2 2 5
2 2 5
2 2 5
2 2 5
2 2 5
2 2 5
2 2 5
2 2 5
2 2 5
2 2 5
2 2 5
2 2 5
2 2 5
2 2 5
2 2 5
2 2 5
2 2 5
2 2 5
2 2 5
2 2 5
2 2 5
2 2 5
2 2 5
2 2 5
2 2 5
2 2 5
2 2 5
2 2 5
2 2 5
2 2 5
2 2 5
2 2 5
2 2 5
2 2 5
2 2 5
2 2 5
2 2 5
2 2 5
2 2 5
2 2 5
2 2 5
2 2 5
2 2 5
2 2 5
2 2 5
2 2 5
2 2 5
2 2 5
2 2 5
2 2 5
2 2 5
2 2 5
2 2 5
2 2 5
2 2 5
2 2 5
2 2 5
2 2 5
2 2 5
2 2 5
2 2 5
2 2 5
2 2 5
2 2 5
2 2 5
2 2 5
2 2 5
2 2 5
2 2 5
2 2 5
2 2 5
2 2 5
2 2 5
2 2 5
2 2 5
2 2 5
2 2 5
2 2 5
2 2 5
2 2 5
2 2 5
2 2 5
2 2 5
2 2 5
2 2 5
2 2 5
2 2 5
2 2 5
2 2 5
2 2 5
2 2 5
2 2 5
2 2 5
2 2 5
2 2 5
2 2 5
2 2 5
2 2 5
2 2 5
2 2 5
2 2 5
2 2 5
2 2 5
2 2 5
2 2 5
2 2 5
2 2 5
2 2 5
2 2 5
2 2 5
2 2 5
2 2 5
2 2 5
2 2 5
2 2 5
2 2 5
2 2 5
2 2 5
2 2 5
2 2 5
2 2 5
2 2 5
2 2 5
2 2 5
2 2 5
2 2 5
2 2 5
2 2 5
2 2 5
2 2 5
2 2 5
2 2 5
2 2 5
2 2 5
2 2 5
2 2 5
2 2 5
2 2 5
2 2 5
2 2 5
2 2 5
2 2 5
2 2 5
2 2 5
2 2 5
2 2 5
2 2 5
2 2 5
2 2 5
2 2 5
2 2 5
2 2 5
2 2 5
2 2 5
2 2 5
2 2 5
2 2 5
2 2 5
2 2 5
2 2 5
2 2 5
2 2 5
2 2 5
2 2 5
2 2 5
2 2 5
2 2 5
2 2 5
2 2 5
2 2 5
2 2 5
2 2 5
2 2 5
2 2 5
2 2 5
2 2 5
2 2 5
2 2 5
2 2 5
2 2 5
2 2 5
2 2 5
2 2 5
2 2 5
2 2 5
2 2 5
2 2 5
2 2 5
2 2 5
2 2 5
2 2 5
2 2 5
2 2 5
2 2 5
2 2 5
2 2 5
2 2 5
2 2 5
2 2 5
2 2 5
2 2 5
2 2 5
2 2 5
2 2 5
2 2 5
2 2 5
2 2 5
2 2 5
2 2 5
2 2 5
2 2 5
2 2 5
2 2 5
2 2 5
2 2 5
2 2 5
2 2 5
2 2 5
2 2 5
2 2 5
2 2 5
2 2 5
2 2 5
2 2 5
2 2 5
2 2 5
2 2 5
2 2 5
2 2 5
2 2 5
2 2 5
2 2 5
2 2 5
2 2 5
2 2 5
2 2 5
2 2 5
2 2 5
2 2 5
2 2 5
2 2 5
2 2 5
2 2 5
2 2 5
2 2 5
2 2 5
2 2 5
2 2 5
2 2 5
2 2 5
255 255 255
255 255 255
255 255 255
255 255 255
255 255 255
255 255 255
255 255 255
255 255 255
255 255 255
255 255 255
255 255 255
255 255 255
255 255 255
255 255 255
255 255 255
255 255 255
255 255 255
255 255 255
255 255 255
255 255 255
255 255 255
255 255 255
255 255 255
255 255 255
255 255 255
255 255 255
255 255 255
255 255 255
255 255 255
255 255 255
255 255 255
255 255 255
255 255 255
255 255 255
255 255 255
255 255 255
255 255 255
255 255 255
255 255 255
255 255 255
255 255 255
255 255 255
255 255 255
255 255 255
255 255 255
255 255 255
255 255 255
255 255 255
255 255 255
255 255 255
255 255 255
255 255 255
255 255 255
255 255 255
255 255 255
255 255 255
255 255 255
255 255 255
255 255 255
255 255 255
255 255 255
255 255 255
255 255 255
255 255 255
255 255 255
255 255 255
255 255 255
255 255 255
255 255 255
255 255 255
255 255 255
255 255 255
255 255 255
255 255 255
255 255 255
255 255 255
255 255 255
2 2 5
2 2 5
2 2 5
2 2 5
2 2 5
2 2 5
2 2 5
2 2 5
2 2 5
2 2 5
2 2 5
2 2 5
2 2 5
2 2 5
2 2 5
2 2 5
2 2 5
2 2 5
2 2 5
2 2 5
2 2 5
2 2 5
2 2 5
2 2 5
2 2 5
2 2 5
2 2 5
2 2 5
2 2 5
2 2 5
2 2 5
2 2 5
2 2 5
2 2 5
2 2 5
2 2 5
2 2 5
2 2 5
2 2 5
2 2 5
2 2 5
2 2 5
2 2 5
2 2 5
2 2 5
2 2 5
2 2 5
2 2 5
2 2 5
2 2 5
2 2 5
2 2 5
2 2 5
2 2 5
2 2 5
2 2 5
2 2 5
2 2 5
2 2 5
2 2 5
2 2 5
2 2 5
2 2 5
2 2 5
2 2 5
2 2 5
2 2 5
2 2 5
2 2 5
2 2 5
2 2 5
2 2 5
2 2 5
2 2 5
2 2 5
2 2 5
2 2 5
2 2 5
2 2 5
2 2 5
2 2 5
2 2 5
2 2 5
2 2 5
2 2 5
2 2 5
2 2 5
2 2 5
2 2 5
2 2 5
2 2 5
2 2 5
2 2 5
2 2 5
2 2 5
2 2 5
2 2 5
2 2 5
2 2 5
2 2 5
2 2 5
2 2 5
2 2 5
2 2 5
2 2 5
2 2 5
2 2 5
2 2 5
2 2 5
2 2 5
2 2 5
2 2 5
2 2 5
2 2 5
2 2 5
2 2 5
2 2 5
2 2 5
2 2 5
2 2 5
2 2 5
2 2 5
2 2 5
2 2 5
2 2 5
2 2 5
2 2 5
2 2 5
2 2 5
2 2 5
2 2 5
2 2 5
2 2 5
2 2 5
2 2 5
2 2 5
2 2 5
2 2 5
2 2 5
2 2 5
2 2 5
2 2 5
2 2 5
2 2 5
2 2 5
2 2 5
2 2 5
2 2 5
2 2 5
2 2 5
2 2 5
2 2 5
2 2 5
2 2 5
2 2 5
2 2 5
2 2 5
2 2 5
2 2 5
2 2 5
2 2 5
2 2 5
2 2 5
2 2 5
2 2 5
2 2 5
2 2 5
2 2 5
2 2 5
2 2 5
2 2 5
2 2 5
2 2 5
2 2 5
2 2 5
2 2 5
2 2 5
2 2 5
2 2 5
2 2 5
2 2 5
2 2 5
2 2 5
2 2 5
2 2 5
2 2 5
2 2 5
2 2 5
2 2 5
2 2 5
2 2 5
2 2 5
2 2 5
2 2 5
2 2 5
2 2 5
2 2 5
2 2 5
2 2 5
2 2 5
2 2 5
2 2 5
2 2 5
2 2 5
2 2 5
2 2 5
2 2 5
2 2 5
2 2 5
2 2 5
2 2 5
2 2 5
2 2 5
2 2 5
2 2 5
2 2 5
2 2 5
2 2 5
2 2 5
2 2 5
2 2 5
2 2 5
2 2 5
2 2 5
2 2 5
2 2 5
2 2 5
2 2 5
2 2 5
2 2 5
2 2 5
2 2 5
2 2 5
2 2 5
2 2 5
2 2 5
2 2 5
2 2 5
2 2 5
2 2 5
2 2 5
2 2 5
2 2 5
2 2 5
2 2 5
2 2 5
2 2 5
2 2 5
2 2 5
2 2 5
2 2 5
2 2 5
2 2 5
2 2 5
2 2 5
2 2 5
2 2 5
2 2 5
2 2 5
2 2 5
2 2 5
2 2 5
2 2 5
2 2 5
2 2 5
2 2 5
2 2 5
2 2 5
2 2 5
2 2 5
2 2 5
2 2 5
2 2 5
2 2 5
2 2 5
2 2 5
2 2 5
2 2 5
2 2 5
2 2 5
2 2 5
2 2 5
2 2 5
2 2 5
2 2 5
2 2 5
2 2 5
2 2 5
2 2 5
2 2 5
2 2 5
2 2 5
2 2 5
2 2 5
2 2 5
2 2 5
2 2 5
2 2 5
2 2 5
2 2 5
2 2 5
2 2 5
2 2 5
2 2 5
2 2 5
2 2 5
2 2 5
2 2 5
2 2 5
2 2 5
2 2 5
2 2 5
2 2 5
2 2 5
2 2 5
2 2 5
2 2 5
2 2 5
2 2 5
2 2 5
2 2 5
2 2 5
2 2 5
2 2 5
255 255 255
255 255 255
255 255 255
255 255 255
255 255 255
255 255 255
255 255 255
255 255 255
255 255 255
255 255 255
255 255 255
255 255 255
255 255 255
255 255 255
255 255 255
255 255 255
255 255 255
255 255 255
255 255 255
255 255 255
255 255 255
255 255 255
255 255 255
255 255 255
255 255 255
255 255 255
255 255 255
255 255 255
255 255 255
255 255 255
255 255 255
255 255 255
255 255 255
255 255 255
255 255 255
255 255 255
255 255 255
255 255 255
255 255 255
255 255 255
255 255 255
255 255 255
255 255 255
255 255 255
255 255 255
255 255 255
255 255 255
255 255 255
255 255 255
255 255 255
255 255 255
255 255 255
255 255 255
255 255 255
255 255 255
255 255 255
255 255 255
255 255 255
255 255 255
255 255 255
255 255 255
255 255 255
255 255 255
255 255 255
255 255 255
255 255 255
255 255 255
255 255 255
255 255 255
255 255 255
255 255 255
255 255 255
255 255 255
255 255 255
255 255 255
255 255 255
2 2 5
2 2 5
2 2 5
2 2 5
2 2 5
2 2 5
2 2 5
2 2 5
2 2 5
2 2 5
2 2 5
2 2 5
2 2 5
2 2 5
2 2 5
2 2 5
2 2 5
2 2 5
2 2 5
2 2 5
2 2 5
2 2 5
2 2 5
2 2 5
2 2 5
2 2 5
2 2 5
2 2 5
2 2 5
2 2 5
2 2 5
2 2 5
2 2 5
2 2 5
2 2 5
2 2 5
2 2 5
2 2 5
2 2 5
2 2 5
2 2 5
2 2 5
2 2 5
2 2 5
2 2 5
2 2 5
2 2 5
2 2 5
2 2 5
2 2 5
2 2 5
2 2 5
2 2 5
2 2 5
2 2 5
2 2 5
2 2 5
2 2 5
2 2 5
2 2 5
2 2 5
2 2 5
2 2 5
2 2 5
2 2 5
2 2 5
2 2 5
2 2 5
2 2 5
2 2 5
2 2 5
2 2 5
2 2 5
2 2 5
2 2 5
2 2 5
2 2 5
2 2 5
2 2 5
2 2 5
2 2 5
2 2 5
2 2 5
2 2 5
2 2 5
2 2 5
2 2 5
2 2 5
2 2 5
2 2 5
2 2 5
2 2 5
2 2 5
2 2 5
2 2 5
2 2 5
2 2 5
2 2 5
2 2 5
2 2 5
2 2 5
2 2 5
2 2 5
2 2 5
2 2 5
2 2 5
2 2 5
2 2 5
2 2 5
2 2 5
2 2 5
2 2 5
2 2 5
2 2 5
2 2 5
2 2 5
2 2 5
2 2 5
2 2 5
2 2 5
2 2 5
2 2 5
2 2 5
2 2 5
2 2 5
2 2 5
2 2 5
2 2 5
2 2 5
2 2 5
2 2 5
2 2 5
2 2 5
2 2 5
2 2 5
2 2 5
2 2 5
2 2 5
2 2 5
2 2 5
2 2 5
2 2 5
2 2 5
2 2 5
2 2 5
2 2 5
2 2 5
2 2 5
2 2 5
2 2 5
2 2 5
2 2 5
2 2 5
2 2 5
2 2 5
2 2 5
2 2 5
2 2 5
2 2 5
2 2 5
2 2 5
2 2 5
2 2 5
2 2 5
2 2 5
2 2 5
2 2 5
2 2 5
2 2 5
2 2 5
2 2 5
2 2 5
2 2 5
2 2 5
2 2 5
2 2 5
2 2 5
2 2 5
2 2 5
2 2 5
2 2 5
2 2 5
2 2 5
2 2 5
2 2 5
2 2 5
2 2 5
2 2 5
2 2 5
2 2 5
2 2 5
2 2 5
2 2 5
2 2 5
2 2 5
2 2 5
2 2 5
2 2 5
2 2 5
2 2 5
2 2 5
2 2 5
2 2 5
2 2 5
2 2 5
2 2 5
2 2 5
2 2 5
2 2 5
2 2 5
2 2 5
2 2 5
2 2 5
2 2 5
2 2 5
2 2 5
2 2 5
2 2 5
2 2 5
2 2 5
2 2 5
2 2 5
2 2 5
2 2 5
2 2 5
2 2 5
2 2 5
2 2 5
2 2 5
2 2 5
2 2 5
2 2 5
2 2 5
2 2 5
2 2 5
2 2 5
2 2 5
2 2 5
2 2 5
2 2 5
2 2 5
2 2 5
2 2 5
2 2 5
2 2 5
2 2 5
2 2 5
2 2 5
2 2 5
2 2 5
2 2 5
2 2 5
2 2 5
2 2 5
2 2 5
2 2 5
2 2 5
2 2 5
2 2 5
2 2 5
2 2 5
2 2 5
2 2 5
2 2 5
2 2 5
2 2 5
2 2 5
2 2 5
2 2 5
2 2 5
2 2 5
2 2 5
2 2 5
2 2 5
2 2 5
2 2 5
2 2 5
2 2 5
2 2 5
2 2 5
2 2 5
2 2 5
2 2 5
2 2 5
2 2 5
2 2 5
2 2 5
2 2 5
2 2 5
2 2 5
2 2 5
2 2 5
2 2 5
2 2 5
2 2 5
2 2 5
2 2 5
2 2 5
2 2 5
2 2 5
2 2 5
2 2 5
2 2 5
2 2 5
2 2 5
2 2 5
2 2 5
2 2 5
2 2 5
2 2 5
2 2 5
2 2 5
2 2 5
2 2 5
2 2 5
2 2 5
2 2 5
2 2 5
2 2 5
2 2 5
2 2 5
2 2 5
2 2 5
2 2 5
255 255 255
255 255 255
255 255 255
255 255 255
255 255 255
255 255 255
255 255 255
255 255 255
255 255 255
255 255 255
255 255 255
255 255 255
255 255 255
255 255 255
255 255 255
255 255 255
255 255 255
255 255 255
255 255 255
255 255 255
255 255 255
255 255 255
255 255 255
255 255 255
255 255 255
255 255 255
255 255 255
255 255 255
255 255 255
255 255 255
255 255 255
255 255 255
255 255 255
255 255 255
255 255 255
255 255 255
255 255 255
255 255 255
255 255 255
255 255 255
255 255 255
255 255 255
255 255 255
255 255 255
255 255 255
255 255 255
255 255 255
255 255 255
255 255 255
255 255 255
255 255 255
255 255 255
255 255 255
255 255 255
255 255 255
255 255 255
255 255 255
255 255 255
255 255 255
255 255 255
255 255 255
255 255 255
255 255 255
255 255 255
255 255 255
255 255 255
255 255 255
255 255 255
255 255 255
255 255 255
255 255 255
255 255 255
255 255 255
255 255 255
255 255 255
2 2 5
2 2 5
2 2 5
2 2 5
2 2 5
2 2 5
2 2 5
2 2 5
2 2 5
2 2 5
2 2 5
2 2 5
2 2 5
2 2 5
2 2 5
2 2 5
2 2 5
2 2 5
2 2 5
2 2 5
2 2 5
2 2 5
2 2 5
2 2 5
2 2 5
2 2 5
2 2 5
2 2 5
2 2 5
2 2 5
2 2 5
2 2 5
2 2 5
2 2 5
2 2 5
2 2 5
2 2 5
2 2 5
2 2 5
2 2 5
2 2 5
2 2 5
2 2 5
2 2 5
2 2 5
2 2 5
2 2 5
2 2 5
2 2 5
2 2 5
2 2 5
2 2 5
2 2 5
2 2 5
2 2 5
2 2 5
2 2 5
2 2 5
2 2 5
2 2 5
2 2 5
2 2 5
2 2 5
2 2 5
2 2 5
2 2 5
2 2 5
2 2 5
2 2 5
2 2 5
2 2 5
2 2 5
2 2 5
2 2 5
2 2 5
2 2 5
2 2 5
2 2 5
2 2 5
2 2 5
2 2 5
2 2 5
2 2 5
2 2 5
2 2 5
2 2 5
2 2 5
2 2 5
2 2 5
2 2 5
2 2 5
2 2 5
2 2 5
2 2 5
2 2 5
2 2 5
2 2 5
2 2 5
2 2 5
2 2 5
2 2 5
2 2 5
2 2 5
2 2 5
2 2 5
2 2 5
2 2 5
2 2 5
2 2 5
2 2 5
2 2 5
2 2 5
2 2 5
2 2 5
2 2 5
2 2 5
2 2 5
2 2 5
2 2 5
2 2 5
2 2 5
2 2 5
2 2 5
2 2 5
2 2 5
2 2 5
2 2 5
2 2 5
2 2 5
2 2 5
2 2 5
2 2 5
2 2 5
2 2 5
2 2 5
2 2 5
2 2 5
2 2 5
2 2 5
2 2 5
2 2 5
2 2 5
2 2 5
2 2 5
2 2 5
2 2 5
2 2 5
2 2 5
2 2 5
2 2 5
2 2 5
2 2 5
2 2 5
2 2 5
2 2 5
2 2 5
2 2 5
2 2 5
2 2 5
2 2 5
2 2 5
2 2 5
2 2 5
2 2 5
2 2 5
2 2 5
2 2 5
2 2 5
2 2 5
2 2 5
2 2 5
2 2 5
2 2 5
2 2 5
2 2 5
2 2 5
2 2 5
2 2 5
2 2 5
2 2 5
2 2 5
2 2 5
2 2 5
2 2 5
2 2 5
2 2 5
2 2 5
2 2 5
2 2 5
2 2 5
2 2 5
2 2 5
2 2 5
2 2 5
2 2 5
2 2 5
2 2 5
2 2 5
2 2 5
2 2 5
2 2 5
2 2 5
2 2 5
2 2 5
2 2 5
2 2 5
2 2 5
2 2 5
2 2 5
2 2 5
2 2 5
2 2 5
2 2 5
2 2 5
2 2 5
2 2 5
2 2 5
2 2 5
2 2 5
2 2 5
2 2 5
2 2 5
2 2 5
2 2 5
2 2 5
2 2 5
2 2 5
2 2 5
2 2 5
2 2 5
2 2 5
2 2 5
2 2 5
2 2 5
2 2 5
2 2 5
2 2 5
2 2 5
2 2 5
2 2 5
2 2 5
2 2 5
2 2 5
2 2 5
2 2 5
2 2 5
2 2 5
2 2 5
2 2 5
2 2 5
2 2 5
2 2 5
2 2 5
2 2 5
2 2 5
2 2 5
2 2 5
2 2 5
2 2 5
2 2 5
2 2 5
2 2 5
2 2 5
2 2 5
2 2 5
2 2 5
2 2 5
2 2 5
2 2 5
2 2 5
2 2 5
2 2 5
2 2 5
2 2 5
2 2 5
2 2 5
2 2 5
2 2 5
2 2 5
2 2 5
2 2 5
2 2 5
2 2 5
2 2 5
2 2 5
2 2 5
2 2 5
2 2 5
2 2 5
2 2 5
2 2 5
2 2 5
2 2 5
2 2 5
2 2 5
2 2 5
2 2 5
2 2 5
2 2 5
2 2 5
2 2 5
2 2 5
2 2 5
2 2 5
2 2 5
2 2 5
2 2 5
2 2 5
2 2 5
2 2 5
2 2 5
2 2 5
2 2 5
2 2 5
2 2 5
2 2 5
2 2 5
2 2 5
2 2 5
2 2 5
2 2 5
2 2 5
2 2 5
2 2 5
2 2 5
255 255 255
255 255 255
255 255 255
255 255 255
255 255 255
255 255 255
255 255 255
255 255 255
255 255 255
255 255 255
255 255 255
255 255 255
255 255 255
255 255 255
255 255 255
255 255 255
255 255 255
255 255 255
255 255 255
255 255 255
255 255 255
255 255 255
255 255 255
255 255 255
255 255 255
255 255 255
255 255 255
255 255 255
255 255 255
255 255 255
255 255 255
255 255 255
255 255 255
255 255 255
255 255 255
255 255 255
255 255 255
255 255 255
255 255 255
255 255 255
255 255 255
255 255 255
255 255 255
255 255 255
255 255 255
255 255 255
255 255 255
255 255 255
255 255 255
255 255 255
255 255 255
255 255 255
255 255 255
255 255 255
255 255 255
255 255 255
255 255 255
255 255 255
255 255 255
255 255 255
255 255 255
255 255 255
255 255 255
255 255 255
255 255 255
255 255 255
255 255 255
255 255 255
255 255 255
255 255 255
255 255 255
255 255 255
255 255 255
255 255 255
255 255 255
2 2 5
2 2 5
2 2 5
2 2 5
2 2 5
2 2 5
2 2 5
2 2 5
2 2 5
2 2 5
2 2 5
2 2 5
2 2 5
2 2 5
2 2 5
2 2 5
2 2 5
2 2 5
2 2 5
2 2 5
2 2 5
2 2 5
2 2 5
2 2 5
2 2 5
2 2 5
2 2 5
2 2 5
2 2 5
2 2 5
2 2 5
2 2 5
2 2 5
2 2 5
2 2 5
2 2 5
2 2 5
2 2 5
2 2 5
2 2 5
2 2 5
2 2 5
2 2 5
2 2 5
2 2 5
2 2 5
2 2 5
2 2 5
2 2 5
2 2 5
2 2 5
2 2 5
2 2 5
2 2 5
2 2 5
2 2 5
2 2 5
2 2 5
2 2 5
2 2 5
2 2 5
2 2 5
2 2 5
2 2 5
2 2 5
2 2 5
2 2 5
2 2 5
2 2 5
2 2 5
2 2 5
2 2 5
2 2 5
2 2 5
2 2 5
2 2 5
2 2 5
2 2 5
2 2 5
2 2 5
2 2 5
2 2 5
2 2 5
2 2 5
2 2 5
2 2 5
2 2 5
2 2 5
2 2 5
2 2 5
2 2 5
2 2 5
2 2 5
2 2 5
2 2 5
2 2 5
2 2 5
2 2 5
2 2 5
2 2 5
2 2 5
2 2 5
2 2 5
2 2 5
2 2 5
2 2 5
2 2 5
2 2 5
2 2 5
2 2 5
2 2 5
2 2 5
2 2 5
2 2 5
2 2 5
2 2 5
2 2 5
2 2 5
2 2 5
2 2 5
2 2 5
2 2 5
2 2 5
2 2 5
2 2 5
2 2 5
2 2 5
2 2 5
2 2 5
2 2 5
2 2 5
2 2 5
2 2 5
2 2 5
2 2 5
2 2 5
2 2 5
2 2 5
2 2 5
2 2 5
2 2 5
2 2 5
2 2 5
2 2 5
2 2 5
2 2 5
2 2 5
2 2 5
2 2 5
2 2 5
2 2 5
2 2 5
2 2 5
2 2 5
2 2 5
2 2 5
2 2 5
2 2 5
2 2 5
2 2 5
2 2 5
2 2 5
2 2 5
2 2 5
2 2 5
2 2 5
2 2 5
2 2 5
2 2 5
2 2 5
2 2 5
2 2 5
2 2 5
2 2 5
2 2 5
2 2 5
2 2 5
2 2 5
2 2 5
2 2 5
2 2 5
2 2 5
2 2 5
2 2 5
2 2 5
2 2 5
2 2 5
2 2 5
2 2 5
2 2 5
2 2 5
2 2 5
2 2 5
2 2 5
2 2 5
2 2 5
2 2 5
2 2 5
2 2 5
2 2 5
2 2 5
2 2 5
2 2 5
2 2 5
2 2 5
2 2 5
2 2 5
2 2 5
2 2 5
2 2 5
2 2 5
2 2 5
2 2 5
2 2 5
2 2 5
2 2 5
2 2 5
2 2 5
2 2 5
2 2 5
2 2 5
2 2 5
2 2 5
2 2 5
2 2 5
2 2 5
2 2 5
2 2 5
2 2 5
2 2 5
2 2 5
2 2 5
2 2 5
2 2 5
2 2 5
2 2 5
2 2 5
2 2 5
2 2 5
2 2 5
2 2 5
2 2 5
2 2 5
2 2 5
2 2 5
2 2 5
2 2 5
2 2 5
2 2 5
2 2 5
2 2 5
2 2 5
2 2 5
2 2 5
2 2 5
2 2 5
2 2 5
2 2 5
2 2 5
2 2 5
2 2 5
2 2 5
2 2 5
2 2 5
2 2 5
2 2 5
2 2 5
2 2 5
2 2 5
2 2 5
2 2 5
2 2 5
2 2 5
2 2 5
2 2 5
2 2 5
2 2 5
2 2 5
2 2 5
2 2 5
2 2 5
2 2 5
2 2 5
2 2 5
2 2 5
2 2 5
2 2 5
2 2 5
2 2 5
2 2 5
2 2 5
2 2 5
2 2 5
2 2 5
2 2 5
2 2 5
2 2 5
2 2 5
2 2 5
2 2 5
2 2 5
2 2 5
2 2 5
2 2 5
2 2 5
2 2 5
2 2 5
2 2 5
2 2 5
2 2 5
2 2 5
2 2 5
2 2 5
2 2 5
2 2 5
2 2 5
2 2 5
2 2 5
2 2 5
2 2 5
2 2 5
2 2 5
2 2 5
2 2 5
2 2 5
2 2 5
255 255 255
255 255 255
255 255 255
255 255 255
255 255 255
255 255 255
255 255 255
255 255 255
255 255 255
255 255 255
255 255 255
255 255 255
255 255 255
255 255 255
255 255 255
255 255 255
255 255 255
255 255 255
255 255 255
255 255 255
255 255 255
255 255 255
255 255 255
255 255 255
255 255 255
255 255 255
255 255 255
255 255 255
255 255 255
255 255 255
255 255 255
255 255 255
255 255 255
255 255 255
255 255 255
255 255 255
255 255 255
255 255 255
255 255 255
255 255 255
255 255 255
255 255 255
255 255 255
255 255 255
255 255 255
255 255 255
255 255 255
255 255 255
255 255 255
255 255 255
255 255 255
255 255 255
255 255 255
255 255 255
255 255 255
255 255 255
255 255 255
255 255 255
255 255 255
255 255 255
255 255 255
255 255 255
255 255 255
255 255 255
255 255 255
255 255 255
255 255 255
255 255 255
255 255 255
255 255 255
255 255 255
255 255 255
255 255 255
255 255 255
2 2 5
2 2 5
2 2 5
2 2 5
2 2 5
2 2 5
2 2 5
2 2 5
2 2 5
2 2 5
2 2 5
2 2 5
2 2 5
2 2 5
2 2 5
2 2 5
2 2 5
2 2 5
2 2 5
2 2 5
2 2 5
2 2 5
2 2 5
2 2 5
2 2 5
2 2 5
2 2 5
2 2 5
2 2 5
2 2 5
2 2 5
2 2 5
2 2 5
2 2 5
2 2 5
2 2 5
2 2 5
2 2 5
2 2 5
2 2 5
2 2 5
2 2 5
2 2 5
2 2 5
2 2 5
2 2 5
2 2 5
2 2 5
2 2 5
2 2 5
2 2 5
2 2 5
2 2 5
2 2 5
2 2 5
2 2 5
2 2 5
2 2 5
2 2 5
2 2 5
2 2 5
2 2 5
2 2 5
2 2 5
2 2 5
2 2 5
2 2 5
2 2 5
2 2 5
2 2 5
2 2 5
2 2 5
2 2 5
2 2 5
2 2 5
2 2 5
2 2 5
2 2 5
2 2 5
2 2 5
2 2 5
2 2 5
2 2 5
2 2 5
2 2 5
2 2 5
2 2 5
2 2 5
2 2 5
2 2 5
2 2 5
2 2 5
2 2 5
2 2 5
2 2 5
2 2 5
2 2 5
2 2 5
2 2 5
2 2 5
2 2 5
2 2 5
2 2 5
2 2 5
2 2 5
2 2 5
2 2 5
2 2 5
2 2 5
2 2 5
2 2 5
2 2 5
2 2 5
2 2 5
2 2 5
2 2 5
2 2 5
2 2 5
2 2 5
2 2 5
2 2 5
2 2 5
2 2 5
2 2 5
2 2 5
2 2 5
2 2 5
2 2 5
2 2 5
2 2 5
2 2 5
2 2 5
2 2 5
2 2 5
2 2 5
2 2 5
2 2 5
2 2 5
2 2 5
2 2 5
2 2 5
2 2 5
2 2 5
2 2 5
2 2 5
2 2 5
2 2 5
2 2 5
2 2 5
2 2 5
2 2 5
2 2 5
2 2 5
2 2 5
2 2 5
2 2 5
2 2 5
2 2 5
2 2 5
2 2 5
2 2 5
2 2 5
2 2 5
2 2 5
2 2 5
2 2 5
2 2 5
2 2 5
2 2 5
2 2 5
2 2 5
2 2 5
2 2 5
2 2 5
2 2 5
2 2 5
2 2 5
2 2 5
2 2 5
2 2 5
2 2 5
2 2 5
2 2 5
2 2 5
2 2 5
2 2 5
2 2 5
2 2 5
2 2 5
2 2 5
2 2 5
2 2 5
2 2 5
2 2 5
2 2 5
2 2 5
2 2 5
2 2 5
2 2 5
2 2 5
2 2 5
2 2 5
2 2 5
2 2 5
2 2 5
2 2 5
2 2 5
2 2 5
2 2 5
2 2 5
2 2 5
2 2 5
2 2 5
2 2 5
2 2 5
2 2 5
2 2 5
2 2 5
2 2 5
2 2 5
2 2 5
2 2 5
2 2 5
2 2 5
2 2 5
2 2 5
2 2 5
2 2 5
2 2 5
2 2 5
2 2 5
2 2 5
2 2 5
2 2 5
2 2 5
2 2 5
2 2 5
2 2 5
2 2 5
2 2 5
2 2 5
2 2 5
2 2 5
2 2 5
2 2 5
2 2 5
2 2 5
2 2 5
2 2 5
2 2 5
2 2 5
2 2 5
2 2 5
2 2 5
2 2 5
2 2 5
2 2 5
2 2 5
2 2 5
2 2 5
2 2 5
2 2 5
2 2 5
2 2 5
2 2 5
2 2 5
2 2 5
2 2 5
2 2 5
2 2 5
2 2 5
2 2 5
2 2 5
2 2 5
2 2 5
2 2 5
2 2 5
2 2 5
2 2 5
2 2 5
2 2 5
2 2 5
2 2 5
2 2 5
2 2 5
2 2 5
2 2 5
2 2 5
2 2 5
2 2 5
2 2 5
2 2 5
2 2 5
2 2 5
2 2 5
2 2 5
2 2 5
2 2 5
2 2 5
2 2 5
2 2 5
2 2 5
2 2 5
2 2 5
2 2 5
2 2 5
2 2 5
2 2 5
2 2 5
2 2 5
2 2 5
2 2 5
2 2 5
2 2 5
2 2 5
2 2 5
2 2 5
2 2 5
2 2 5
2 2 5
2 2 5
2 2 5
2 2 5
2 2 5
2 2 5
2 2 5
255 255 255
255 255 255
255 255 255
255 255 255
255 255 255
255 255 255
255 255 255
255 255 255
255 255 255
255 255 255
255 255 255
255 255 255
255 255 255
255 255 255
255 255 255
255 255 255
255 255 255
255 255 255
255 255 255
255 255 255
255 255 255
255 255 255
255 255 255
255 255 255
255 255 255
255 255 255
255 255 255
255 255 255
255 255 255
255 255 255
255 255 255
255 255 255
255 255 255
255 255 255
255 255 255
255 255 255
255 255 255
255 255 255
255 255 255
255 255 255
255 255 255
255 255 255
255 255 255
255 255 255
255 255 255
255 255 255
255 255 255
255 255 255
255 255 255
255 255 255
255 255 255
255 255 255
255 255 255
255 255 255
255 255 255
255 255 255
255 255 255
255 255 255
255 255 255
255 255 255
255 255 255
255 255 255
255 255 255
255 255 255
255 255 255
255 255 255
255 255 255
255 255 255
255 255 255
255 255 255
255 255 255
255 255 255
255 255 255
2 2 5
2 2 5
2 2 5
2 2 5
2 2 5
2 2 5
2 2 5
2 2 5
2 2 5
2 2 5
2 2 5
2 2 5
2 2 5
2 2 5
2 2 5
2 2 5
2 2 5
2 2 5
2 2 5
2 2 5
2 2 5
2 2 5
2 2 5
2 2 5
2 2 5
2 2 5
2 2 5
2 2 5
2 2 5
2 2 5
2 2 5
2 2 5
2 2 5
2 2 5
2 2 5
2 2 5
2 2 5
2 2 5
2 2 5
2 2 5
2 2 5
2 2 5
2 2 5
2 2 5
2 2 5
2 2 5
2 2 5
2 2 5
2 2 5
2 2 5
2 2 5
2 2 5
2 2 5
2 2 5
2 2 5
2 2 5
2 2 5
2 2 5
2 2 5
2 2 5
2 2 5
2 2 5
2 2 5
2 2 5
2 2 5
2 2 5
2 2 5
2 2 5
2 2 5
2 2 5
2 2 5
2 2 5
2 2 5
2 2 5
2 2 5
2 2 5
2 2 5
2 2 5
2 2 5
2 2 5
2 2 5
2 2 5
2 2 5
2 2 5
2 2 5
2 2 5
2 2 5
2 2 5
2 2 5
2 2 5
2 2 5
2 2 5
2 2 5
2 2 5
2 2 5
2 2 5
2 2 5
2 2 5
2 2 5
2 2 5
2 2 5
2 2 5
2 2 5
2 2 5
2 2 5
2 2 5
2 2 5
2 2 5
2 2 5
2 2 5
2 2 5
2 2 5
2 2 5
2 2 5
2 2 5
2 2 5
2 2 5
2 2 5
2 2 5
2 2 5
2 2 5
2 2 5
2 2 5
2 2 5
2 2 5
2 2 5
2 2 5
2 2 5
2 2 5
2 2 5
2 2 5
2 2 5
2 2 5
2 2 5
2 2 5
2 2 5
2 2 5
2 2 5
2 2 5
2 2 5
2 2 5
2 2 5
2 2 5
2 2 5
2 2 5
2 2 5
2 2 5
2 2 5
2 2 5
2 2 5
2 2 5
2 2 5
2 2 5
2 2 5
2 2 5
2 2 5
2 2 5
2 2 5
2 2 5
2 2 5
2 2 5
2 2 5
2 2 5
2 2 5
2 2 5
2 2 5
2 2 5
2 2 5
2 2 5
2 2 5
2 2 5
2 2 5
2 2 5
2 2 5
2 2 5
2 2 5
2 2 5
2 2 5
2 2 5
2 2 5
2 2 5
2 2 5
2 2 5
2 2 5
2 2 5
2 2 5
2 2 5
2 2 5
2 2 5
2 2 5
2 2 5
2 2 5
2 2 5
2 2 5
2 2 5
2 2 5
2 2 5
2 2 5
2 2 5
2 2 5
2 2 5
2 2 5
2 2 5
2 2 5
2 2 5
2 2 5
2 2 5
2 2 5
2 2 5
2 2 5
2 2 5
2 2 5
2 2 5
2 2 5
2 2 5
2 2 5
2 2 5
2 2 5
2 2 5
2 2 5
2 2 5
2 2 5
2 2 5
2 2 5
2 2 5
2 2 5
2 2 5
2 2 5
2 2 5
2 2 5
2 2 5
2 2 5
2 2 5
2 2 5
2 2 5
2 2 5
2 2 5
2 2 5
2 2 5
2 2 5
2 2 5
2 2 5
2 2 5
2 2 5
2 2 5
2 2 5
2 2 5
2 2 5
2 2 5
2 2 5
2 2 5
2 2 5
2 2 5
2 2 5
2 2 5
2 2 5
2 2 5
2 2 5
2 2 5
2 2 5
2 2 5
2 2 5
2 2 5
2 2 5
2 2 5
2 2 5
2 2 5
2 2 5
2 2 5
2 2 5
2 2 5
2 2 5
2 2 5
2 2 5
2 2 5
2 2 5
2 2 5
2 2 5
2 2 5
2 2 5
2 2 5
2 2 5
2 2 5
2 2 5
2 2 5
2 2 5
2 2 5
2 2 5
2 2 5
2 2 5
2 2 5
2 2 5
2 2 5
2 2 5
2 2 5
2 2 5
2 2 5
2 2 5
2 2 5
2 2 5
2 2 5
2 2 5
2 2 5
2 2 5
2 2 5
2 2 5
2 2 5
2 2 5
2 2 5
2 2 5
2 2 5
2 2 5
2 2 5
2 2 5
2 2 5
2 2 5
2 2 5
2 2 5
2 2 5
2 2 5
2 2 5
2 2 5
2 2 5
2 2 5
2 2 5
2 2 5
2 2 5
255 255 255
255 255 255
255 255 255
255 255 255
255 255 255
255 255 255
255 255 255
255 255 255
255 255 255
255 255 255
255 255 255
255 255 255
255 255 255
255 255 255
255 255 255
255 255 255
255 255 255
255 255 255
255 255 255
255 255 255
255 255 255
255 255 255
255 255 255
255 255 255
255 255 255
255 255 255
255 255 255
255 255 255
255 255 255
255 255 255
255 255 255
255 255 255
255 255 255
255 255 255
255 255 255
255 255 255
255 255 255
255 255 255
255 255 255
255 255 255
255 255 255
255 255 255
255 255 255
255 255 255
255 255 255
255 255 255
255 255 255
255 255 255
255 255 255
255 255 255
255 255 255
255 255 255
255 255 255
255 255 255
255 255 255
255 255 255
255 255 255
255 255 255
255 255 255
255 255 255
255 255 255
255 255 255
255 255 255
255 255 255
255 255 255
255 255 255
255 255 255
255 255 255
255 255 255
255 255 255
255 255 255
255 255 255
255 255 255
2 2 5
2 2 5
2 2 5
2 2 5
2 2 5
2 2 5
2 2 5
2 2 5
2 2 5
2 2 5
2 2 5
2 2 5
2 2 5
2 2 5
2 2 5
2 2 5
2 2 5
2 2 5
2 2 5
2 2 5
2 2 5
2 2 5
2 2 5
2 2 5
2 2 5
2 2 5
2 2 5
2 2 5
2 2 5
2 2 5
2 2 5
2 2 5
2 2 5
2 2 5
2 2 5
2 2 5
2 2 5
2 2 5
2 2 5
2 2 5
2 2 5
2 2 5
2 2 5
2 2 5
2 2 5
2 2 5
2 2 5
2 2 5
2 2 5
2 2 5
2 2 5
2 2 5
2 2 5
2 2 5
2 2 5
2 2 5
2 2 5
2 2 5
2 2 5
2 2 5
2 2 5
2 2 5
2 2 5
2 2 5
2 2 5
2 2 5
2 2 5
2 2 5
2 2 5
2 2 5
2 2 5
2 2 5
2 2 5
2 2 5
2 2 5
2 2 5
2 2 5
2 2 5
2 2 5
2 2 5
2 2 5
2 2 5
2 2 5
2 2 5
2 2 5
2 2 5
2 2 5
2 2 5
2 2 5
2 2 5
2 2 5
2 2 5
2 2 5
2 2 5
2 2 5
2 2 5
2 2 5
2 2 5
2 2 5
2 2 5
2 2 5
2 2 5
2 2 5
2 2 5
2 2 5
2 2 5
2 2 5
2 2 5
2 2 5
2 2 5
2 2 5
2 2 5
2 2 5
2 2 5
2 2 5
2 2 5
2 2 5
2 2 5
2 2 5
2 2 5
2 2 5
2 2 5
2 2 5
2 2 5
2 2 5
2 2 5
2 2 5
2 2 5
2 2 5
2 2 5
2 2 5
2 2 5
2 2 5
2 2 5
2 2 5
2 2 5
2 2 5
2 2 5
2 2 5
2 2 5
2 2 5
2 2 5
2 2 5
2 2 5
2 2 5
2 2 5
2 2 5
2 2 5
2 2 5
2 2 5
2 2 5
2 2 5
2 2 5
2 2 5
2 2 5
2 2 5
2 2 5
2 2 5
2 2 5
2 2 5
2 2 5
2 2 5
2 2 5
2 2 5
2 2 5
2 2 5
2 2 5
2 2 5
2 2 5
2 2 5
2 2 5
2 2 5
2 2 5
2 2 5
2 2 5
2 2 5
2 2 5
2 2 5
2 2 5
2 2 5
2 2 5
2 2 5
2 2 5
2 2 5
2 2 5
2 2 5
2 2 5
2 2 5
2 2 5
2 2 5
2 2 5
2 2 5
2 2 5
2 2 5
2 2 5
2 2 5
2 2 5
2 2 5
2 2 5
2 2 5
2 2 5
2 2 5
2 2 5
2 2 5
2 2 5
2 2 5
2 2 5
2 2 5
2 2 5
2 2 5
2 2 5
2 2 5
2 2 5
2 2 5
2 2 5
2 2 5
2 2 5
2 2 5
2 2 5
2 2 5
2 2 5
2 2 5
2 2 5
2 2 5
2 2 5
2 2 5
2 2 5
2 2 5
2 2 5
2 2 5
2 2 5
2 2 5
2 2 5
2 2 5
2 2 5
2 2 5
2 2 5
2 2 5
2 2 5
2 2 5
2 2 5
2 2 5
2 2 5
2 2 5
2 2 5
2 2 5
2 2 5
2 2 5
2 2 5
2 2 5
2 2 5
2 2 5
2 2 5
2 2 5
2 2 5
2 2 5
2 2 5
2 2 5
2 2 5
2 2 5
2 2 5
2 2 5
2 2 5
2 2 5
2 2 5
2 2 5
2 2 5
2 2 5
2 2 5
2 2 5
2 2 5
2 2 5
2 2 5
2 2 5
2 2 5
2 2 5
2 2 5
2 2 5
2 2 5
2 2 5
2 2 5
2 2 5
2 2 5
2 2 5
2 2 5
2 2 5
2 2 5
2 2 5
2 2 5
2 2 5
2 2 5
2 2 5
2 2 5
2 2 5
2 2 5
2 2 5
2 2 5
2 2 5
2 2 5
2 2 5
2 2 5
2 2 5
2 2 5
2 2 5
2 2 5
2 2 5
2 2 5
2 2 5
2 2 5
2 2 5
2 2 5
2 2 5
2 2 5
2 2 5
2 2 5
2 2 5
2 2 5
2 2 5
2 2 5
2 2 5
2 2 5
2 2 5
2 2 5
2 2 5
2 2 5
2 2 5
2 2 5
2 2 5
255 255 255
255 255 255
255 255 255
255 255 255
255 255 255
255 255 255
255 255 255
255 255 255
255 255 255
255 255 255
255 255 255
255 255 255
255 255 255
255 255 255
255 255 255
255 255 255
255 255 255
255 255 255
255 255 255
255 255 255
255 255 255
255 255 255
255 255 255
255 255 255
255 255 255
255 255 255
255 255 255
255 255 255
255 255 255
255 255 255
255 255 255
255 255 255
255 255 255
255 255 255
255 255 255
255 255 255
255 255 255
255 255 255
255 255 255
255 255 255
255 255 255
255 255 255
255 255 255
255 255 255
255 255 255
255 255 255
255 255 255
255 255 255
255 255 255
255 255 255
255 255 255
255 255 255
255 255 255
255 255 255
255 255 255
255 255 255
255 255 255
255 255 255
255 255 255
255 255 255
255 255 255
255 255 255
255 255 255
255 255 255
255 255 255
255 255 255
255 255 255
255 255 255
255 255 255
255 255 255
255 255 255
255 255 255
2 2 5
2 2 5
2 2 5
2 2 5
2 2 5
2 2 5
2 2 5
2 2 5
2 2 5
2 2 5
2 2 5
2 2 5
2 2 5
2 2 5
2 2 5
2 2 5
2 2 5
2 2 5
2 2 5
2 2 5
2 2 5
2 2 5
2 2 5
2 2 5
2 2 5
2 2 5
2 2 5
2 2 5
2 2 5
2 2 5
2 2 5
2 2 5
2 2 5
2 2 5
2 2 5
2 2 5
2 2 5
2 2 5
2 2 5
2 2 5
2 2 5
2 2 5
2 2 5
2 2 5
2 2 5
2 2 5
2 2 5
2 2 5
2 2 5
2 2 5
2 2 5
2 2 5
2 2 5
2 2 5
2 2 5
2 2 5
2 2 5
2 2 5
2 2 5
2 2 5
2 2 5
2 2 5
2 2 5
2 2 5
2 2 5
2 2 5
2 2 5
2 2 5
2 2 5
2 2 5
2 2 5
2 2 5
2 2 5
2 2 5
2 2 5
2 2 5
2 2 5
2 2 5
2 2 5
2 2 5
2 2 5
2 2 5
2 2 5
2 2 5
2 2 5
2 2 5
2 2 5
2 2 5
2 2 5
2 2 5
2 2 5
2 2 5
2 2 5
2 2 5
2 2 5
2 2 5
2 2 5
2 2 5
2 2 5
2 2 5
2 2 5
2 2 5
2 2 5
2 2 5
2 2 5
2 2 5
2 2 5
2 2 5
2 2 5
2 2 5
2 2 5
2 2 5
2 2 5
2 2 5
2 2 5
2 2 5
2 2 5
2 2 5
2 2 5
2 2 5
2 2 5
2 2 5
2 2 5
2 2 5
2 2 5
2 2 5
2 2 5
2 2 5
2 2 5
2 2 5
2 2 5
2 2 5
2 2 5
2 2 5
2 2 5
2 2 5
2 2 5
2 2 5
2 2 5
2 2 5
2 2 5
2 2 5
2 2 5
2 2 5
2 2 5
2 2 5
2 2 5
2 2 5
2 2 5
2 2 5
2 2 5
2 2 5
2 2 5
2 2 5
2 2 5
2 2 5
2 2 5
2 2 5
2 2 5
2 2 5
2 2 5
2 2 5
2 2 5
2 2 5
2 2 5
2 2 5
2 2 5
2 2 5
2 2 5
2 2 5
2 2 5
2 2 5
2 2 5
2 2 5
2 2 5
2 2 5
2 2 5
2 2 5
2 2 5
2 2 5
2 2 5
2 2 5
2 2 5
2 2 5
2 2 5
2 2 5
2 2 5
2 2 5
2 2 5
2 2 5
2 2 5
2 2 5
2 2 5
2 2 5
2 2 5
2 2 5
2 2 5
2 2 5
2 2 5
2 2 5
2 2 5
2 2 5
2 2 5
2 2 5
2 2 5
2 2 5
2 2 5
2 2 5
2 2 5
2 2 5
2 2 5
2 2 5
2 2 5
2 2 5
2 2 5
2 2 5
2 2 5
2 2 5
2 2 5
2 2 5
2 2 5
2 2 5
2 2 5
2 2 5
2 2 5
2 2 5
2 2 5
2 2 5
2 2 5
2 2 5
2 2 5
2 2 5
2 2 5
2 2 5
2 2 5
2 2 5
2 2 5
2 2 5
2 2 5
2 2 5
2 2 5
2 2 5
2 2 5
2 2 5
2 2 5
2 2 5
2 2 5
2 2 5
2 2 5
2 2 5
2 2 5
2 2 5
2 2 5
2 2 5
2 2 5
2 2 5
2 2 5
2 2 5
2 2 5
2 2 5
2 2 5
2 2 5
2 2 5
2 2 5
2 2 5
2 2 5
2 2 5
2 2 5
2 2 5
2 2 5
2 2 5
2 2 5
2 2 5
2 2 5
2 2 5
2 2 5
2 2 5
2 2 5
2 2 5
2 2 5
2 2 5
2 2 5
2 2 5
2 2 5
2 2 5
2 2 5
2 2 5
2 2 5
2 2 5
2 2 5
2 2 5
2 2 5
2 2 5
2 2 5
2 2 5
2 2 5
2 2 5
2 2 5
2 2 5
2 2 5
2 2 5
2 2 5
2 2 5
2 2 5
2 2 5
2 2 5
2 2 5
2 2 5
2 2 5
2 2 5
2 2 5
2 2 5
2 2 5
2 2 5
2 2 5
2 2 5
2 2 5
2 2 5
2 2 5
2 2 5
2 2 5
2 2 5
2 2 5
2 2 5
2 2 5
2 2 5
2 2 5
2 2 5
255 255 255
255 255 255
255 255 255
255 255 255
255 255 255
255 255 255
255 255 255
255 255 255
255 255 255
255 255 255
255 255 255
255 255 255
255 255 255
255 255 255
255 255 255
255 255 255
255 255 255
255 255 255
255 255 255
255 255 255
255 255 255
255 255 255
255 255 255
255 255 255
255 255 255
255 255 255
255 255 255
255 255 255
255 255 255
255 255 255
255 255 255
255 255 255
255 255 255
255 255 255
255 255 255
255 255 255
255 255 255
255 255 255
255 255 255
255 255 255
255 255 255
255 255 255
255 255 255
255 255 255
255 255 255
255 255 255
255 255 255
255 255 255
255 255 255
255 255 255
255 255 255
255 255 255
255 255 255
255 255 255
255 255 255
255 255 255
255 255 255
255 255 255
255 255 255
255 255 255
255 255 255
255 255 255
255 255 255
255 255 255
255 255 255
255 255 255
255 255 255
255 255 255
255 255 255
255 255 255
255 255 255
255 255 255
2 2 5
2 2 5
2 2 5
2 2 5
2 2 5
2 2 5
2 2 5
2 2 5
2 2 5
2 2 5
2 2 5
2 2 5
2 2 5
2 2 5
2 2 5
2 2 5
2 2 5
2 2 5
2 2 5
2 2 5
2 2 5
2 2 5
2 2 5
2 2 5
2 2 5
2 2 5
2 2 5
2 2 5
2 2 5
2 2 5
2 2 5
2 2 5
2 2 5
2 2 5
2 2 5
2 2 5
2 2 5
2 2 5
2 2 5
2 2 5
2 2 5
2 2 5
2 2 5
2 2 5
2 2 5
2 2 5
2 2 5
2 2 5
2 2 5
2 2 5
2 2 5
2 2 5
2 2 5
2 2 5
2 2 5
2 2 5
2 2 5
2 2 5
2 2 5
2 2 5
2 2 5
2 2 5
2 2 5
2 2 5
2 2 5
2 2 5
2 2 5
2 2 5
2 2 5
2 2 5
2 2 5
2 2 5
2 2 5
2 2 5
2 2 5
2 2 5
2 2 5
2 2 5
2 2 5
2 2 5
2 2 5
2 2 5
2 2 5
2 2 5
2 2 5
2 2 5
2 2 5
2 2 5
2 2 5
2 2 5
2 2 5
2 2 5
2 2 5
2 2 5
2 2 5
2 2 5
2 2 5
2 2 5
2 2 5
2 2 5
2 2 5
2 2 5
2 2 5
2 2 5
2 2 5
2 2 5
2 2 5
2 2 5
2 2 5
2 2 5
2 2 5
2 2 5
2 2 5
2 2 5
2 2 5
2 2 5
2 2 5
2 2 5
2 2 5
2 2 5
2 2 5
2 2 5
2 2 5
2 2 5
2 2 5
2 2 5
2 2 5
2 2 5
2 2 5
2 2 5
2 2 5
2 2 5
2 2 5
2 2 5
2 2 5
2 2 5
2 2 5
2 2 5
2 2 5
2 2 5
2 2 5
2 2 5
2 2 5
2 2 5
2 2 5
2 2 5
2 2 5
2 2 5
2 2 5
2 2 5
2 2 5
2 2 5
2 2 5
2 2 5
2 2 5
2 2 5
2 2 5
2 2 5
2 2 5
2 2 5
2 2 5
2 2 5
2 2 5
2 2 5
2 2 5
2 2 5
2 2 5
2 2 5
2 2 5
2 2 5
2 2 5
2 2 5
2 2 5
2 2 5
2 2 5
2 2 5
2 2 5
2 2 5
2 2 5
2 2 5
2 2 5
2 2 5
2 2 5
2 2 5
2 2 5
2 2 5
2 2 5
2 2 5
2 2 5
2 2 5
2 2 5
2 2 5
2 2 5
2 2 5
2 2 5
2 2 5
2 2 5
2 2 5
2 2 5
2 2 5
2 2 5
2 2 5
2 2 5
2 2 5
2 2 5
2 2 5
2 2 5
2 2 5
2 2 5
2 2 5
2 2 5
2 2 5
2 2 5
2 2 5
2 2 5
2 2 5
2 2 5
2 2 5
2 2 5
2 2 5
2 2 5
2 2 5
2 2 5
2 2 5
2 2 5
2 2 5
2 2 5
2 2 5
2 2 5
2 2 5
2 2 5
2 2 5
2 2 5
2 2 5
2 2 5
2 2 5
2 2 5
2 2 5
2 2 5
2 2 5
2 2 5
2 2 5
2 2 5
2 2 5
2 2 5
2 2 5
2 2 5
2 2 5
2 2 5
2 2 5
2 2 5
2 2 5
2 2 5
2 2 5
2 2 5
2 2 5
2 2 5
2 2 5
2 2 5
2 2 5
2 2 5
2 2 5
2 2 5
2 2 5
2 2 5
2 2 5
2 2 5
2 2 5
2 2 5
2 2 5
2 2 5
2 2 5
2 2 5
2 2 5
2 2 5
2 2 5
2 2 5
2 2 5
2 2 5
2 2 5
2 2 5
2 2 5
2 2 5
2 2 5
2 2 5
2 2 5
2 2 5
2 2 5
2 2 5
2 2 5
2 2 5
2 2 5
2 2 5
2 2 5
2 2 5
2 2 5
2 2 5
2 2 5
2 2 5
2 2 5
2 2 5
2 2 5
2 2 5
2 2 5
2 2 5
2 2 5
2 2 5
2 2 5
2 2 5
2 2 5
2 2 5
2 2 5
2 2 5
2 2 5
2 2 5
2 2 5
2 2 5
2 2 5
2 2 5
2 2 5
2 2 5
2 2 5
2 2 5
2 2 5
2 2 5
2 2 5
2 2 5
2 2 5
255 255 255
255 255 255
255 255 255
255 255 255
255 255 255
255 255 255
255 255 255
255 255 255
255 255 255
255 255 255
255 255 255
255 255 255
255 255 255
255 255 255
255 255 255
255 255 255
255 255 255
255 255 255
255 255 255
255 255 255
255 255 255
255 255 255
255 255 255
255 255 255
255 255 255
255 255 255
255 255 255
255 255 255
255 255 255
255 255 255
255 255 255
255 255 255
255 255 255
255 255 255
255 255 255
255 255 255
255 255 255
255 255 255
255 255 255
255 255 255
255 255 255
255 255 255
255 255 255
255 255 255
255 255 255
255 255 255
255 255 255
255 255 255
255 255 255
255 255 255
255 255 255
255 255 255
255 255 255
255 255 255
255 255 255
255 255 255
255 255 255
255 255 255
255 255 255
255 255 255
255 255 255
255 255 255
255 255 255
255 255 255
255 255 255
255 255 255
255 255 255
255 255 255
255 255 255
255 255 255
255 255 255
255 255 255
2 2 5
2 2 5
2 2 5
2 2 5
2 2 5
2 2 5
2 2 5
2 2 5
2 2 5
2 2 5
2 2 5
2 2 5
2 2 5
2 2 5
2 2 5
2 2 5
2 2 5
2 2 5
2 2 5
2 2 5
2 2 5
2 2 5
2 2 5
2 2 5
2 2 5
2 2 5
2 2 5
2 2 5
2 2 5
2 2 5
2 2 5
2 2 5
2 2 5
2 2 5
2 2 5
2 2 5
2 2 5
2 2 5
2 2 5
2 2 5
2 2 5
2 2 5
2 2 5
2 2 5
2 2 5
2 2 5
2 2 5
2 2 5
2 2 5
2 2 5
2 2 5
2 2 5
2 2 5
2 2 5
2 2 5
2 2 5
2 2 5
2 2 5
2 2 5
2 2 5
2 2 5
2 2 5
2 2 5
2 2 5
2 2 5
2 2 5
2 2 5
2 2 5
2 2 5
2 2 5
2 2 5
2 2 5
2 2 5
2 2 5
2 2 5
2 2 5
2 2 5
2 2 5
2 2 5
2 2 5
2 2 5
2 2 5
2 2 5
2 2 5
2 2 5
2 2 5
2 2 5
2 2 5
2 2 5
2 2 5
2 2 5
2 2 5
2 2 5
2 2 5
2 2 5
2 2 5
2 2 5
2 2 5
2 2 5
2 2 5
2 2 5
2 2 5
2 2 5
2 2 5
2 2 5
2 2 5
2 2 5
2 2 5
2 2 5
2 2 5
2 2 5
2 2 5
2 2 5
2 2 5
2 2 5
2 2 5
2 2 5
2 2 5
2 2 5
2 2 5
2 2 5
2 2 5
2 2 5
2 2 5
2 2 5
2 2 5
2 2 5
2 2 5
2 2 5
2 2 5
2 2 5
2 2 5
2 2 5
2 2 5
2 2 5
2 2 5
2 2 5
2 2 5
2 2 5
2 2 5
2 2 5
2 2 5
2 2 5
2 2 5
2 2 5
2 2 5
2 2 5
2 2 5
2 2 5
2 2 5
2 2 5
2 2 5
2 2 5
2 2 5
2 2 5
2 2 5
2 2 5
2 2 5
2 2 5
2 2 5
2 2 5
2 2 5
2 2 5
2 2 5
2 2 5
2 2 5
2 2 5
2 2 5
2 2 5
2 2 5
2 2 5
2 2 5
2 2 5
2 2 5
2 2 5
2 2 5
2 2 5
2 2 5
2 2 5
2 2 5
2 2 5
2 2 5
2 2 5
2 2 5
2 2 5
2 2 5
2 2 5
2 2 5
2 2 5
2 2 5
2 2 5
2 2 5
2 2 5
2 2 5
2 2 5
2 2 5
2 2 5
2 2 5
2 2 5
2 2 5
2 2 5
2 2 5
2 2 5
2 2 5
2 2 5
2 2 5
2 2 5
2 2 5
2 2 5
2 2 5
2 2 5
2 2 5
2 2 5
2 2 5
2 2 5
2 2 5
2 2 5
2 2 5
2 2 5
2 2 5
2 2 5
2 2 5
2 2 5
2 2 5
2 2 5
2 2 5
2 2 5
2 2 5
2 2 5
2 2 5
2 2 5
2 2 5
2 2 5
2 2 5
2 2 5
2 2 5
2 2 5
2 2 5
2 2 5
2 2 5
2 2 5
2 2 5
2 2 5
2 2 5
2 2 5
2 2 5
2 2 5
2 2 5
2 2 5
2 2 5
2 2 5
2 2 5
2 2 5
2 2 5
2 2 5
2 2 5
2 2 5
2 2 5
2 2 5
2 2 5
2 2 5
2 2 5
2 2 5
2 2 5
2 2 5
2 2 5
2 2 5
2 2 5
2 2 5
2 2 5
2 2 5
2 2 5
2 2 5
2 2 5
2 2 5
2 2 5
2 2 5
2 2 5
2 2 5
2 2 5
2 2 5
2 2 5
2 2 5
2 2 5
2 2 5
2 2 5
2 2 5
2 2 5
2 2 5
2 2 5
2 2 5
2 2 5
2 2 5
2 2 5
2 2 5
2 2 5
2 2 5
2 2 5
2 2 5
2 2 5
2 2 5
2 2 5
2 2 5
2 2 5
2 2 5
2 2 5
2 2 5
2 2 5
2 2 5
2 2 5
2 2 5
2 2 5
2 2 5
2 2 5
2 2 5
2 2 5
2 2 5
2 2 5
2 2 5
2 2 5
2 2 5
2 2 5
2 2 5
2 2 5
2 2 5
2 2 5
2 2 5
2 2 5
255 255 255
255 255 255
255 255 255
255 255 255
255 255 255
255 255 255
255 255 255
255 255 255
255 255 255
255 255 255
255 255 255
255 255 255
255 255 255
255 255 255
255 255 255
255 255 255
255 255 255
255 255 255
255 255 255
255 255 255
255 255 255
255 255 255
255 255 255
255 255 255
255 255 255
255 255 255
255 255 255
255 255 255
255 255 255
255 255 255
255 255 255
255 255 255
255 255 255
255 255 255
255 255 255
255 255 255
255 255 255
255 255 255
255 255 255
255 255 255
255 255 255
255 255 255
255 255 255
255 255 255
255 255 255
255 255 255
255 255 255
255 255 255
255 255 255
255 255 255
255 255 255
255 255 255
255 255 255
255 255 255
255 255 255
255 255 255
255 255 255
255 255 255
255 255 255
255 255 255
255 255 255
255 255 255
255 255 255
255 255 255
255 255 255
255 255 255
255 255 255
255 255 255
255 255 255
255 255 255
255 255 255
2 2 5
2 2 5
2 2 5
2 2 5
2 2 5
2 2 5
2 2 5
2 2 5
2 2 5
2 2 5
2 2 5
2 2 5
2 2 5
2 2 5
2 2 5
2 2 5
2 2 5
2 2 5
2 2 5
2 2 5
2 2 5
2 2 5
2 2 5
2 2 5
2 2 5
2 2 5
2 2 5
2 2 5
2 2 5
2 2 5
2 2 5
2 2 5
2 2 5
2 2 5
2 2 5
2 2 5
2 2 5
2 2 5
2 2 5
2 2 5
2 2 5
2 2 5
2 2 5
2 2 5
2 2 5
2 2 5
2 2 5
2 2 5
2 2 5
2 2 5
2 2 5
2 2 5
2 2 5
2 2 5
2 2 5
2 2 5
2 2 5
2 2 5
2 2 5
2 2 5
2 2 5
2 2 5
2 2 5
2 2 5
2 2 5
2 2 5
2 2 5
2 2 5
2 2 5
2 2 5
2 2 5
2 2 5
2 2 5
2 2 5
2 2 5
2 2 5
2 2 5
2 2 5
2 2 5
2 2 5
2 2 5
2 2 5
2 2 5
2 2 5
2 2 5
2 2 5
2 2 5
2 2 5
2 2 5
2 2 5
2 2 5
2 2 5
2 2 5
2 2 5
2 2 5
2 2 5
2 2 5
2 2 5
2 2 5
2 2 5
2 2 5
2 2 5
2 2 5
2 2 5
2 2 5
2 2 5
2 2 5
2 2 5
2 2 5
2 2 5
2 2 5
2 2 5
2 2 5
2 2 5
2 2 5
2 2 5
2 2 5
2 2 5
2 2 5
2 2 5
2 2 5
2 2 5
2 2 5
2 2 5
2 2 5
2 2 5
2 2 5
2 2 5
2 2 5
2 2 5
2 2 5
2 2 5
2 2 5
2 2 5
2 2 5
2 2 5
2 2 5
2 2 5
2 2 5
2 2 5
2 2 5
2 2 5
2 2 5
2 2 5
2 2 5
2 2 5
2 2 5
2 2 5
2 2 5
2 2 5
2 2 5
2 2 5
2 2 5
2 2 5
2 2 5
2 2 5
2 2 5
2 2 5
2 2 5
2 2 5
2 2 5
2 2 5
2 2 5
2 2 5
2 2 5
2 2 5
2 2 5
2 2 5
2 2 5
2 2 5
2 2 5
2 2 5
2 2 5
2 2 5
2 2 5
2 2 5
2 2 5
2 2 5
2 2 5
2 2 5
2 2 5
2 2 5
2 2 5
2 2 5
2 2 5
2 2 5
2 2 5
2 2 5
2 2 5
2 2 5
2 2 5
2 2 5
2 2 5
2 2 5
2 2 5
2 2 5
2 2 5
2 2 5
2 2 5
2 2 5
2 2 5
2 2 5
2 2 5
2 2 5
2 2 5
2 2 5
2 2 5
2 2 5
2 2 5
2 2 5
2 2 5
2 2 5
2 2 5
2 2 5
2 2 5
2 2 5
2 2 5
2 2 5
2 2 5
2 2 5
2 2 5
2 2 5
2 2 5
2 2 5
2 2 5
2 2 5
2 2 5
2 2 5
2 2 5
2 2 5
2 2 5
2 2 5
2 2 5
2 2 5
2 2 5
2 2 5
2 2 5
2 2 5
2 2 5
2 2 5
2 2 5
2 2 5
2 2 5
2 2 5
2 2 5
2 2 5
2 2 5
2 2 5
2 2 5
2 2 5
2 2 5
2 2 5
2 2 5
2 2 5
2 2 5
2 2 5
2 2 5
2 2 5
2 2 5
2 2 5
2 2 5
2 2 5
2 2 5
2 2 5
2 2 5
2 2 5
2 2 5
2 2 5
2 2 5
2 2 5
2 2 5
2 2 5
2 2 5
2 2 5
2 2 5
2 2 5
2 2 5
2 2 5
2 2 5
2 2 5
2 2 5
2 2 5
2 2 5
2 2 5
2 2 5
2 2 5
2 2 5
2 2 5
2 2 5
2 2 5
2 2 5
2 2 5
2 2 5
2 2 5
2 2 5
2 2 5
2 2 5
2 2 5
2 2 5
2 2 5
2 2 5
2 2 5
2 2 5
2 2 5
2 2 5
2 2 5
2 2 5
2 2 5
2 2 5
2 2 5
2 2 5
2 2 5
2 2 5
2 2 5
2 2 5
2 2 5
2 2 5
2 2 5
2 2 5
2 2 5
2 2 5
2 2 5
2 2 5
2 2 5
2 2 5
2 2 5
2 2 5
2 2 5
2 2 5
2 2 5
255 255 255
255 255 255
255 255 255
255 255 255
255 255 255
255 255 255
255 255 255
255 255 255
255 255 255
255 255 255
255 255 255
255 255 255
255 255 255
255 255 255
255 255 255
255 255 255
255 255 255
255 255 255
255 255 255
255 255 255
255 255 255
255 255 255
255 255 255
255 255 255
255 255 255
255 255 255
255 255 255
255 255 255
255 255 255
255 255 255
255 255 255
255 255 255
255 255 255
255 255 255
255 255 255
255 255 255
255 255 255
255 255 255
255 255 255
255 255 255
255 255 255
255 255 255
255 255 255
255 255 255
255 255 255
255 255 255
255 255 255
255 255 255
255 255 255
255 255 255
255 255 255
255 255 255
255 255 255
255 255 255
255 255 255
255 255 255
255 255 255
255 255 255
255 255 255
255 255 255
255 255 255
255 255 255
255 255 255
255 255 255
255 255 255
255 255 255
255 255 255
255 255 255
255 255 255
255 255 255
2 2 5
2 2 5
2 2 5
2 2 5
2 2 5
2 2 5
2 2 5
2 2 5
2 2 5
2 2 5
2 2 5
2 2 5
2 2 5
2 2 5
2 2 5
2 2 5
2 2 5
2 2 5
2 2 5
2 2 5
2 2 5
2 2 5
2 2 5
2 2 5
2 2 5
2 2 5
2 2 5
2 2 5
2 2 5
2 2 5
2 2 5
2 2 5
2 2 5
2 2 5
2 2 5
2 2 5
2 2 5
2 2 5
2 2 5
2 2 5
2 2 5
2 2 5
2 2 5
2 2 5
2 2 5
2 2 5
2 2 5
2 2 5
2 2 5
2 2 5
2 2 5
2 2 5
2 2 5
2 2 5
2 2 5
2 2 5
2 2 5
2 2 5
2 2 5
2 2 5
2 2 5
2 2 5
2 2 5
2 2 5
2 2 5
2 2 5
2 2 5
2 2 5
2 2 5
2 2 5
2 2 5
2 2 5
2 2 5
2 2 5
2 2 5
2 2 5
2 2 5
2 2 5
2 2 5
2 2 5
2 2 5
2 2 5
2 2 5
2 2 5
2 2 5
2 2 5
2 2 5
2 2 5
2 2 5
2 2 5
2 2 5
2 2 5
2 2 5
2 2 5
2 2 5
2 2 5
2 2 5
2 2 5
2 2 5
2 2 5
2 2 5
2 2 5
2 2 5
2 2 5
2 2 5
2 2 5
2 2 5
2 2 5
2 2 5
2 2 5
2 2 5
2 2 5
2 2 5
2 2 5
2 2 5
2 2 5
2 2 5
2 2 5
2 2 5
2 2 5
2 2 5
2 2 5
2 2 5
2 2 5
2 2 5
2 2 5
2 2 5
2 2 5
2 2 5
2 2 5
2 2 5
2 2 5
2 2 5
2 2 5
2 2 5
2 2 5
2 2 5
2 2 5
2 2 5
2 2 5
2 2 5
2 2 5
2 2 5
2 2 5
2 2 5
2 2 5
2 2 5
2 2 5
2 2 5
2 2 5
2 2 5
2 2 5
2 2 5
2 2 5
2 2 5
2 2 5
2 2 5
2 2 5
2 2 5
2 2 5
2 2 5
2 2 5
2 2 5
2 2 5
2 2 5
2 2 5
2 2 5
2 2 5
2 2 5
2 2 5
2 2 5
2 2 5
2 2 5
2 2 5
2 2 5
2 2 5
2 2 5
2 2 5
2 2 5
2 2 5
2 2 5
2 2 5
2 2 5
2 2 5
2 2 5
2 2 5
2 2 5
2 2 5
2 2 5
2 2 5
2 2 5
2 2 5
2 2 5
2 2 5
2 2 5
2 2 5
2 2 5
2 2 5
2 2 5
2 2 5
2 2 5
2 2 5
2 2 5
2 2 5
2 2 5
2 2 5
2 2 5
2 2 5
2 2 5
2 2 5
2 2 5
2 2 5
2 2 5
2 2 5
2 2 5
2 2 5
2 2 5
2 2 5
2 2 5
2 2 5
2 2 5
2 2 5
2 2 5
2 2 5
2 2 5
2 2 5
2 2 5
2 2 5
2 2 5
2 2 5
2 2 5
2 2 5
2 2 5
2 2 5
2 2 5
2 2 5
2 2 5
2 2 5
2 2 5
2 2 5
2 2 5
2 2 5
2 2 5
2 2 5
2 2 5
2 2 5
2 2 5
2 2 5
2 2 5
2 2 5
2 2 5
2 2 5
2 2 5
2 2 5
2 2 5
2 2 5
2 2 5
2 2 5
2 2 5
2 2 5
2 2 5
2 2 5
2 2 5
2 2 5
2 2 5
2 2 5
2 2 5
2 2 5
2 2 5
2 2 5
2 2 5
2 2 5
2 2 5
2 2 5
2 2 5
2 2 5
2 2 5
2 2 5
2 2 5
2 2 5
2 2 5
2 2 5
2 2 5
2 2 5
2 2 5
2 2 5
2 2 5
2 2 5
2 2 5
2 2 5
2 2 5
2 2 5
2 2 5
2 2 5
2 2 5
2 2 5
2 2 5
2 2 5
2 2 5
2 2 5
2 2 5
2 2 5
2 2 5
2 2 5
2 2 5
2 2 5
2 2 5
2 2 5
2 2 5
2 2 5
2 2 5
2 2 5
2 2 5
2 2 5
2 2 5
2 2 5
2 2 5
2 2 5
2 2 5
2 2 5
2 2 5
2 2 5
2 2 5
2 2 5
2 2 5
2 2 5
2 2 5
2 2 5
2 2 5
2 2 5
255 255 255
255 255 255
255 255 255
255 255 255
255 255 255
255 255 255
255 255 255
255 255 255
255 255 255
255 255 255
255 255 255
255 255 255
255 255 255
255 255 255
255 255 255
255 255 255
255 255 255
255 255 255
255 255 255
255 255 255
255 255 255
255 255 255
255 255 255
255 255 255
255 255 255
255 255 255
255 255 255
255 255 255
255 255 255
255 255 255
255 255 255
255 255 255
255 255 255
255 255 255
255 255 255
255 255 255
255 255 255
255 255 255
255 255 255
255 255 255
255 255 255
255 255 255
255 255 255
255 255 255
255 255 255
255 255 255
255 255 255
255 255 255
255 255 255
255 255 255
255 255 255
255 255 255
255 255 255
255 255 255
255 255 255
255 255 255
255 255 255
255 255 255
255 255 255
255 255 255
255 255 255
255 255 255
255 255 255
255 255 255
255 255 255
255 255 255
255 255 255
255 255 255
255 255 255
255 255 255
2 2 5
2 2 5
2 2 5
2 2 5
2 2 5
2 2 5
2 2 5
2 2 5
2 2 5
2 2 5
2 2 5
2 2 5
2 2 5
2 2 5
2 2 5
2 2 5
2 2 5
2 2 5
2 2 5
2 2 5
2 2 5
2 2 5
2 2 5
2 2 5
2 2 5
2 2 5
2 2 5
2 2 5
2 2 5
2 2 5
2 2 5
2 2 5
2 2 5
2 2 5
2 2 5
2 2 5
2 2 5
2 2 5
2 2 5
2 2 5
2 2 5
2 2 5
2 2 5
2 2 5
2 2 5
2 2 5
2 2 5
2 2 5
2 2 5
2 2 5
2 2 5
2 2 5
2 2 5
2 2 5
2 2 5
2 2 5
2 2 5
2 2 5
2 2 5
2 2 5
2 2 5
2 2 5
2 2 5
2 2 5
2 2 5
2 2 5
2 2 5
2 2 5
2 2 5
2 2 5
2 2 5
2 2 5
2 2 5
2 2 5
2 2 5
2 2 5
2 2 5
2 2 5
2 2 5
2 2 5
2 2 5
2 2 5
2 2 5
2 2 5
2 2 5
2 2 5
2 2 5
2 2 5
2 2 5
2 2 5
2 2 5
2 2 5
2 2 5
2 2 5
2 2 5
2 2 5
2 2 5
2 2 5
2 2 5
2 2 5
2 2 5
2 2 5
2 2 5
2 2 5
2 2 5
2 2 5
2 2 5
2 2 5
2 2 5
2 2 5
2 2 5
2 2 5
2 2 5
2 2 5
2 2 5
2 2 5
2 2 5
2 2 5
2 2 5
2 2 5
2 2 5
2 2 5
2 2 5
2 2 5
2 2 5
2 2 5
2 2 5
2 2 5
2 2 5
2 2 5
2 2 5
2 2 5
2 2 5
2 2 5
2 2 5
2 2 5
2 2 5
2 2 5
2 2 5
2 2 5
2 2 5
2 2 5
2 2 5
2 2 5
2 2 5
2 2 5
2 2 5
2 2 5
2 2 5
2 2 5
2 2 5
2 2 5
2 2 5
2 2 5
2 2 5
2 2 5
2 2 5
2 2 5
2 2 5
2 2 5
2 2 5
2 2 5
2 2 5
2 2 5
2 2 5
2 2 5
2 2 5
2 2 5
2 2 5
2 2 5
2 2 5
2 2 5
2 2 5
2 2 5
2 2 5
2 2 5
2 2 5
2 2 5
2 2 5
2 2 5
2 2 5
2 2 5
2 2 5
2 2 5
2 2 5
2 2 5
2 2 5
2 2 5
2 2 5
2 2 5
2 2 5
2 2 5
2 2 5
2 2 5
2 2 5
2 2 5
2 2 5
2 2 5
2 2 5
2 2 5
2 2 5
2 2 5
2 2 5
2 2 5
2 2 5
2 2 5
2 2 5
2 2 5
2 2 5
2 2 5
2 2 5
2 2 5
2 2 5
2 2 5
2 2 5
2 2 5
2 2 5
2 2 5
2 2 5
2 2 5
2 2 5
2 2 5
2 2 5
2 2 5
2 2 5
2 2 5
2 2 5
2 2 5
2 2 5
2 2 5
2 2 5
2 2 5
2 2 5
2 2 5
2 2 5
2 2 5
2 2 5
2 2 5
2 2 5
2 2 5
2 2 5
2 2 5
2 2 5
2 2 5
2 2 5
2 2 5
2 2 5
2 2 5
2 2 5
2 2 5
2 2 5
2 2 5
2 2 5
2 2 5
2 2 5
2 2 5
2 2 5
2 2 5
2 2 5
2 2 5
2 2 5
2 2 5
2 2 5
2 2 5
2 2 5
2 2 5
2 2 5
2 2 5
2 2 5
2 2 5
2 2 5
2 2 5
2 2 5
2 2 5
2 2 5
2 2 5
2 2 5
2 2 5
2 2 5
2 2 5
2 2 5
2 2 5
2 2 5
2 2 5
2 2 5
2 2 5
2 2 5
2 2 5
2 2 5
2 2 5
2 2 5
2 2 5
2 2 5
2 2 5
2 2 5
2 2 5
2 2 5
2 2 5
2 2 5
2 2 5
2 2 5
2 2 5
2 2 5
2 2 5
2 2 5
2 2 5
2 2 5
2 2 5
2 2 5
2 2 5
2 2 5
2 2 5
2 2 5
2 2 5
2 2 5
2 2 5
2 2 5
2 2 5
2 2 5
2 2 5
2 2 5
2 2 5
2 2 5
2 2 5
2 2 5
2 2 5
2 2 5
2 2 5
2 2 5
2 2 5
255 255 255
255 255 255
255 255 255
255 255 255
255 255 255
255 255 255
255 255 255
255 255 255
255 255 255
255 255 255
255 255 255
255 255 255
255 255 255
255 255 255
255 255 255
255 255 255
255 255 255
255 255 255
255 255 255
255 255 255
255 255 255
255 255 255
255 255 255
255 255 255
255 255 255
255 255 255
255 255 255
255 255 255
255 255 255
255 255 255
255 255 255
255 255 255
255 255 255
255 255 255
255 255 255
255 255 255
255 255 255
255 255 255
255 255 255
255 255 255
255 255 255
255 255 255
255 255 255
255 255 255
255 255 255
255 255 255
255 255 255
255 255 255
255 255 255
255 255 255
255 255 255
255 255 255
255 255 255
255 255 255
255 255 255
255 255 255
255 255 255
255 255 255
255 255 255
255 255 255
255 255 255
255 255 255
255 255 255
255 255 255
255 255 255
255 255 255
255 255 255
255 255 255
255 255 255
2 2 5
2 2 5
2 2 5
2 2 5
2 2 5
2 2 5
2 2 5
2 2 5
2 2 5
2 2 5
2 2 5
2 2 5
2 2 5
2 2 5
2 2 5
2 2 5
2 2 5
2 2 5
2 2 5
2 2 5
2 2 5
2 2 5
2 2 5
2 2 5
2 2 5
2 2 5
2 2 5
2 2 5
2 2 5
2 2 5
2 2 5
2 2 5
2 2 5
2 2 5
2 2 5
2 2 5
2 2 5
2 2 5
2 2 5
2 2 5
2 2 5
2 2 5
2 2 5
2 2 5
2 2 5
2 2 5
2 2 5
2 2 5
2 2 5
2 2 5
2 2 5
2 2 5
2 2 5
2 2 5
2 2 5
2 2 5
2 2 5
2 2 5
2 2 5
2 2 5
2 2 5
2 2 5
2 2 5
2 2 5
2 2 5
2 2 5
2 2 5
2 2 5
2 2 5
2 2 5
2 2 5
2 2 5
2 2 5
2 2 5
2 2 5
2 2 5
2 2 5
2 2 5
2 2 5
2 2 5
2 2 5
2 2 5
2 2 5
2 2 5
2 2 5
2 2 5
2 2 5
2 2 5
2 2 5
2 2 5
2 2 5
2 2 5
2 2 5
2 2 5
2 2 5
2 2 5
2 2 5
2 2 5
2 2 5
2 2 5
2 2 5
2 2 5
2 2 5
2 2 5
2 2 5
2 2 5
2 2 5
2 2 5
2 2 5
2 2 5
2 2 5
2 2 5
2 2 5
2 2 5
2 2 5
2 2 5
2 2 5
2 2 5
2 2 5
2 2 5
2 2 5
2 2 5
2 2 5
2 2 5
2 2 5
2 2 5
2 2 5
2 2 5
2 2 5
2 2 5
2 2 5
2 2 5
2 2 5
2 2 5
2 2 5
2 2 5
2 2 5
2 2 5
2 2 5
2 2 5
2 2 5
2 2 5
2 2 5
2 2 5
2 2 5
2 2 5
2 2 5
2 2 5
2 2 5
2 2 5
2 2 5
2 2 5
2 2 5
2 2 5
2 2 5
2 2 5
2 2 5
2 2 5
2 2 5
2 2 5
2 2 5
2 2 5
2 2 5
2 2 5
2 2 5
2 2 5
2 2 5
2 2 5
2 2 5
2 2 5
2 2 5
2 2 5
2 2 5
2 2 5
2 2 5
2 2 5
2 2 5
2 2 5
2 2 5
2 2 5
2 2 5
2 2 5
2 2 5
2 2 5
2 2 5
2 2 5
2 2 5
2 2 5
2 2 5
2 2 5
2 2 5
2 2 5
2 2 5
2 2 5
2 2 5
2 2 5
2 2 5
2 2 5
2 2 5
2 2 5
2 2 5
2 2 5
2 2 5
2 2 5
2 2 5
2 2 5
2 2 5
2 2 5
2 2 5
2 2 5
2 2 5
2 2 5
2 2 5
2 2 5
2 2 5
2 2 5
2 2 5
2 2 5
2 2 5
2 2 5
2 2 5
2 2 5
2 2 5
2 2 5
2 2 5
2 2 5
2 2 5
2 2 5
2 2 5
2 2 5
2 2 5
2 2 5
2 2 5
2 2 5
2 2 5
2 2 5
2 2 5
2 2 5
2 2 5
2 2 5
2 2 5
2 2 5
2 2 5
2 2 5
2 2 5
2 2 5
2 2 5
2 2 5
2 2 5
2 2 5
2 2 5
2 2 5
2 2 5
2 2 5
2 2 5
2 2 5
2 2 5
2 2 5
2 2 5
2 2 5
2 2 5
2 2 5
2 2 5
2 2 5
2 2 5
2 2 5
2 2 5
2 2 5
2 2 5
2 2 5
2 2 5
2 2 5
2 2 5
2 2 5
2 2 5
2 2 5
2 2 5
2 2 5
2 2 5
2 2 5
2 2 5
2 2 5
2 2 5
2 2 5
2 2 5
2 2 5
2 2 5
2 2 5
2 2 5
2 2 5
2 2 5
2 2 5
2 2 5
2 2 5
2 2 5
2 2 5
2 2 5
2 2 5
2 2 5
2 2 5
2 2 5
2 2 5
2 2 5
2 2 5
2 2 5
2 2 5
2 2 5
2 2 5
2 2 5
2 2 5
2 2 5
2 2 5
2 2 5
2 2 5
2 2 5
2 2 5
2 2 5
2 2 5
2 2 5
2 2 5
2 2 5
2 2 5
2 2 5
2 2 5
2 2 5
2 2 5
2 2 5
2 2 5
2 2 5
2 2 5
2 2 5
2 2 5
255 255 255
255 255 255
255 255 255
255 255 255
255 255 255
255 255 255
255 255 255
255 255 255
255 255 255
255 255 255
255 255 255
255 255 255
255 255 255
255 255 255
255 255 255
255 255 255
255 255 255
255 255 255
255 255 255
255 255 255
255 255 255
255 255 255
255 255 255
255 255 255
255 255 255
255 255 255
255 255 255
255 255 255
255 255 255
255 255 255
255 255 255
255 255 255
255 255 255
255 255 255
255 255 255
255 255 255
255 255 255
255 255 255
255 255 255
255 255 255
255 255 255
255 255 255
255 255 255
255 255 255
255 255 255
255 255 255
255 255 255
255 255 255
255 255 255
255 255 255
255 255 255
255 255 255
255 255 255
255 255 255
255 255 255
255 255 255
255 255 255
255 255 255
255 255 255
255 255 255
255 255 255
255 255 255
255 255 255
255 255 255
255 255 255
255 255 255
255 255 255
255 255 255
2 2 5
2 2 5
2 2 5
2 2 5
2 2 5
2 2 5
2 2 5
2 2 5
2 2 5
2 2 5
2 2 5
2 2 5
2 2 5
2 2 5
2 2 5
2 2 5
2 2 5
2 2 5
2 2 5
2 2 5
2 2 5
2 2 5
2 2 5
2 2 5
2 2 5
2 2 5
2 2 5
2 2 5
2 2 5
2 2 5
2 2 5
2 2 5
2 2 5
2 2 5
2 2 5
2 2 5
2 2 5
2 2 5
2 2 5
2 2 5
2 2 5
2 2 5
2 2 5
2 2 5
2 2 5
2 2 5
2 2 5
2 2 5
2 2 5
2 2 5
2 2 5
2 2 5
2 2 5
2 2 5
2 2 5
2 2 5
2 2 5
2 2 5
2 2 5
2 2 5
2 2 5
2 2 5
2 2 5
2 2 5
2 2 5
2 2 5
2 2 5
2 2 5
2 2 5
2 2 5
2 2 5
2 2 5
2 2 5
2 2 5
2 2 5
2 2 5
2 2 5
2 2 5
2 2 5
2 2 5
2 2 5
2 2 5
2 2 5
2 2 5
2 2 5
2 2 5
2 2 5
2 2 5
2 2 5
2 2 5
2 2 5
2 2 5
2 2 5
2 2 5
2 2 5
2 2 5
2 2 5
2 2 5
2 2 5
2 2 5
2 2 5
2 2 5
2 2 5
2 2 5
2 2 5
2 2 5
2 2 5
2 2 5
2 2 5
2 2 5
2 2 5
2 2 5
2 2 5
2 2 5
2 2 5
2 2 5
2 2 5
2 2 5
2 2 5
2 2 5
2 2 5
2 2 5
2 2 5
2 2 5
2 2 5
2 2 5
2 2 5
2 2 5
2 2 5
2 2 5
2 2 5
2 2 5
2 2 5
2 2 5
2 2 5
2 2 5
2 2 5
2 2 5
2 2 5
2 2 5
2 2 5
2 2 5
2 2 5
2 2 5
2 2 5
2 2 5
2 2 5
2 2 5
2 2 5
2 2 5
2 2 5
2 2 5
2 2 5
2 2 5
2 2 5
2 2 5
2 2 5
2 2 5
2 2 5
2 2 5
2 2 5
2 2 5
2 2 5
2 2 5
2 2 5
2 2 5
2 2 5
2 2 5
2 2 5
2 2 5
2 2 5
2 2 5
2 2 5
2 2 5
2 2 5
2 2 5
2 2 5
2 2 5
2 2 5
2 2 5
2 2 5
2 2 5
2 2 5
2 2 5
2 2 5
2 2 5
2 2 5
2 2 5
2 2 5
2 2 5
2 2 5
2 2 5
2 2 5
2 2 5
2 2 5
2 2 5
2 2 5
2 2 5
2 2 5
2 2 5
2 2 5
2 2 5
2 2 5
2 2 5
2 2 5
2 2 5
2 2 5
2 2 5
2 2 5
2 2 5
2 2 5
2 2 5
2 2 5
2 2 5
2 2 5
2 2 5
2 2 5
2 2 5
2 2 5
2 2 5
2 2 5
2 2 5
2 2 5
2 2 5
2 2 5
2 2 5
2 2 5
2 2 5
2 2 5
2 2 5
2 2 5
2 2 5
2 2 5
2 2 5
2 2 5
2 2 5
2 2 5
2 2 5
2 2 5
2 2 5
2 2 5
2 2 5
2 2 5
2 2 5
2 2 5
2 2 5
2 2 5
2 2 5
2 2 5
2 2 5
2 2 5
2 2 5
2 2 5
2 2 5
2 2 5
2 2 5
2 2 5
2 2 5
2 2 5
2 2 5
2 2 5
2 2 5
2 2 5
2 2 5
2 2 5
2 2 5
2 2 5
2 2 5
2 2 5
2 2 5
2 2 5
2 2 5
2 2 5
2 2 5
2 2 5
2 2 5
2 2 5
2 2 5
2 2 5
2 2 5
2 2 5
2 2 5
2 2 5
2 2 5
2 2 5
2 2 5
2 2 5
2 2 5
2 2 5
2 2 5
2 2 5
2 2 5
2 2 5
2 2 5
2 2 5
2 2 5
2 2 5
2 2 5
2 2 5
2 2 5
2 2 5
2 2 5
2 2 5
2 2 5
2 2 5
2 2 5
2 2 5
2 2 5
2 2 5
2 2 5
2 2 5
2 2 5
2 2 5
2 2 5
2 2 5
2 2 5
2 2 5
2 2 5
2 2 5
2 2 5
2 2 5
2 2 5
2 2 5
2 2 5
2 2 5
2 2 5
2 2 5
2 2 5
2 2 5
2 2 5
2 2 5
255 255 255
255 255 255
255 255 255
255 255 255
255 255 255
255 255 255
255 255 255
255 255 255
255 255 255
255 255 255
255 255 255
255 255 255
255 255 255
255 255 255
255 255 255
255 255 255
255 255 255
255 255 255
255 255 255
255 255 255
255 255 255
255 255 255
255 255 255
255 255 255
255 255 255
255 255 255
255 255 255
255 255 255
255 255 255
255 255 255
255 255 255
255 255 255
255 255 255
255 255 255
255 255 255
255 255 255
255 255 255
255 255 255
255 255 255
255 255 255
255 255 255
255 255 255
255 255 255
255 255 255
255 255 255
255 255 255
255 255 255
255 255 255
255 255 255
255 255 255
255 255 255
255 255 255
255 255 255
255 255 255
255 255 255
255 255 255
255 255 255
255 255 255
255 255 255
255 255 255
255 255 255
255 255 255
255 255 255
255 255 255
255 255 255
255 255 255
255 255 255
255 255 255
255 255 255
2 2 5
2 2 5
2 2 5
2 2 5
2 2 5
2 2 5
2 2 5
2 2 5
2 2 5
2 2 5
2 2 5
2 2 5
2 2 5
2 2 5
2 2 5
2 2 5
2 2 5
2 2 5
2 2 5
2 2 5
2 2 5
2 2 5
2 2 5
2 2 5
2 2 5
2 2 5
2 2 5
2 2 5
2 2 5
2 2 5
2 2 5
2 2 5
2 2 5
2 2 5
2 2 5
2 2 5
2 2 5
2 2 5
2 2 5
2 2 5
2 2 5
2 2 5
2 2 5
2 2 5
2 2 5
2 2 5
2 2 5
2 2 5
2 2 5
2 2 5
2 2 5
2 2 5
2 2 5
2 2 5
2 2 5
2 2 5
2 2 5
2 2 5
2 2 5
2 2 5
2 2 5
2 2 5
2 2 5
2 2 5
2 2 5
2 2 5
2 2 5
2 2 5
2 2 5
2 2 5
2 2 5
2 2 5
2 2 5
2 2 5
2 2 5
2 2 5
2 2 5
2 2 5
2 2 5
2 2 5
2 2 5
2 2 5
2 2 5
2 2 5
2 2 5
2 2 5
2 2 5
2 2 5
2 2 5
2 2 5
2 2 5
2 2 5
2 2 5
2 2 5
2 2 5
2 2 5
2 2 5
2 2 5
2 2 5
2 2 5
2 2 5
2 2 5
2 2 5
2 2 5
2 2 5
2 2 5
2 2 5
2 2 5
2 2 5
2 2 5
2 2 5
2 2 5
2 2 5
2 2 5
2 2 5
2 2 5
2 2 5
2 2 5
2 2 5
2 2 5
2 2 5
2 2 5
2 2 5
2 2 5
2 2 5
2 2 5
2 2 5
2 2 5
2 2 5
2 2 5
2 2 5
2 2 5
2 2 5
2 2 5
2 2 5
2 2 5
2 2 5
2 2 5
2 2 5
2 2 5
2 2 5
2 2 5
2 2 5
2 2 5
2 2 5
2 2 5
2 2 5
2 2 5
2 2 5
2 2 5
2 2 5
2 2 5
2 2 5
2 2 5
2 2 5
2 2 5
2 2 5
2 2 5
2 2 5
2 2 5
2 2 5
2 2 5
2 2 5
2 2 5
2 2 5
2 2 5
84 84 57
2 2 5
2 2 5
2 2 5
2 2 5
2 2 5
2 2 5
2 2 5
2 2 5
2 2 5
2 2 5
2 2 5
2 2 5
2 2 5
2 2 5
2 2 5
2 2 5
2 2 5
2 2 5
2 2 5
2 2 5
2 2 5
2 2 5
2 2 5
2 2 5
2 2 5
2 2 5
2 2 5
2 2 5
2 2 5
2 2 5
2 2 5
2 2 5
2 2 5
2 2 5
2 2 5
2 2 5
2 2 5
2 2 5
2 2 5
2 2 5
2 2 5
2 2 5
2 2 5
2 2 5
2 2 5
2 2 5
2 2 5
2 2 5
2 2 5
2 2 5
2 2 5
2 2 5
2 2 5
2 2 5
2 2 5
2 2 5
2 2 5
2 2 5
2 2 5
2 2 5
2 2 5
2 2 5
2 2 5
2 2 5
2 2 5
2 2 5
2 2 5
2 2 5
2 2 5
2 2 5
2 2 5
2 2 5
2 2 5
2 2 5
2 2 5
2 2 5
2 2 5
2 2 5
2 2 5
2 2 5
2 2 5
2 2 5
2 2 5
2 2 5
2 2 5
2 2 5
2 2 5
2 2 5
2 2 5
2 2 5
2 2 5
2 2 5
2 2 5
2 2 5
2 2 5
2 2 5
2 2 5
2 2 5
2 2 5
2 2 5
2 2 5
2 2 5
2 2 5
2 2 5
2 2 5
2 2 5
2 2 5
2 2 5
2 2 5
2 2 5
2 2 5
2 2 5
2 2 5
2 2 5
2 2 5
2 2 5
2 2 5
2 2 5
2 2 5
2 2 5
2 2 5
2 2 5
2 2 5
2 2 5
2 2 5
2 2 5
2 2 5
2 2 5
2 2 5
2 2 5
2 2 5
2 2 5
2 2 5
2 2 5
2 2 5
2 2 5
2 2 5
2 2 5
2 2 5
2 2 5
2 2 5
2 2 5
2 2 5
2 2 5
2 2 5
2 2 5
2 2 5
2 2 5
2 2 5
2 2 5
2 2 5
2 2 5
2 2 5
2 2 5
2 2 5
2 2 5
2 2 5
2 2 5
2 2 5
2 2 5
2 2 5
2 2 5
2 2 5
2 2 5
2 2 5
255 255 255
255 255 255
255 255 255
255 255 255
255 255 255
255 255 255
255 255 255
255 255 255
255 255 255
255 255 255
255 255 255
255 255 255
255 255 255
255 255 255
255 255 255
255 255 255
255 255 255
255 255 255
255 255 255
255 255 255
255 255 255
255 255 255
255 255 255
255 255 255
255 255 255
255 255 255
255 255 255
255 255 255
255 255 255
255 255 255
255 255 255
255 255 255
255 255 255
255 255 255
255 255 255
255 255 255
255 255 255
255 255 255
255 255 255
255 255 255
255 255 255
255 255 255
255 255 255
255 255 255
255 255 255
255 255 255
255 255 255
255 255 255
255 255 255
255 255 255
255 255 255
255 255 255
255 255 255
255 255 255
255 255 255
255 255 255
255 255 255
255 255 255
255 255 255
255 255 255
255 255 255
255 255 255
255 255 255
255 255 255
255 255 255
255 255 255
255 255 255
255 255 255
2 2 5
2 2 5
2 2 5
2 2 5
2 2 5
2 2 5
2 2 5
2 2 5
2 2 5
2 2 5
2 2 5
2 2 5
2 2 5
2 2 5
2 2 5
2 2 5
2 2 5
2 2 5
2 2 5
2 2 5
2 2 5
2 2 5
2 2 5
2 2 5
2 2 5
2 2 5
2 2 5
2 2 5
2 2 5
2 2 5
2 2 5
2 2 5
2 2 5
2 2 5
2 2 5
2 2 5
2 2 5
2 2 5
2 2 5
2 2 5
2 2 5
2 2 5
2 2 5
2 2 5
2 2 5
2 2 5
2 2 5
2 2 5
2 2 5
2 2 5
2 2 5
2 2 5
2 2 5
2 2 5
2 2 5
2 2 5
2 2 5
2 2 5
2 2 5
2 2 5
2 2 5
2 2 5
2 2 5
2 2 5
2 2 5
2 2 5
2 2 5
2 2 5
2 2 5
2 2 5
2 2 5
2 2 5
2 2 5
2 2 5
2 2 5
2 2 5
2 2 5
2 2 5
2 2 5
2 2 5
2 2 5
2 2 5
2 2 5
2 2 5
2 2 5
2 2 5
2 2 5
2 2 5
2 2 5
2 2 5
2 2 5
2 2 5
2 2 5
2 2 5
2 2 5
2 2 5
2 2 5
2 2 5
2 2 5
2 2 5
2 2 5
2 2 5
2 2 5
2 2 5
2 2 5
2 2 5
2 2 5
2 2 5
2 2 5
2 2 5
2 2 5
2 2 5
2 2 5
2 2 5
2 2 5
2 2 5
2 2 5
2 2 5
2 2 5
2 2 5
2 2 5
2 2 5
2 2 5
2 2 5
2 2 5
2 2 5
2 2 5
2 2 5
2 2 5
2 2 5
2 2 5
2 2 5
2 2 5
2 2 5
2 2 5
2 2 5
2 2 5
2 2 5
2 2 5
2 2 5
2 2 5
2 2 5
2 2 5
2 2 5
2 2 5
2 2 5
2 2 5
2 2 5
2 2 5
2 2 5
2 2 5
2 2 5
2 2 5
2 2 5
2 2 5
2 2 5
2 2 5
2 2 5
2 2 5
2 2 5
2 2 5
2 2 5
2 2 5
2 2 5
2 2 5
2 2 5
86 95 65
76 76 52
2 2 5
2 2 5
2 2 5
2 2 5
2 2 5
2 2 5
2 2 5
2 2 5
2 2 5
2 2 5
2 2 5
2 2 5
2 2 5
2 2 5
2 2 5
2 2 5
2 2 5
2 2 5
2 2 5
2 2 5
2 2 5
2 2 5
2 2 5
2 2 5
2 2 5
2 2 5
2 2 5
2 2 5
2 2 5
2 2 5
2 2 5
2 2 5
2 2 5
2 2 5
2 2 5
2 2 5
2 2 5
2 2 5
2 2 5
2 2 5
2 2 5
2 2 5
2 2 5
2 2 5
2 2 5
2 2 5
2 2 5
2 2 5
2 2 5
2 2 5
2 2 5
2 2 5
2 2 5
2 2 5
2 2 5
2 2 5
2 2 5
2 2 5
2 2 5
2 2 5
2 2 5
2 2 5
2 2 5
2 2 5
2 2 5
2 2 5
2 2 5
2 2 5
2 2 5
2 2 5
2 2 5
2 2 5
2 2 5
2 2 5
2 2 5
2 2 5
2 2 5
2 2 5
2 2 5
2 2 5
2 2 5
2 2 5
2 2 5
2 2 5
2 2 5
2 2 5
2 2 5
2 2 5
2 2 5
2 2 5
2 2 5
2 2 5
2 2 5
2 2 5
2 2 5
2 2 5
2 2 5
2 2 5
2 2 5
2 2 5
2 2 5
2 2 5
2 2 5
2 2 5
2 2 5
2 2 5
2 2 5
2 2 5
2 2 5
2 2 5
2 2 5
2 2 5
2 2 5
2 2 5
2 2 5
2 2 5
2 2 5
2 2 5
2 2 5
2 2 5
2 2 5
2 2 5
2 2 5
2 2 5
2 2 5
2 2 5
2 2 5
2 2 5
2 2 5
2 2 5
2 2 5
2 2 5
2 2 5
2 2 5
2 2 5
2 2 5
2 2 5
2 2 5
2 2 5
2 2 5
2 2 5
2 2 5
2 2 5
2 2 5
2 2 5
2 2 5
2 2 5
2 2 5
2 2 5
2 2 5
2 2 5
2 2 5
2 2 5
2 2 5
2 2 5
2 2 5
2 2 5
2 2 5
2 2 5
2 2 5
2 2 5
2 2 5
2 2 5
2 2 5
255 255 255
255 255 255
255 255 255
255 255 255
255 255 255
255 255 255
255 255 255
255 255 255
255 255 255
255 255 255
255 255 255
255 255 255
255 255 255
255 255 255
255 255 255
255 255 255
255 255 255
255 255 255
255 255 255
255 255 255
255 255 255
255 255 255
255 255 255
255 255 255
255 255 255
255 255 255
255 255 255
255 255 255
255 255 255
255 255 255
255 255 255
255 255 255
255 255 255
255 255 255
255 255 255
255 255 255
255 255 255
255 255 255
255 255 255
255 255 255
255 255 255
255 255 255
255 255 255
255 255 255
255 255 255
255 255 255
255 255 255
255 255 255
255 255 255
255 255 255
255 255 255
255 255 255
255 255 255
255 255 255
255 255 255
255 255 255
255 255 255
255 255 255
255 255 255
255 255 255
255 255 255
255 255 255
255 255 255
255 255 255
255 255 255
255 255 255
255 255 255
255 255 255
2 2 5
2 2 5
2 2 5
2 2 5
2 2 5
2 2 5
2 2 5
2 2 5
2 2 5
2 2 5
2 2 5
2 2 5
2 2 5
2 2 5
2 2 5
2 2 5
2 2 5
2 2 5
2 2 5
2 2 5
2 2 5
2 2 5
2 2 5
2 2 5
2 2 5
2 2 5
2 2 5
2 2 5
2 2 5
2 2 5
2 2 5
2 2 5
2 2 5
2 2 5
2 2 5
2 2 5
2 2 5
2 2 5
2 2 5
2 2 5
2 2 5
2 2 5
2 2 5
2 2 5
2 2 5
2 2 5
2 2 5
2 2 5
2 2 5
2 2 5
2 2 5
2 2 5
2 2 5
2 2 5
2 2 5
2 2 5
2 2 5
2 2 5
2 2 5
2 2 5
2 2 5
2 2 5
2 2 5
2 2 5
2 2 5
2 2 5
2 2 5
2 2 5
2 2 5
2 2 5
2 2 5
2 2 5
2 2 5
2 2 5
2 2 5
2 2 5
2 2 5
2 2 5
2 2 5
2 2 5
2 2 5
2 2 5
2 2 5
2 2 5
2 2 5
2 2 5
2 2 5
2 2 5
2 2 5
2 2 5
2 2 5
2 2 5
2 2 5
2 2 5
2 2 5
2 2 5
2 2 5
2 2 5
2 2 5
2 2 5
2 2 5
2 2 5
2 2 5
2 2 5
2 2 5
2 2 5
2 2 5
2 2 5
2 2 5
2 2 5
2 2 5
2 2 5
2 2 5
2 2 5
2 2 5
2 2 5
2 2 5
2 2 5
2 2 5
2 2 5
2 2 5
2 2 5
2 2 5
2 2 5
2 2 5
2 2 5
2 2 5
2 2 5
2 2 5
2 2 5
2 2 5
2 2 5
2 2 5
2 2 5
2 2 5
2 2 5
2 2 5
2 2 5
2 2 5
2 2 5
2 2 5
2 2 5
2 2 5
2 2 5
2 2 5
2 2 5
2 2 5
2 2 5
2 2 5
2 2 5
2 2 5
2 2 5
2 2 5
2 2 5
2 2 5
2 2 5
2 2 5
2 2 5
2 2 5
2 2 5
2 2 5
2 2 5
2 2 5
2 2 5
45 30 31
49 33 31
144 126 86
93 86 63
79 79 54
90 90 62
2 2 5
2 2 5
2 2 5
2 2 5
2 2 5
2 2 5
2 2 5
2 2 5
2 2 5
2 2 5
2 2 5
2 2 5
2 2 5
2 2 5
2 2 5
2 2 5
2 2 5
2 2 5
2 2 5
2 2 5
2 2 5
2 2 5
2 2 5
2 2 5
2 2 5
2 2 5
2 2 5
2 2 5
2 2 5
2 2 5
2 2 5
2 2 5
2 2 5
2 2 5
2 2 5
2 2 5
2 2 5
2 2 5
2 2 5
2 2 5
2 2 5
2 2 5
2 2 5
2 2 5
2 2 5
2 2 5
2 2 5
2 2 5
2 2 5
2 2 5
2 2 5
2 2 5
2 2 5
2 2 5
2 2 5
2 2 5
2 2 5
2 2 5
2 2 5
2 2 5
2 2 5
2 2 5
2 2 5
2 2 5
2 2 5
2 2 5
2 2 5
2 2 5
2 2 5
2 2 5
2 2 5
2 2 5
2 2 5
2 2 5
2 2 5
2 2 5
2 2 5
2 2 5
2 2 5
2 2 5
2 2 5
2 2 5
2 2 5
2 2 5
2 2 5
2 2 5
2 2 5
2 2 5
2 2 5
2 2 5
2 2 5
2 2 5
2 2 5
2 2 5
2 2 5
2 2 5
2 2 5
2 2 5
2 2 5
2 2 5
2 2 5
2 2 5
2 2 5
2 2 5
2 2 5
2 2 5
2 2 5
2 2 5
2 2 5
2 2 5
2 2 5
2 2 5
2 2 5
2 2 5
2 2 5
2 2 5
2 2 5
2 2 5
2 2 5
2 2 5
2 2 5
2 2 5
2 2 5
2 2 5
2 2 5
2 2 5
2 2 5
2 2 5
2 2 5
2 2 5
2 2 5
2 2 5
2 2 5
2 2 5
2 2 5
2 2 5
2 2 5
2 2 5
2 2 5
2 2 5
2 2 5
2 2 5
2 2 5
2 2 5
2 2 5
2 2 5
2 2 5
2 2 5
2 2 5
2 2 5
2 2 5
2 2 5
2 2 5
2 2 5
2 2 5
2 2 5
2 2 5
2 2 5
2 2 5
2 2 5
2 2 5
2 2 5
255 255 255
255 255 255
255 255 255
255 255 255
255 255 255
255 255 255
255 255 255
255 255 255
255 255 255
255 255 255
255 255 255
255 255 255
255 255 255
255 255 255
255 255 255
255 255 255
255 255 255
255 255 255
255 255 255
255 255 255
255 255 255
255 255 255
255 255 255
255 255 255
255 255 255
255 255 255
255 255 255
255 255 255
255 255 255
255 255 255
255 255 255
255 255 255
255 255 255
255 255 255
255 255 255
255 255 255
255 255 255
255 255 255
255 255 255
255 255 255
255 255 255
255 255 255
255 255 255
255 255 255
255 255 255
255 255 255
255 255 255
255 255 255
255 255 255
255 255 255
255 255 255
255 255 255
255 255 255
255 255 255
255 255 255
255 255 255
255 255 255
255 255 255
255 255 255
255 255 255
255 255 255
255 255 255
255 255 255
255 255 255
255 255 255
255 255 255
255 255 255
2 2 5
2 2 5
2 2 5
2 2 5
2 2 5
2 2 5
2 2 5
2 2 5
2 2 5
2 2 5
2 2 5
2 2 5
2 2 5
2 2 5
2 2 5
2 2 5
2 2 5
2 2 5
2 2 5
2 2 5
2 2 5
2 2 5
2 2 5
2 2 5
2 2 5
2 2 5
2 2 5
2 2 5
2 2 5
2 2 5
2 2 5
2 2 5
2 2 5
2 2 5
2 2 5
2 2 5
2 2 5
2 2 5
2 2 5
2 2 5
2 2 5
2 2 5
2 2 5
2 2 5
2 2 5
2 2 5
2 2 5
2 2 5
2 2 5
2 2 5
2 2 5
2 2 5
2 2 5
2 2 5
2 2 5
2 2 5
2 2 5
2 2 5
2 2 5
2 2 5
2 2 5
2 2 5
2 2 5
2 2 5
2 2 5
2 2 5
2 2 5
2 2 5
2 2 5
2 2 5
2 2 5
2 2 5
2 2 5
2 2 5
2 2 5
2 2 5
2 2 5
2 2 5
2 2 5
2 2 5
2 2 5
2 2 5
2 2 5
2 2 5
2 2 5
2 2 5
2 2 5
2 2 5
2 2 5
2 2 5
2 2 5
2 2 5
2 2 5
2 2 5
2 2 5
2 2 5
2 2 5
2 2 5
2 2 5
2 2 5
2 2 5
2 2 5
2 2 5
2 2 5
2 2 5
2 2 5
2 2 5
2 2 5
2 2 5
2 2 5
2 2 5
2 2 5
2 2 5
2 2 5
2 2 5
2 2 5
2 2 5
2 2 5
2 2 5
2 2 5
2 2 5
2 2 5
2 2 5
2 2 5
2 2 5
2 2 5
2 2 5
2 2 5
2 2 5
2 2 5
2 2 5
2 2 5
2 2 5
2 2 5
2 2 5
2 2 5
2 2 5
2 2 5
2 2 5
2 2 5
2 2 5
2 2 5
2 2 5
2 2 5
2 2 5
2 2 5
2 2 5
2 2 5
2 2 5
2 2 5
2 2 5
2 2 5
2 2 5
2 2 5
2 2 5
2 2 5
2 2 5
2 2 5
2 2 5
2 2 5
2 2 5
2 2 5
2 2 5
2 2 5
37 24 26
44 29 31
47 31 32
78 78 53
76 76 52
86 90 57
112 122 82
137 113 86
145 129 75
2 2 5
2 2 5
2 2 5
2 2 5
2 2 5
2 2 5
2 2 5
2 2 5
2 2 5
2 2 5
2 2 5
2 2 5
2 2 5
2 2 5
2 2 5
2 2 5
2 2 5
2 2 5
2 2 5
2 2 5
2 2 5
2 2 5
2 2 5
2 2 5
2 2 5
2 2 5
2 2 5
2 2 5
2 2 5
2 2 5
2 2 5
2 2 5
2 2 5
2 2 5
2 2 5
2 2 5
2 2 5
2 2 5
2 2 5
2 2 5
2 2 5
2 2 5
2 2 5
2 2 5
2 2 5
2 2 5
2 2 5
2 2 5
2 2 5
2 2 5
2 2 5
2 2 5
2 2 5
2 2 5
2 2 5
2 2 5
2 2 5
2 2 5
2 2 5
2 2 5
2 2 5
2 2 5
2 2 5
2 2 5
2 2 5
2 2 5
2 2 5
2 2 5
2 2 5
2 2 5
2 2 5
2 2 5
2 2 5
2 2 5
2 2 5
2 2 5
2 2 5
2 2 5
2 2 5
2 2 5
2 2 5
2 2 5
2 2 5
2 2 5
2 2 5
2 2 5
2 2 5
2 2 5
2 2 5
2 2 5
2 2 5
2 2 5
2 2 5
2 2 5
2 2 5
2 2 5
2 2 5
2 2 5
2 2 5
2 2 5
2 2 5
2 2 5
2 2 5
2 2 5
2 2 5
2 2 5
2 2 5
2 2 5
2 2 5
2 2 5
2 2 5
2 2 5
2 2 5
2 2 5
2 2 5
2 2 5
2 2 5
2 2 5
2 2 5
2 2 5
2 2 5
2 2 5
2 2 5
2 2 5
2 2 5
2 2 5
2 2 5
2 2 5
2 2 5
2 2 5
2 2 5
2 2 5
2 2 5
2 2 5
2 2 5
2 2 5
2 2 5
2 2 5
2 2 5
2 2 5
2 2 5
2 2 5
2 2 5
2 2 5
2 2 5
2 2 5
2 2 5
2 2 5
2 2 5
2 2 5
2 2 5
2 2 5
2 2 5
2 2 5
2 2 5
2 2 5
2 2 5
2 2 5
2 2 5
2 2 5
2 2 5
255 255 255
255 255 255
255 255 255
255 255 255
255 255 255
255 255 255
255 255 255
255 255 255
255 255 255
255 255 255
255 255 255
255 255 255
255 255 255
255 255 255
255 255 255
255 255 255
255 255 255
255 255 255
255 255 255
255 255 255
255 255 255
255 255 255
255 255 255
255 255 255
255 255 255
255 255 255
255 255 255
255 255 255
255 255 255
255 255 255
255 255 255
255 255 255
255 255 255
255 255 255
255 255 255
255 255 255
255 255 255
255 255 255
255 255 255
255 255 255
255 255 255
255 255 255
255 255 255
255 255 255
255 255 255
255 255 255
255 255 255
255 255 255
255 255 255
255 255 255
255 255 255
255 255 255
255 255 255
255 255 255
255 255 255
255 255 255
255 255 255
255 255 255
255 255 255
255 255 255
255 255 255
255 255 255
255 255 255
255 255 255
255 255 255
255 255 255
2 2 5
2 2 5
2 2 5
2 2 5
2 2 5
2 2 5
2 2 5
2 2 5
2 2 5
2 2 5
2 2 5
2 2 5
2 2 5
2 2 5
2 2 5
2 2 5
2 2 5
2 2 5
2 2 5
2 2 5
2 2 5
2 2 5
2 2 5
2 2 5
2 2 5
2 2 5
2 2 5
2 2 5
2 2 5
2 2 5
2 2 5
2 2 5
2 2 5
2 2 5
2 2 5
2 2 5
2 2 5
2 2 5
2 2 5
2 2 5
2 2 5
2 2 5
2 2 5
2 2 5
2 2 5
2 2 5
2 2 5
2 2 5
2 2 5
2 2 5
2 2 5
2 2 5
2 2 5
2 2 5
2 2 5
2 2 5
2 2 5
2 2 5
2 2 5
2 2 5
2 2 5
2 2 5
2 2 5
2 2 5
2 2 5
2 2 5
2 2 5
2 2 5
2 2 5
2 2 5
2 2 5
2 2 5
2 2 5
2 2 5
2 2 5
2 2 5
2 2 5
2 2 5
2 2 5
2 2 5
2 2 5
2 2 5
2 2 5
2 2 5
2 2 5
2 2 5
2 2 5
2 2 5
2 2 5
2 2 5
2 2 5
2 2 5
2 2 5
2 2 5
2 2 5
2 2 5
2 2 5
2 2 5
2 2 5
2 2 5
2 2 5
2 2 5
2 2 5
2 2 5
2 2 5
2 2 5
2 2 5
2 2 5
2 2 5
2 2 5
2 2 5
2 2 5
2 2 5
2 2 5
2 2 5
2 2 5
2 2 5
2 2 5
2 2 5
2 2 5
2 2 5
2 2 5
2 2 5
2 2 5
2 2 5
2 2 5
2 2 5
2 2 5
2 2 5
2 2 5
2 2 5
2 2 5
2 2 5
2 2 5
2 2 5
2 2 5
2 2 5
2 2 5
2 2 5
2 2 5
2 2 5
2 2 5
2 2 5
2 2 5
2 2 5
2 2 5
2 2 5
2 2 5
2 2 5
2 2 5
2 2 5
2 2 5
2 2 5
2 2 5
2 2 5
2 2 5
2 2 5
2 2 5
2 2 5
2 2 5
2 2 5
39 26 28
59 45 40
50 35 34
79 66 57
69 46 41
43 29 30
193 255 129
82 79 73
82 82 56
71 71 49
83 83 57
84 89 60
73 73 50
2 2 5
2 2 5
2 2 5
2 2 5
2 2 5
2 2 5
2 2 5
2 2 5
2 2 5
2 2 5
2 2 5
2 2 5
2 2 5
2 2 5
2 2 5
2 2 5
2 2 5
2 2 5
2 2 5
2 2 5
2 2 5
2 2 5
2 2 5
2 2 5
2 2 5
2 2 5
2 2 5
2 2 5
2 2 5
2 2 5
2 2 5
2 2 5
2 2 5
2 2 5
2 2 5
2 2 5
2 2 5
2 2 5
2 2 5
2 2 5
2 2 5
2 2 5
2 2 5
2 2 5
2 2 5
2 2 5
2 2 5
2 2 5
2 2 5
2 2 5
2 2 5
2 2 5
2 2 5
2 2 5
2 2 5
2 2 5
2 2 5
2 2 5
2 2 5
2 2 5
2 2 5
2 2 5
2 2 5
2 2 5
2 2 5
2 2 5
2 2 5
2 2 5
2 2 5
2 2 5
2 2 5
2 2 5
2 2 5
2 2 5
2 2 5
2 2 5
2 2 5
2 2 5
2 2 5
2 2 5
2 2 5
2 2 5
2 2 5
2 2 5
2 2 5
2 2 5
2 2 5
2 2 5
2 2 5
2 2 5
2 2 5
2 2 5
2 2 5
2 2 5
2 2 5
2 2 5
2 2 5
2 2 5
2 2 5
2 2 5
2 2 5
2 2 5
2 2 5
2 2 5
2 2 5
2 2 5
2 2 5
2 2 5
2 2 5
2 2 5
2 2 5
2 2 5
2 2 5
2 2 5
2 2 5
2 2 5
2 2 5
2 2 5
2 2 5
2 2 5
2 2 5
2 2 5
2 2 5
2 2 5
2 2 5
2 2 5
2 2 5
2 2 5
2 2 5
2 2 5
2 2 5
2 2 5
2 2 5
2 2 5
2 2 5
2 2 5
2 2 5
2 2 5
2 2 5
2 2 5
2 2 5
2 2 5
2 2 5
2 2 5
2 2 5
2 2 5
2 2 5
2 2 5
2 2 5
2 2 5
2 2 5
2 2 5
2 2 5
2 2 5
2 2 5
2 2 5
2 2 5
2 2 5
2 2 5
2 2 5
255 255 255
255 255 255
255 255 255
255 255 255
255 255 255
255 255 255
255 255 255
255 255 255
255 255 255
255 255 255
255 255 255
255 255 255
255 255 255
255 255 255
255 255 255
255 255 255
255 255 255
255 255 255
255 255 255
255 255 255
255 255 255
255 255 255
255 255 255
255 255 255
255 255 255
255 255 255
255 255 255
255 255 255
255 255 255
255 255 255
255 255 255
255 255 255
255 255 255
255 255 255
255 255 255
255 255 255
255 255 255
255 255 255
255 255 255
255 255 255
255 255 255
255 255 255
255 255 255
255 255 255
255 255 255
255 255 255
255 255 255
255 255 255
255 255 255
255 255 255
255 255 255
255 255 255
255 255 255
255 255 255
255 255 255
255 255 255
255 255 255
255 255 255
255 255 255
255 255 255
255 255 255
255 255 255
255 255 255
255 255 255
255 255 255
2 2 5
2 2 5
2 2 5
2 2 5
2 2 5
2 2 5
2 2 5
2 2 5
2 2 5
2 2 5
2 2 5
2 2 5
2 2 5
2 2 5
2 2 5
2 2 5
2 2 5
2 2 5
2 2 5
2 2 5
2 2 5
2 2 5
2 2 5
2 2 5
2 2 5
2 2 5
2 2 5
2 2 5
2 2 5
2 2 5
2 2 5
2 2 5
2 2 5
2 2 5
2 2 5
2 2 5
2 2 5
2 2 5
2 2 5
2 2 5
2 2 5
2 2 5
2 2 5
2 2 5
2 2 5
2 2 5
2 2 5
2 2 5
2 2 5
2 2 5
2 2 5
2 2 5
2 2 5
2 2 5
2 2 5
2 2 5
2 2 5
2 2 5
2 2 5
2 2 5
2 2 5
2 2 5
2 2 5
2 2 5
2 2 5
2 2 5
2 2 5
2 2 5
2 2 5
2 2 5
2 2 5
2 2 5
2 2 5
2 2 5
2 2 5
2 2 5
2 2 5
2 2 5
2 2 5
2 2 5
2 2 5
2 2 5
2 2 5
2 2 5
2 2 5
2 2 5
2 2 5
2 2 5
2 2 5
2 2 5
2 2 5
2 2 5
2 2 5
2 2 5
2 2 5
2 2 5
2 2 5
2 2 5
2 2 5
2 2 5
2 2 5
2 2 5
2 2 5
2 2 5
2 2 5
2 2 5
2 2 5
2 2 5
2 2 5
2 2 5
2 2 5
2 2 5
2 2 5
2 2 5
2 2 5
2 2 5
2 2 5
2 2 5
2 2 5
2 2 5
2 2 5
2 2 5
2 2 5
2 2 5
2 2 5
2 2 5
2 2 5
2 2 5
2 2 5
2 2 5
2 2 5
2 2 5
2 2 5
2 2 5
2 2 5
2 2 5
2 2 5
2 2 5
2 2 5
2 2 5
2 2 5
2 2 5
2 2 5
2 2 5
2 2 5
2 2 5
2 2 5
2 2 5
2 2 5
2 2 5
2 2 5
2 2 5
2 2 5
2 2 5
2 2 5
2 2 5
2 2 5
2 2 5
2 2 5
2 2 5
2 2 5
42 28 29
67 55 42
51 32 33
41 27 29
82 54 45
76 46 40
41 27 29
91 91 62
76 76 52
157 117 87
134 120 83
80 80 55
64 64 44
82 82 56
96 91 61
192 123 104
120 107 72
2 2 5
2 2 5
2 2 5
2 2 5
2 2 5
2 2 5
2 2 5
2 2 5
2 2 5
2 2 5
2 2 5
2 2 5
2 2 5
2 2 5
2 2 5
2 2 5
2 2 5
2 2 5
2 2 5
2 2 5
2 2 5
2 2 5
2 2 5
2 2 5
2 2 5
2 2 5
2 2 5
2 2 5
2 2 5
2 2 5
2 2 5
2 2 5
2 2 5
2 2 5
2 2 5
2 2 5
2 2 5
2 2 5
2 2 5
2 2 5
2 2 5
2 2 5
2 2 5
2 2 5
2 2 5
2 2 5
2 2 5
2 2 5
2 2 5
2 2 5
2 2 5
2 2 5
2 2 5
2 2 5
2 2 5
2 2 5
2 2 5
2 2 5
2 2 5
2 2 5
2 2 5
2 2 5
2 2 5
2 2 5
2 2 5
2 2 5
2 2 5
2 2 5
2 2 5
2 2 5
2 2 5
2 2 5
2 2 5
2 2 5
2 2 5
2 2 5
2 2 5
2 2 5
2 2 5
2 2 5
2 2 5
2 2 5
2 2 5
2 2 5
2 2 5
2 2 5
2 2 5
2 2 5
2 2 5
2 2 5
2 2 5
2 2 5
2 2 5
2 2 5
2 2 5
2 2 5
2 2 5
2 2 5
2 2 5
2 2 5
2 2 5
2 2 5
2 2 5
2 2 5
2 2 5
2 2 5
2 2 5
2 2 5
2 2 5
2 2 5
2 2 5
2 2 5
2 2 5
2 2 5
2 2 5
2 2 5
2 2 5
2 2 5
2 2 5
2 2 5
2 2 5
2 2 5
2 2 5
2 2 5
2 2 5
2 2 5
2 2 5
2 2 5
2 2 5
2 2 5
2 2 5
2 2 5
2 2 5
2 2 5
2 2 5
2 2 5
2 2 5
2 2 5
2 2 5
2 2 5
2 2 5
2 2 5
2 2 5
2 2 5
2 2 5
2 2 5
2 2 5
2 2 5
2 2 5
2 2 5
2 2 5
2 2 5
2 2 5
2 2 5
2 2 5
2 2 5
2 2 5
2 2 5
255 255 255
255 255 255
255 255 255
255 255 255
255 255 255
255 255 255
255 255 255
255 255 255
255 255 255
255 255 255
255 255 255
255 255 255
255 255 255
255 255 255
255 255 255
255 255 255
255 255 255
255 255 255
255 255 255
255 255 255
255 255 255
255 255 255
255 255 255
255 255 255
255 255 255
255 255 255
255 255 255
255 255 255
255 255 255
255 255 255
255 255 255
255 255 255
255 255 255
255 255 255
255 255 255
255 255 255
255 255 255
255 255 255
255 255 255
255 255 255
255 255 255
255 255 255
255 255 255
255 255 255
255 255 255
255 255 255
255 255 255
255 255 255
255 255 255
255 255 255
255 255 255
255 255 255
255 255 255
255 255 255
255 255 255
255 255 255
255 255 255
255 255 255
255 255 255
255 255 255
255 255 255
255 255 255
255 255 255
255 255 255
255 255 255
2 2 5
2 2 5
2 2 5
2 2 5
2 2 5
2 2 5
2 2 5
2 2 5
2 2 5
2 2 5
2 2 5
2 2 5
2 2 5
2 2 5
2 2 5
2 2 5
2 2 5
2 2 5
2 2 5
2 2 5
2 2 5
2 2 5
2 2 5
2 2 5
2 2 5
2 2 5
2 2 5
2 2 5
2 2 5
2 2 5
2 2 5
2 2 5
2 2 5
2 2 5
2 2 5
2 2 5
2 2 5
2 2 5
2 2 5
2 2 5
2 2 5
2 2 5
2 2 5
2 2 5
2 2 5
2 2 5
2 2 5
2 2 5
2 2 5
2 2 5
2 2 5
2 2 5
2 2 5
2 2 5
2 2 5
2 2 5
2 2 5
2 2 5
2 2 5
2 2 5
2 2 5
2 2 5
2 2 5
2 2 5
2 2 5
2 2 5
2 2 5
2 2 5
2 2 5
2 2 5
2 2 5
2 2 5
2 2 5
2 2 5
2 2 5
2 2 5
2 2 5
2 2 5
2 2 5
2 2 5
2 2 5
2 2 5
2 2 5
2 2 5
2 2 5
2 2 5
2 2 5
2 2 5
2 2 5
2 2 5
2 2 5
2 2 5
2 2 5
2 2 5
2 2 5
2 2 5
2 2 5
2 2 5
2 2 5
2 2 5
2 2 5
2 2 5
2 2 5
2 2 5
2 2 5
2 2 5
2 2 5
2 2 5
2 2 5
2 2 5
2 2 5
2 2 5
2 2 5
2 2 5
2 2 5
2 2 5
2 2 5
2 2 5
2 2 5
2 2 5
2 2 5
2 2 5
2 2 5
2 2 5
2 2 5
2 2 5
2 2 5
2 2 5
2 2 5
2 2 5
2 2 5
2 2 5
2 2 5
2 2 5
2 2 5
2 2 5
2 2 5
2 2 5
2 2 5
2 2 5
2 2 5
2 2 5
2 2 5
2 2 5
2 2 5
2 2 5
2 2 5
2 2 5
2 2 5
2 2 5
2 2 5
2 2 5
2 2 5
2 2 5
2 2 5
2 2 5
2 2 5
2 2 5
42 30 30
43 28 30
38 25 27
45 30 31
102 81 56
125 80 62
46 30 32
82 46 43
43 28 30
81 88 55
103 108 64
124 155 94
103 111 69
71 71 48
108 121 70
124 117 79
81 81 55
96 89 59
80 80 54
129 146 113
2 2 5
2 2 5
2 2 5
2 2 5
2 2 5
2 2 5
2 2 5
2 2 5
2 2 5
2 2 5
2 2 5
2 2 5
2 2 5
2 2 5
2 2 5
2 2 5
2 2 5
2 2 5
2 2 5
2 2 5
2 2 5
2 2 5
2 2 5
2 2 5
2 2 5
2 2 5
2 2 5
2 2 5
2 2 5
2 2 5
2 2 5
2 2 5
2 2 5
2 2 5
2 2 5
2 2 5
2 2 5
2 2 5
2 2 5
2 2 5
2 2 5
2 2 5
2 2 5
2 2 5
2 2 5
2 2 5
2 2 5
2 2 5
2 2 5
2 2 5
2 2 5
2 2 5
2 2 5
2 2 5
2 2 5
2 2 5
2 2 5
2 2 5
2 2 5
2 2 5
2 2 5
2 2 5
2 2 5
2 2 5
2 2 5
2 2 5
2 2 5
2 2 5
2 2 5
2 2 5
2 2 5
2 2 5
2 2 5
2 2 5
2 2 5
2 2 5
2 2 5
2 2 5
2 2 5
2 2 5
2 2 5
2 2 5
2 2 5
2 2 5
2 2 5
2 2 5
2 2 5
2 2 5
2 2 5
2 2 5
2 2 5
2 2 5
2 2 5
2 2 5
2 2 5
2 2 5
2 2 5
2 2 5
2 2 5
2 2 5
2 2 5
2 2 5
2 2 5
2 2 5
2 2 5
2 2 5
2 2 5
2 2 5
2 2 5
2 2 5
2 2 5
2 2 5
2 2 5
2 2 5
2 2 5
2 2 5
2 2 5
2 2 5
2 2 5
2 2 5
2 2 5
2 2 5
2 2 5
2 2 5
2 2 5
2 2 5
2 2 5
2 2 5
2 2 5
2 2 5
2 2 5
2 2 5
2 2 5
2 2 5
2 2 5
2 2 5
2 2 5
2 2 5
2 2 5
2 2 5
2 2 5
2 2 5
2 2 5
2 2 5
2 2 5
2 2 5
2 2 5
2 2 5
2 2 5
2 2 5
2 2 5
2 2 5
2 2 5
2 2 5
2 2 5
2 2 5
2 2 5
255 255 255
255 255 255
255 255 255
255 255 255
255 255 255
255 255 255
255 255 255
255 255 255
255 255 255
255 255 255
255 255 255
255 255 255
255 255 255
255 255 255
255 255 255
255 255 255
255 255 255
255 255 255
255 255 255
255 255 255
255 255 255
255 255 255
255 255 255
255 255 255
255 255 255
255 255 255
255 255 255
255 255 255
255 255 255
255 255 255
255 255 255
255 255 255
255 255 255
255 255 255
255 255 255
255 255 255
255 255 255
255 255 255
255 255 255
255 255 255
255 255 255
255 255 255
255 255 255
255 255 255
255 255 255
255 255 255
255 255 255
255 255 255
255 255 255
255 255 255
255 255 255
255 255 255
255 255 255
255 255 255
255 255 255
255 255 255
255 255 255
255 255 255
255 255 255
255 255 255
255 255 255
255 255 255
255 255 255
255 255 255
255 255 255
2 2 5
2 2 5
2 2 5
2 2 5
2 2 5
2 2 5
2 2 5
2 2 5
2 2 5
2 2 5
2 2 5
2 2 5
2 2 5
2 2 5
2 2 5
2 2 5
2 2 5
2 2 5
2 2 5
2 2 5
2 2 5
2 2 5
2 2 5
2 2 5
2 2 5
2 2 5
2 2 5
2 2 5
2 2 5
2 2 5
2 2 5
2 2 5
2 2 5
2 2 5
2 2 5
2 2 5
2 2 5
2 2 5
2 2 5
2 2 5
2 2 5
2 2 5
2 2 5
2 2 5
2 2 5
2 2 5
2 2 5
2 2 5
2 2 5
2 2 5
2 2 5
2 2 5
2 2 5
2 2 5
2 2 5
2 2 5
2 2 5
2 2 5
2 2 5
2 2 5
2 2 5
2 2 5
2 2 5
2 2 5
2 2 5
2 2 5
2 2 5
2 2 5
2 2 5
2 2 5
2 2 5
2 2 5
2 2 5
2 2 5
2 2 5
2 2 5
2 2 5
2 2 5
2 2 5
2 2 5
2 2 5
2 2 5
2 2 5
2 2 5
2 2 5
2 2 5
2 2 5
2 2 5
2 2 5
2 2 5
2 2 5
2 2 5
2 2 5
2 2 5
2 2 5
2 2 5
2 2 5
2 2 5
2 2 5
2 2 5
2 2 5
2 2 5
2 2 5
2 2 5
2 2 5
2 2 5
2 2 5
2 2 5
2 2 5
2 2 5
2 2 5
2 2 5
2 2 5
2 2 5
2 2 5
2 2 5
2 2 5
2 2 5
2 2 5
2 2 5
2 2 5
2 2 5
2 2 5
2 2 5
2 2 5
2 2 5
2 2 5
2 2 5
2 2 5
2 2 5
2 2 5
2 2 5
2 2 5
2 2 5
2 2 5
2 2 5
2 2 5
2 2 5
2 2 5
2 2 5
2 2 5
2 2 5
2 2 5
2 2 5
2 2 5
2 2 5
2 2 5
2 2 5
2 2 5
2 2 5
2 2 5
2 2 5
2 2 5
2 2 5
2 2 5
2 2 5
2 2 5
56 34 37
255 174 125
146 130 130
85 51 44
145 102 73
44 29 31
58 45 36
42 28 29
42 28 29
39 26 28
71 71 48
101 87 58
105 103 65
149 117 72
93 93 63
78 78 53
73 73 50
105 113 76
154 123 74
77 77 53
73 73 50
95 95 65
2 2 5
2 2 5
2 2 5
2 2 5
2 2 5
2 2 5
2 2 5
2 2 5
2 2 5
2 2 5
2 2 5
2 2 5
2 2 5
2 2 5
2 2 5
2 2 5
2 2 5
2 2 5
2 2 5
2 2 5
2 2 5
2 2 5
2 2 5
2 2 5
2 2 5
2 2 5
2 2 5
2 2 5
2 2 5
2 2 5
2 2 5
2 2 5
2 2 5
2 2 5
2 2 5
2 2 5
2 2 5
2 2 5
2 2 5
2 2 5
2 2 5
2 2 5
2 2 5
2 2 5
2 2 5
2 2 5
2 2 5
2 2 5
2 2 5
2 2 5
2 2 5
2 2 5
2 2 5
2 2 5
2 2 5
2 2 5
2 2 5
2 2 5
2 2 5
2 2 5
2 2 5
2 2 5
2 2 5
2 2 5
2 2 5
2 2 5
2 2 5
2 2 5
2 2 5
2 2 5
2 2 5
2 2 5
2 2 5
2 2 5
2 2 5
2 2 5
2 2 5
2 2 5
2 2 5
2 2 5
2 2 5
2 2 5
2 2 5
2 2 5
2 2 5
2 2 5
2 2 5
2 2 5
2 2 5
2 2 5
2 2 5
2 2 5
2 2 5
2 2 5
2 2 5
2 2 5
2 2 5
2 2 5
2 2 5
2 2 5
2 2 5
2 2 5
2 2 5
2 2 5
2 2 5
2 2 5
2 2 5
2 2 5
2 2 5
2 2 5
2 2 5
2 2 5
2 2 5
2 2 5
2 2 5
2 2 5
2 2 5
2 2 5
2 2 5
2 2 5
2 2 5
2 2 5
2 2 5
2 2 5
2 2 5
2 2 5
2 2 5
2 2 5
2 2 5
2 2 5
2 2 5
2 2 5
2 2 5
2 2 5
2 2 5
2 2 5
2 2 5
2 2 5
2 2 5
2 2 5
2 2 5
2 2 5
2 2 5
2 2 5
2 2 5
2 2 5
2 2 5
2 2 5
2 2 5
2 2 5
2 2 5
2 2 5
2 2 5
2 2 5
2 2 5
2 2 5
255 255 255
255 255 255
255 255 255
255 255 255
255 255 255
255 255 255
255 255 255
255 255 255
255 255 255
255 255 255
255 255 255
255 255 255
255 255 255
255 255 255
255 255 255
255 255 255
255 255 255
255 255 255
255 255 255
255 255 255
255 255 255
255 255 255
255 255 255
255 255 255
255 255 255
255 255 255
255 255 255
255 255 255
255 255 255
255 255 255
255 255 255
255 255 255
255 255 255
255 255 255
255 255 255
255 255 255
255 255 255
255 255 255
255 255 255
255 255 255
255 255 255
255 255 255
255 255 255
255 255 255
255 255 255
255 255 255
255 255 255
255 255 255
255 255 255
255 255 255
255 255 255
255 255 255
255 255 255
255 255 255
255 255 255
255 255 255
255 255 255
255 255 255
255 255 255
255 255 255
255 255 255
255 255 255
255 255 255
255 255 255
2 2 5
2 2 5
2 2 5
2 2 5
2 2 5
2 2 5
2 2 5
2 2 5
2 2 5
2 2 5
2 2 5
2 2 5
2 2 5
2 2 5
2 2 5
2 2 5
2 2 5
2 2 5
2 2 5
2 2 5
2 2 5
2 2 5
2 2 5
2 2 5
2 2 5
2 2 5
2 2 5
2 2 5
2 2 5
2 2 5
2 2 5
2 2 5
2 2 5
2 2 5
2 2 5
2 2 5
2 2 5
2 2 5
2 2 5
2 2 5
2 2 5
2 2 5
2 2 5
2 2 5
2 2 5
2 2 5
2 2 5
2 2 5
2 2 5
2 2 5
2 2 5
2 2 5
2 2 5
2 2 5
2 2 5
2 2 5
2 2 5
2 2 5
2 2 5
2 2 5
2 2 5
2 2 5
2 2 5
2 2 5
2 2 5
2 2 5
2 2 5
2 2 5
2 2 5
2 2 5
2 2 5
2 2 5
2 2 5
2 2 5
2 2 5
2 2 5
2 2 5
2 2 5
2 2 5
2 2 5
2 2 5
2 2 5
2 2 5
2 2 5
2 2 5
2 2 5
2 2 5
2 2 5
2 2 5
2 2 5
2 2 5
2 2 5
2 2 5
2 2 5
2 2 5
2 2 5
2 2 5
2 2 5
2 2 5
2 2 5
2 2 5
2 2 5
2 2 5
2 2 5
2 2 5
2 2 5
2 2 5
2 2 5
2 2 5
2 2 5
2 2 5
2 2 5
2 2 5
2 2 5
2 2 5
2 2 5
2 2 5
2 2 5
2 2 5
2 2 5
2 2 5
2 2 5
2 2 5
2 2 5
2 2 5
2 2 5
2 2 5
2 2 5
2 2 5
2 2 5
2 2 5
2 2 5
2 2 5
2 2 5
2 2 5
2 2 5
2 2 5
2 2 5
2 2 5
2 2 5
2 2 5
2 2 5
2 2 5
2 2 5
2 2 5
2 2 5
2 2 5
2 2 5
2 2 5
2 2 5
2 2 5
2 2 5
2 2 5
2 2 5
2 2 5
2 2 5
45 30 31
73 66 55
54 32 37
45 30 31
44 29 30
44 29 31
70 46 41
49 37 38
40 26 28
95 53 63
86 51 49
65 43 38
92 96 61
109 95 62
84 84 57
88 88 60
83 83 57
77 77 53
97 101 65
109 121 72
80 80 55
77 77 53
92 92 63
220 131 117
2 2 5
70 70 48
2 2 5
2 2 5
2 2 5
2 2 5
2 2 5
2 2 5
2 2 5
2 2 5
2 2 5
2 2 5
2 2 5
2 2 5
2 2 5
2 2 5
2 2 5
2 2 5
2 2 5
2 2 5
2 2 5
2 2 5
2 2 5
2 2 5
2 2 5
2 2 5
2 2 5
2 2 5
2 2 5
2 2 5
2 2 5
2 2 5
2 2 5
2 2 5
2 2 5
2 2 5
2 2 5
2 2 5
2 2 5
2 2 5
2 2 5
2 2 5
2 2 5
2 2 5
2 2 5
2 2 5
2 2 5
2 2 5
2 2 5
2 2 5
2 2 5
2 2 5
2 2 5
2 2 5
2 2 5
2 2 5
2 2 5
2 2 5
2 2 5
2 2 5
2 2 5
2 2 5
2 2 5
2 2 5
2 2 5
2 2 5
2 2 5
2 2 5
2 2 5
2 2 5
2 2 5
2 2 5
2 2 5
2 2 5
2 2 5
2 2 5
2 2 5
2 2 5
2 2 5
2 2 5
2 2 5
2 2 5
2 2 5
2 2 5
2 2 5
2 2 5
2 2 5
2 2 5
2 2 5
2 2 5
2 2 5
2 2 5
2 2 5
2 2 5
2 2 5
2 2 5
2 2 5
2 2 5
2 2 5
2 2 5
2 2 5
2 2 5
2 2 5
2 2 5
2 2 5
2 2 5
2 2 5
2 2 5
2 2 5
2 2 5
2 2 5
2 2 5
2 2 5
2 2 5
2 2 5
2 2 5
2 2 5
2 2 5
2 2 5
2 2 5
2 2 5
2 2 5
2 2 5
2 2 5
2 2 5
2 2 5
2 2 5
2 2 5
2 2 5
2 2 5
2 2 5
2 2 5
2 2 5
2 2 5
2 2 5
2 2 5
2 2 5
2 2 5
2 2 5
2 2 5
2 2 5
2 2 5
2 2 5
2 2 5
2 2 5
2 2 5
2 2 5
2 2 5
2 2 5
2 2 5
2 2 5
2 2 5
2 2 5
2 2 5
2 2 5
2 2 5
255 255 255
255 255 255
255 255 255
255 255 255
255 255 255
255 255 255
255 255 255
255 255 255
255 255 255
255 255 255
255 255 255
255 255 255
255 255 255
255 255 255
255 255 255
255 255 255
255 255 255
255 255 255
255 255 255
255 255 255
255 255 255
255 255 255
255 255 255
255 255 255
255 255 255
255 255 255
255 255 255
255 255 255
255 255 255
255 255 255
255 255 255
255 255 255
255 255 255
255 255 255
255 255 255
255 255 255
255 255 255
255 255 255
255 255 255
255 255 255
255 255 255
255 255 255
255 255 255
255 255 255
255 255 255
255 255 255
255 255 255
255 255 255
255 255 255
255 255 255
255 255 255
255 255 255
255 255 255
255 255 255
255 255 255
255 255 255
255 255 255
255 255 255
255 255 255
255 255 255
255 255 255
255 255 255
255 255 255
255 255 255
2 2 5
2 2 5
2 2 5
2 2 5
2 2 5
2 2 5
2 2 5
2 2 5
2 2 5
2 2 5
2 2 5
2 2 5
2 2 5
2 2 5
2 2 5
2 2 5
2 2 5
2 2 5
2 2 5
2 2 5
2 2 5
2 2 5
2 2 5
2 2 5
2 2 5
2 2 5
2 2 5
2 2 5
2 2 5
2 2 5
2 2 5
2 2 5
2 2 5
2 2 5
2 2 5
2 2 5
2 2 5
2 2 5
2 2 5
2 2 5
2 2 5
2 2 5
2 2 5
2 2 5
2 2 5
2 2 5
2 2 5
2 2 5
2 2 5
2 2 5
2 2 5
2 2 5
2 2 5
2 2 5
2 2 5
2 2 5
2 2 5
2 2 5
2 2 5
2 2 5
2 2 5
2 2 5
2 2 5
2 2 5
2 2 5
2 2 5
2 2 5
2 2 5
2 2 5
2 2 5
2 2 5
2 2 5
2 2 5
2 2 5
2 2 5
2 2 5
2 2 5
2 2 5
2 2 5
2 2 5
2 2 5
2 2 5
2 2 5
2 2 5
2 2 5
2 2 5
2 2 5
2 2 5
2 2 5
2 2 5
2 2 5
2 2 5
2 2 5
2 2 5
2 2 5
2 2 5
2 2 5
2 2 5
2 2 5
2 2 5
2 2 5
2 2 5
2 2 5
2 2 5
2 2 5
2 2 5
2 2 5
2 2 5
2 2 5
2 2 5
2 2 5
2 2 5
2 2 5
2 2 5
2 2 5
2 2 5
2 2 5
2 2 5
2 2 5
2 2 5
2 2 5
2 2 5
2 2 5
2 2 5
2 2 5
2 2 5
2 2 5
2 2 5
2 2 5
2 2 5
2 2 5
2 2 5
2 2 5
2 2 5
2 2 5
2 2 5
2 2 5
2 2 5
2 2 5
2 2 5
2 2 5
2 2 5
2 2 5
2 2 5
2 2 5
2 2 5
2 2 5
2 2 5
2 2 5
2 2 5
2 2 5
2 2 5
2 2 5
2 2 5
122 63 69
162 150 150
72 60 49
41 27 29
39 26 27
73 49 43
42 28 29
39 26 27
110 55 63
82 50 39
144 107 78
45 30 31
61 38 34
46 31 32
123 108 82
228 217 189
85 85 58
82 82 56
87 87 59
105 98 66
68 68 47
82 82 56
105 116 71
90 95 64
128 140 81
73 73 50
166 117 143
144 121 83
2 2 5
82 82 56
2 2 5
2 2 5
2 2 5
2 2 5
2 2 5
2 2 5
2 2 5
2 2 5
2 2 5
2 2 5
2 2 5
2 2 5
2 2 5
2 2 5
2 2 5
2 2 5
2 2 5
2 2 5
2 2 5
2 2 5
2 2 5
2 2 5
2 2 5
2 2 5
2 2 5
2 2 5
2 2 5
2 2 5
2 2 5
2 2 5
2 2 5
2 2 5
2 2 5
2 2 5
2 2 5
2 2 5
2 2 5
2 2 5
2 2 5
2 2 5
2 2 5
2 2 5
2 2 5
2 2 5
2 2 5
2 2 5
2 2 5
2 2 5
2 2 5
2 2 5
2 2 5
2 2 5
2 2 5
2 2 5
2 2 5
2 2 5
2 2 5
2 2 5
2 2 5
2 2 5
2 2 5
2 2 5
2 2 5
2 2 5
2 2 5
2 2 5
2 2 5
2 2 5
2 2 5
2 2 5
2 2 5
2 2 5
2 2 5
2 2 5
2 2 5
2 2 5
2 2 5
2 2 5
2 2 5
2 2 5
2 2 5
2 2 5
2 2 5
2 2 5
2 2 5
2 2 5
2 2 5
2 2 5
2 2 5
2 2 5
2 2 5
2 2 5
2 2 5
2 2 5
2 2 5
2 2 5
2 2 5
2 2 5
2 2 5
2 2 5
2 2 5
2 2 5
2 2 5
2 2 5
2 2 5
2 2 5
2 2 5
2 2 5
2 2 5
2 2 5
2 2 5
2 2 5
2 2 5
2 2 5
2 2 5
2 2 5
2 2 5
2 2 5
2 2 5
2 2 5
2 2 5
2 2 5
2 2 5
2 2 5
2 2 5
2 2 5
2 2 5
2 2 5
2 2 5
2 2 5
2 2 5
2 2 5
2 2 5
2 2 5
2 2 5
2 2 5
2 2 5
2 2 5
2 2 5
2 2 5
2 2 5
2 2 5
2 2 5
2 2 5
2 2 5
2 2 5
2 2 5
2 2 5
2 2 5
2 2 5
2 2 5
2 2 5
255 255 255
255 255 255
255 255 255
255 255 255
255 255 255
255 255 255
255 255 255
255 255 255
255 255 255
255 255 255
255 255 255
255 255 255
255 255 255
255 255 255
255 255 255
255 255 255
255 255 255
255 255 255
255 255 255
255 255 255
255 255 255
255 255 255
255 255 255
255 255 255
255 255 255
255 255 255
255 255 255
255 255 255
255 255 255
255 255 255
255 255 255
255 255 255
255 255 255
255 255 255
255 255 255
255 255 255
255 255 255
255 255 255
255 255 255
255 255 255
255 255 255
255 255 255
255 255 255
255 255 255
255 255 255
255 255 255
255 255 255
255 255 255
255 255 255
255 255 255
255 255 255
255 255 255
255 255 255
255 255 255
255 255 255
255 255 255
255 255 255
255 255 255
255 255 255
255 255 255
255 255 255
255 255 255
255 255 255
2 2 5
2 2 5
2 2 5
2 2 5
2 2 5
2 2 5
2 2 5
2 2 5
2 2 5
2 2 5
2 2 5
2 2 5
2 2 5
2 2 5
2 2 5
2 2 5
2 2 5
2 2 5
2 2 5
2 2 5
2 2 5
2 2 5
2 2 5
2 2 5
2 2 5
2 2 5
2 2 5
2 2 5
2 2 5
2 2 5
2 2 5
2 2 5
2 2 5
2 2 5
2 2 5
2 2 5
2 2 5
2 2 5
2 2 5
2 2 5
2 2 5
2 2 5
2 2 5
2 2 5
2 2 5
2 2 5
2 2 5
2 2 5
2 2 5
2 2 5
2 2 5
2 2 5
2 2 5
2 2 5
2 2 5
2 2 5
2 2 5
2 2 5
2 2 5
2 2 5
2 2 5
2 2 5
2 2 5
2 2 5
2 2 5
2 2 5
2 2 5
2 2 5
2 2 5
2 2 5
2 2 5
2 2 5
2 2 5
2 2 5
2 2 5
2 2 5
2 2 5
2 2 5
2 2 5
2 2 5
2 2 5
2 2 5
2 2 5
2 2 5
2 2 5
2 2 5
2 2 5
2 2 5
2 2 5
2 2 5
2 2 5
2 2 5
2 2 5
2 2 5
2 2 5
2 2 5
2 2 5
2 2 5
2 2 5
2 2 5
2 2 5
2 2 5
2 2 5
2 2 5
2 2 5
2 2 5
2 2 5
2 2 5
2 2 5
2 2 5
2 2 5
2 2 5
2 2 5
2 2 5
2 2 5
2 2 5
2 2 5
2 2 5
2 2 5
2 2 5
2 2 5
2 2 5
2 2 5
2 2 5
2 2 5
2 2 5
2 2 5
2 2 5
2 2 5
2 2 5
2 2 5
2 2 5
2 2 5
2 2 5
2 2 5
2 2 5
2 2 5
2 2 5
2 2 5
2 2 5
2 2 5
2 2 5
2 2 5
2 2 5
2 2 5
2 2 5
2 2 5
2 2 5
2 2 5
2 2 5
2 2 5
2 2 5
2 2 5
94 51 46
63 42 37
106 68 44
91 50 59
48 32 33
82 48 55
66 41 38
41 27 28
81 54 46
78 64 75
71 53 54
44 29 30
67 39 46
69 50 44
43 29 30
41 27 29
77 77 52
123 125 78
90 90 61
120 140 99
97 93 61
83 83 56
77 77 53
118 116 67
113 103 77
139 155 85
137 104 80
73 73 50
90 95 65
104 96 63
79 79 54
135 169 84
103 109 65
2 2 5
2 2 5
2 2 5
2 2 5
2 2 5
2 2 5
2 2 5
2 2 5
2 2 5
2 2 5
2 2 5
2 2 5
2 2 5
2 2 5
2 2 5
2 2 5
2 2 5
2 2 5
2 2 5
2 2 5
2 2 5
2 2 5
2 2 5
2 2 5
2 2 5
2 2 5
2 2 5
2 2 5
2 2 5
2 2 5
2 2 5
2 2 5
2 2 5
2 2 5
2 2 5
2 2 5
2 2 5
2 2 5
2 2 5
2 2 5
2 2 5
2 2 5
2 2 5
2 2 5
2 2 5
2 2 5
2 2 5
2 2 5
2 2 5
2 2 5
2 2 5
2 2 5
2 2 5
2 2 5
2 2 5
2 2 5
2 2 5
2 2 5
2 2 5
2 2 5
2 2 5
2 2 5
2 2 5
2 2 5
2 2 5
2 2 5
2 2 5
2 2 5
2 2 5
2 2 5
2 2 5
2 2 5
2 2 5
2 2 5
2 2 5
2 2 5
2 2 5
2 2 5
2 2 5
2 2 5
2 2 5
2 2 5
2 2 5
2 2 5
2 2 5
2 2 5
2 2 5
2 2 5
2 2 5
2 2 5
2 2 5
2 2 5
2 2 5
2 2 5
2 2 5
2 2 5
2 2 5
2 2 5
2 2 5
2 2 5
2 2 5
2 2 5
2 2 5
2 2 5
2 2 5
2 2 5
2 2 5
2 2 5
2 2 5
2 2 5
2 2 5
2 2 5
2 2 5
2 2 5
2 2 5
2 2 5
2 2 5
2 2 5
2 2 5
2 2 5
2 2 5
2 2 5
2 2 5
2 2 5
2 2 5
2 2 5
2 2 5
2 2 5
2 2 5
2 2 5
2 2 5
2 2 5
2 2 5
2 2 5
2 2 5
2 2 5
2 2 5
2 2 5
2 2 5
2 2 5
2 2 5
2 2 5
2 2 5
2 2 5
2 2 5
2 2 5
2 2 5
2 2 5
2 2 5
2 2 5
2 2 5
2 2 5
255 255 255
255 255 255
255 255 255
255 255 255
255 255 255
255 255 255
255 255 255
255 255 255
255 255 255
255 255 255
255 255 255
255 255 255
255 255 255
255 255 255
255 255 255
255 255 255
255 255 255
255 255 255
255 255 255
255 255 255
255 255 255
255 255 255
255 255 255
255 255 255
255 255 255
255 255 255
255 255 255
255 255 255
255 255 255
255 255 255
255 255 255
255 255 255
255 255 255
255 255 255
255 255 255
255 255 255
255 255 255
255 255 255
255 255 255
255 255 255
255 255 255
255 255 255
255 255 255
255 255 255
255 255 255
255 255 255
255 255 255
255 255 255
255 255 255
255 255 255
255 255 255
255 255 255
255 255 255
255 255 255
255 255 255
255 255 255
255 255 255
255 255 255
255 255 255
255 255 255
255 255 255
255 255 255
2 2 5
2 2 5
2 2 5
2 2 5
2 2 5
2 2 5
2 2 5
2 2 5
2 2 5
2 2 5
2 2 5
2 2 5
2 2 5
2 2 5
2 2 5
2 2 5
2 2 5
2 2 5
2 2 5
2 2 5
2 2 5
2 2 5
2 2 5
2 2 5
2 2 5
2 2 5
2 2 5
2 2 5
2 2 5
2 2 5
2 2 5
2 2 5
2 2 5
2 2 5
2 2 5
2 2 5
2 2 5
2 2 5
2 2 5
2 2 5
2 2 5
2 2 5
2 2 5
2 2 5
2 2 5
2 2 5
2 2 5
2 2 5
2 2 5
2 2 5
2 2 5
2 2 5
2 2 5
2 2 5
2 2 5
2 2 5
2 2 5
2 2 5
2 2 5
2 2 5
2 2 5
2 2 5
2 2 5
2 2 5
2 2 5
2 2 5
2 2 5
2 2 5
2 2 5
2 2 5
2 2 5
2 2 5
2 2 5
2 2 5
2 2 5
2 2 5
2 2 5
2 2 5
2 2 5
2 2 5
2 2 5
2 2 5
2 2 5
2 2 5
2 2 5
2 2 5
2 2 5
2 2 5
2 2 5
2 2 5
2 2 5
2 2 5
2 2 5
2 2 5
2 2 5
2 2 5
2 2 5
2 2 5
2 2 5
2 2 5
2 2 5
2 2 5
2 2 5
2 2 5
2 2 5
2 2 5
2 2 5
2 2 5
2 2 5
2 2 5
2 2 5
2 2 5
2 2 5
2 2 5
2 2 5
2 2 5
2 2 5
2 2 5
2 2 5
2 2 5
2 2 5
2 2 5
2 2 5
2 2 5
2 2 5
2 2 5
2 2 5
2 2 5
2 2 5
2 2 5
2 2 5
2 2 5
2 2 5
2 2 5
2 2 5
2 2 5
2 2 5
2 2 5
2 2 5
2 2 5
2 2 5
2 2 5
2 2 5
2 2 5
2 2 5
2 2 5
2 2 5
2 2 5
2 2 5
2 2 5
2 2 5
2 2 5
79 57 49
44 29 31
68 48 38
42 28 30
41 27 29
42 28 29
43 29 30
88 49 53
42 28 30
72 62 44
49 32 34
39 26 26
42 28 29
76 55 45
40 27 28
73 43 48
63 47 42
94 107 71
120 102 65
123 117 71
78 78 53
82 82 56
81 81 55
162 132 85
99 95 67
81 81 55
93 93 63
72 72 49
97 93 62
111 135 78
80 80 55
122 108 70
124 124 72
78 78 53
71 71 48
88 96 59
2 2 5
2 2 5
2 2 5
2 2 5
2 2 5
2 2 5
2 2 5
2 2 5
2 2 5
2 2 5
2 2 5
2 2 5
2 2 5
2 2 5
2 2 5
2 2 5
2 2 5
2 2 5
2 2 5
2 2 5
2 2 5
2 2 5
2 2 5
2 2 5
2 2 5
2 2 5
2 2 5
2 2 5
2 2 5
2 2 5
2 2 5
2 2 5
2 2 5
2 2 5
2 2 5
2 2 5
2 2 5
2 2 5
2 2 5
2 2 5
2 2 5
2 2 5
2 2 5
2 2 5
2 2 5
2 2 5
2 2 5
2 2 5
2 2 5
2 2 5
2 2 5
2 2 5
2 2 5
2 2 5
2 2 5
2 2 5
2 2 5
2 2 5
2 2 5
2 2 5
2 2 5
2 2 5
2 2 5
2 2 5
2 2 5
2 2 5
2 2 5
2 2 5
2 2 5
2 2 5
2 2 5
2 2 5
2 2 5
2 2 5
2 2 5
2 2 5
2 2 5
2 2 5
2 2 5
2 2 5
2 2 5
2 2 5
2 2 5
2 2 5
2 2 5
2 2 5
2 2 5
2 2 5
2 2 5
2 2 5
2 2 5
2 2 5
2 2 5
2 2 5
2 2 5
2 2 5
2 2 5
2 2 5
2 2 5
2 2 5
2 2 5
2 2 5
2 2 5
2 2 5
2 2 5
2 2 5
2 2 5
2 2 5
2 2 5
2 2 5
2 2 5
2 2 5
2 2 5
2 2 5
2 2 5
2 2 5
2 2 5
2 2 5
2 2 5
2 2 5
2 2 5
2 2 5
2 2 5
2 2 5
2 2 5
2 2 5
2 2 5
2 2 5
2 2 5
2 2 5
2 2 5
2 2 5
2 2 5
2 2 5
2 2 5
2 2 5
2 2 5
2 2 5
2 2 5
2 2 5
2 2 5
2 2 5
2 2 5
2 2 5
2 2 5
2 2 5
2 2 5
2 2 5
2 2 5
2 2 5
255 255 255
255 255 255
255 255 255
255 255 255
255 255 255
255 255 255
255 255 255
255 255 255
255 255 255
255 255 255
255 255 255
255 255 255
255 255 255
255 255 255
255 255 255
255 255 255
255 255 255
255 255 255
255 255 255
255 255 255
255 255 255
255 255 255
255 255 255
255 255 255
255 255 255
255 255 255
255 255 255
255 255 255
255 255 255
255 255 255
255 255 255
255 255 255
255 255 255
255 255 255
255 255 255
255 255 255
255 255 255
255 255 255
255 255 255
255 255 255
255 255 255
255 255 255
255 255 255
255 255 255
255 255 255
255 255 255
255 255 255
255 255 255
255 255 255
255 255 255
255 255 255
255 255 255
255 255 255
255 255 255
255 255 255
255 255 255
255 255 255
255 255 255
255 255 255
255 255 255
255 255 255
255 255 255
2 2 5
2 2 5
2 2 5
2 2 5
2 2 5
2 2 5
2 2 5
2 2 5
2 2 5
2 2 5
2 2 5
2 2 5
2 2 5
2 2 5
2 2 5
2 2 5
2 2 5
2 2 5
2 2 5
2 2 5
2 2 5
2 2 5
2 2 5
2 2 5
2 2 5
2 2 5
2 2 5
2 2 5
2 2 5
2 2 5
2 2 5
2 2 5
2 2 5
2 2 5
2 2 5
2 2 5
2 2 5
2 2 5
2 2 5
2 2 5
2 2 5
2 2 5
2 2 5
2 2 5
2 2 5
2 2 5
2 2 5
2 2 5
2 2 5
2 2 5
2 2 5
2 2 5
2 2 5
2 2 5
2 2 5
2 2 5
2 2 5
2 2 5
2 2 5
2 2 5
2 2 5
2 2 5
2 2 5
2 2 5
2 2 5
2 2 5
2 2 5
2 2 5
2 2 5
2 2 5
2 2 5
2 2 5
2 2 5
2 2 5
2 2 5
2 2 5
2 2 5
2 2 5
2 2 5
2 2 5
2 2 5
2 2 5
2 2 5
2 2 5
2 2 5
2 2 5
2 2 5
2 2 5
2 2 5
2 2 5
2 2 5
2 2 5
2 2 5
2 2 5
2 2 5
2 2 5
2 2 5
2 2 5
2 2 5
2 2 5
2 2 5
2 2 5
2 2 5
2 2 5
2 2 5
2 2 5
2 2 5
2 2 5
2 2 5
2 2 5
2 2 5
2 2 5
2 2 5
2 2 5
2 2 5
2 2 5
2 2 5
2 2 5
2 2 5
2 2 5
2 2 5
2 2 5
2 2 5
2 2 5
2 2 5
2 2 5
2 2 5
2 2 5
2 2 5
2 2 5
2 2 5
2 2 5
2 2 5
2 2 5
2 2 5
2 2 5
2 2 5
2 2 5
2 2 5
2 2 5
2 2 5
2 2 5
2 2 5
2 2 5
2 2 5
2 2 5
2 2 5
2 2 5
2 2 5
2 2 5
2 2 5
58 34 39
43 28 30
55 36 38
59 39 35
42 28 30
39 26 27
72 53 54
76 51 51
40 26 28
43 28 30
81 60 45
58 45 47
42 28 29
39 26 27
42 28 29
43 29 30
39 26 27
41 27 27
255 255 181
217 255 144
86 86 59
144 105 74
86 86 58
94 100 72
124 133 87
84 84 57
80 80 55
72 72 50
138 151 80
93 101 65
99 103 67
86 86 59
82 82 56
106 111 74
99 119 74
80 80 55
72 72 49
73 73 50
69 69 47
2 2 5
2 2 5
2 2 5
2 2 5
2 2 5
2 2 5
2 2 5
2 2 5
2 2 5
2 2 5
2 2 5
2 2 5
2 2 5
2 2 5
2 2 5
2 2 5
2 2 5
2 2 5
2 2 5
2 2 5
2 2 5
2 2 5
2 2 5
2 2 5
2 2 5
2 2 5
2 2 5
2 2 5
2 2 5
2 2 5
2 2 5
2 2 5
2 2 5
2 2 5
2 2 5
2 2 5
2 2 5
2 2 5
2 2 5
2 2 5
2 2 5
2 2 5
2 2 5
2 2 5
2 2 5
2 2 5
2 2 5
2 2 5
2 2 5
2 2 5
2 2 5
2 2 5
2 2 5
2 2 5
2 2 5
2 2 5
2 2 5
2 2 5
2 2 5
2 2 5
2 2 5
2 2 5
2 2 5
2 2 5
2 2 5
2 2 5
2 2 5
2 2 5
2 2 5
2 2 5
2 2 5
2 2 5
2 2 5
2 2 5
2 2 5
2 2 5
2 2 5
2 2 5
2 2 5
2 2 5
2 2 5
2 2 5
2 2 5
2 2 5
2 2 5
2 2 5
2 2 5
2 2 5
2 2 5
2 2 5
2 2 5
2 2 5
2 2 5
2 2 5
2 2 5
2 2 5
2 2 5
2 2 5
2 2 5
2 2 5
2 2 5
2 2 5
2 2 5
2 2 5
2 2 5
2 2 5
2 2 5
2 2 5
2 2 5
2 2 5
2 2 5
2 2 5
2 2 5
2 2 5
2 2 5
2 2 5
2 2 5
2 2 5
2 2 5
2 2 5
2 2 5
2 2 5
2 2 5
2 2 5
2 2 5
2 2 5
2 2 5
2 2 5
2 2 5
2 2 5
2 2 5
2 2 5
2 2 5
2 2 5
2 2 5
2 2 5
2 2 5
2 2 5
2 2 5
2 2 5
2 2 5
2 2 5
2 2 5
2 2 5
2 2 5
2 2 5
2 2 5
2 2 5
255 255 255
255 255 255
255 255 255
255 255 255
255 255 255
255 255 255
255 255 255
255 255 255
255 255 255
255 255 255
255 255 255
255 255 255
255 255 255
255 255 255
255 255 255
255 255 255
255 255 255
255 255 255
255 255 255
255 255 255
255 255 255
255 255 255
255 255 255
255 255 255
255 255 255
255 255 255
255 255 255
255 255 255
255 255 255
255 255 255
255 255 255
255 255 255
255 255 255
255 255 255
255 255 255
255 255 255
255 255 255
255 255 255
255 255 255
255 255 255
255 255 255
255 255 255
255 255 255
255 255 255
255 255 255
255 255 255
255 255 255
255 255 255
255 255 255
255 255 255
255 255 255
255 255 255
255 255 255
255 255 255
255 255 255
255 255 255
255 255 255
255 255 255
255 255 255
255 255 255
255 255 255
2 2 5
2 2 5
2 2 5
2 2 5
2 2 5
2 2 5
2 2 5
2 2 5
2 2 5
2 2 5
2 2 5
2 2 5
2 2 5
2 2 5
2 2 5
2 2 5
2 2 5
2 2 5
2 2 5
2 2 5
2 2 5
2 2 5
2 2 5
2 2 5
2 2 5
2 2 5
2 2 5
2 2 5
2 2 5
2 2 5
2 2 5
2 2 5
2 2 5
2 2 5
2 2 5
2 2 5
2 2 5
2 2 5
2 2 5
2 2 5
2 2 5
2 2 5
2 2 5
2 2 5
2 2 5
2 2 5
2 2 5
2 2 5
2 2 5
2 2 5
2 2 5
2 2 5
2 2 5
2 2 5
2 2 5
2 2 5
2 2 5
2 2 5
2 2 5
2 2 5
2 2 5
2 2 5
2 2 5
2 2 5
2 2 5
2 2 5
2 2 5
2 2 5
2 2 5
2 2 5
2 2 5
2 2 5
2 2 5
2 2 5
2 2 5
2 2 5
2 2 5
2 2 5
2 2 5
2 2 5
2 2 5
2 2 5
2 2 5
2 2 5
2 2 5
2 2 5
2 2 5
2 2 5
2 2 5
2 2 5
2 2 5
2 2 5
2 2 5
2 2 5
2 2 5
2 2 5
2 2 5
2 2 5
2 2 5
2 2 5
2 2 5
2 2 5
2 2 5
2 2 5
2 2 5
2 2 5
2 2 5
2 2 5
2 2 5
2 2 5
2 2 5
2 2 5
2 2 5
2 2 5
2 2 5
2 2 5
2 2 5
2 2 5
2 2 5
2 2 5
2 2 5
2 2 5
2 2 5
2 2 5
2 2 5
2 2 5
2 2 5
2 2 5
2 2 5
2 2 5
2 2 5
2 2 5
2 2 5
2 2 5
2 2 5
2 2 5
2 2 5
2 2 5
2 2 5
2 2 5
2 2 5
2 2 5
2 2 5
2 2 5
2 2 5
2 2 5
2 2 5
2 2 5
2 2 5
2 2 5
129 57 62
44 29 31
43 28 30
85 46 58
42 28 30
43 29 30
121 91 51
125 64 73
44 29 30
94 74 53
98 65 54
45 30 31
119 67 61
105 84 61
113 73 80
45 30 32
40 27 28
44 29 31
94 64 48
55 43 44
102 110 68
97 97 66
70 70 48
255 190 156
127 112 69
130 130 80
85 85 58
130 109 69
196 255 131
86 86 59
96 96 65
87 90 61
77 77 53
107 96 78
73 73 50
84 84 57
121 164 92
103 120 65
82 82 56
78 78 53
87 87 59
112 102 76
2 2 5
2 2 5
2 2 5
2 2 5
2 2 5
2 2 5
2 2 5
2 2 5
2 2 5
2 2 5
2 2 5
2 2 5
2 2 5
2 2 5
2 2 5
2 2 5
2 2 5
2 2 5
2 2 5
2 2 5
2 2 5
2 2 5
2 2 5
2 2 5
2 2 5
2 2 5
2 2 5
2 2 5
2 2 5
2 2 5
2 2 5
2 2 5
2 2 5
2 2 5
2 2 5
2 2 5
2 2 5
2 2 5
2 2 5
2 2 5
2 2 5
2 2 5
2 2 5
2 2 5
2 2 5
2 2 5
2 2 5
2 2 5
2 2 5
2 2 5
2 2 5
2 2 5
2 2 5
2 2 5
2 2 5
2 2 5
2 2 5
2 2 5
2 2 5
2 2 5
2 2 5
2 2 5
2 2 5
2 2 5
2 2 5
2 2 5
2 2 5
2 2 5
2 2 5
2 2 5
2 2 5
2 2 5
2 2 5
2 2 5
2 2 5
2 2 5
2 2 5
2 2 5
2 2 5
2 2 5
2 2 5
2 2 5
2 2 5
2 2 5
2 2 5
2 2 5
2 2 5
2 2 5
2 2 5
2 2 5
2 2 5
2 2 5
2 2 5
2 2 5
2 2 5
2 2 5
2 2 5
2 2 5
2 2 5
2 2 5
2 2 5
2 2 5
2 2 5
2 2 5
2 2 5
2 2 5
2 2 5
2 2 5
2 2 5
2 2 5
2 2 5
2 2 5
2 2 5
2 2 5
2 2 5
2 2 5
2 2 5
2 2 5
2 2 5
2 2 5
2 2 5
2 2 5
2 2 5
2 2 5
2 2 5
2 2 5
2 2 5
2 2 5
2 2 5
2 2 5
2 2 5
2 2 5
2 2 5
2 2 5
2 2 5
2 2 5
2 2 5
2 2 5
2 2 5
2 2 5
2 2 5
2 2 5
2 2 5
2 2 5
2 2 5
2 2 5
2 2 5
255 255 255
255 255 255
255 255 255
255 255 255
255 255 255
255 255 255
255 255 255
255 255 255
255 255 255
255 255 255
255 255 255
255 255 255
255 255 255
255 255 255
255 255 255
255 255 255
255 255 255
255 255 255
255 255 255
255 255 255
255 255 255
255 255 255
255 255 255
255 255 255
255 255 255
255 255 255
255 255 255
255 255 255
255 255 255
255 255 255
255 255 255
255 255 255
255 255 255
255 255 255
255 255 255
255 255 255
255 255 255
255 255 255
255 255 255
255 255 255
255 255 255
255 255 255
255 255 255
255 255 255
255 255 255
255 255 255
255 255 255
255 255 255
255 255 255
255 255 255
255 255 255
255 255 255
255 255 255
255 255 255
255 255 255
255 255 255
255 255 255
255 255 255
255 255 255
255 255 255
255 255 255
2 2 5
2 2 5
2 2 5
2 2 5
2 2 5
2 2 5
2 2 5
2 2 5
2 2 5
2 2 5
2 2 5
2 2 5
2 2 5
2 2 5
2 2 5
2 2 5
2 2 5
2 2 5
2 2 5
2 2 5
2 2 5
2 2 5
2 2 5
2 2 5
2 2 5
2 2 5
2 2 5
2 2 5
2 2 5
2 2 5
2 2 5
2 2 5
2 2 5
2 2 5
2 2 5
2 2 5
2 2 5
2 2 5
2 2 5
2 2 5
2 2 5
2 2 5
2 2 5
2 2 5
2 2 5
2 2 5
2 2 5
2 2 5
2 2 5
2 2 5
2 2 5
2 2 5
2 2 5
2 2 5
2 2 5
2 2 5
2 2 5
2 2 5
2 2 5
2 2 5
2 2 5
2 2 5
2 2 5
2 2 5
2 2 5
2 2 5
2 2 5
2 2 5
2 2 5
2 2 5
2 2 5
2 2 5
2 2 5
2 2 5
2 2 5
2 2 5
2 2 5
2 2 5
2 2 5
2 2 5
2 2 5
2 2 5
2 2 5
2 2 5
2 2 5
2 2 5
2 2 5
2 2 5
2 2 5
2 2 5
2 2 5
2 2 5
2 2 5
2 2 5
2 2 5
2 2 5
2 2 5
2 2 5
2 2 5
2 2 5
2 2 5
2 2 5
2 2 5
2 2 5
2 2 5
2 2 5
2 2 5
2 2 5
2 2 5
2 2 5
2 2 5
2 2 5
2 2 5
2 2 5
2 2 5
2 2 5
2 2 5
2 2 5
2 2 5
2 2 5
2 2 5
2 2 5
2 2 5
2 2 5
2 2 5
2 2 5
2 2 5
2 2 5
2 2 5
2 2 5
2 2 5
2 2 5
2 2 5
2 2 5
2 2 5
2 2 5
2 2 5
2 2 5
2 2 5
2 2 5
2 2 5
2 2 5
2 2 5
2 2 5
2 2 5
2 2 5
2 2 5
2 2 5
90 60 65
40 27 28
45 30 37
97 42 54
37 25 26
40 27 28
43 28 30
39 26 27
92 61 50
67 40 35
46 30 32
106 58 73
42 28 29
41 27 29
76 50 44
84 56 47
41 27 29
40 27 28
106 52 64
48 32 33
46 31 32
40 27 28
122 114 73
95 95 64
85 94 57
94 100 71
77 77 53
126 149 76
97 92 62
81 81 56
81 81 55
108 126 78
79 79 54
84 92 62
88 88 60
113 127 69
74 74 51
121 109 70
86 86 59
77 77 53
111 111 66
155 145 78
79 79 54
85 80 58
95 95 65
2 2 5
2 2 5
2 2 5
2 2 5
2 2 5
2 2 5
2 2 5
2 2 5
2 2 5
2 2 5
2 2 5
2 2 5
2 2 5
2 2 5
2 2 5
2 2 5
2 2 5
2 2 5
2 2 5
2 2 5
2 2 5
2 2 5
2 2 5
2 2 5
2 2 5
2 2 5
2 2 5
2 2 5
2 2 5
2 2 5
2 2 5
2 2 5
2 2 5
2 2 5
2 2 5
2 2 5
2 2 5
2 2 5
2 2 5
2 2 5
2 2 5
2 2 5
2 2 5
2 2 5
2 2 5
2 2 5
2 2 5
2 2 5
2 2 5
2 2 5
2 2 5
2 2 5
2 2 5
2 2 5
2 2 5
2 2 5
2 2 5
2 2 5
2 2 5
2 2 5
2 2 5
2 2 5
2 2 5
2 2 5
2 2 5
2 2 5
2 2 5
2 2 5
2 2 5
2 2 5
2 2 5
2 2 5
2 2 5
2 2 5
2 2 5
2 2 5
2 2 5
2 2 5
2 2 5
2 2 5
2 2 5
2 2 5
2 2 5
2 2 5
2 2 5
2 2 5
2 2 5
2 2 5
2 2 5
2 2 5
2 2 5
2 2 5
2 2 5
2 2 5
2 2 5
2 2 5
2 2 5
2 2 5
2 2 5
2 2 5
2 2 5
2 2 5
2 2 5
2 2 5
2 2 5
2 2 5
2 2 5
2 2 5
2 2 5
2 2 5
2 2 5
2 2 5
2 2 5
2 2 5
2 2 5
2 2 5
2 2 5
2 2 5
2 2 5
2 2 5
2 2 5
2 2 5
2 2 5
2 2 5
2 2 5
2 2 5
2 2 5
2 2 5
2 2 5
2 2 5
2 2 5
2 2 5
2 2 5
2 2 5
2 2 5
2 2 5
2 2 5
2 2 5
2 2 5
2 2 5
2 2 5
2 2 5
2 2 5
2 2 5
2 2 5
2 2 5
2 2 5
255 255 255
255 255 255
255 255 255
255 255 255
255 255 255
255 255 255
255 255 255
255 255 255
255 255 255
255 255 255
255 255 255
255 255 255
255 255 255
255 255 255
255 255 255
255 255 255
255 255 255
255 255 255
255 255 255
255 255 255
255 255 255
255 255 255
255 255 255
255 255 255
255 255 255
255 255 255
255 255 255
255 255 255
255 255 255
255 255 255
255 255 255
255 255 255
255 255 255
255 255 255
255 255 255
255 255 255
255 255 255
255 255 255
255 255 255
255 255 255
255 255 255
255 255 255
255 255 255
255 255 255
255 255 255
255 255 255
255 255 255
255 255 255
255 255 255
255 255 255
255 255 255
255 255 255
255 255 255
255 255 255
255 255 255
255 255 255
255 255 255
255 255 255
255 255 255
255 255 255
2 2 5
2 2 5
2 2 5
2 2 5
2 2 5
2 2 5
2 2 5
2 2 5
2 2 5
2 2 5
2 2 5
2 2 5
2 2 5
2 2 5
2 2 5
2 2 5
2 2 5
2 2 5
2 2 5
2 2 5
2 2 5
2 2 5
2 2 5
2 2 5
2 2 5
2 2 5
2 2 5
2 2 5
2 2 5
2 2 5
2 2 5
2 2 5
2 2 5
2 2 5
2 2 5
2 2 5
2 2 5
2 2 5
2 2 5
2 2 5
2 2 5
2 2 5
2 2 5
2 2 5
2 2 5
2 2 5
2 2 5
2 2 5
2 2 5
2 2 5
2 2 5
2 2 5
2 2 5
2 2 5
2 2 5
2 2 5
2 2 5
2 2 5
2 2 5
2 2 5
2 2 5
2 2 5
2 2 5
2 2 5
2 2 5
2 2 5
2 2 5
2 2 5
2 2 5
2 2 5
2 2 5
2 2 5
2 2 5
2 2 5
2 2 5
2 2 5
2 2 5
2 2 5
2 2 5
2 2 5
2 2 5
2 2 5
2 2 5
2 2 5
2 2 5
2 2 5
2 2 5
2 2 5
2 2 5
2 2 5
2 2 5
2 2 5
2 2 5
2 2 5
2 2 5
2 2 5
2 2 5
2 2 5
2 2 5
2 2 5
2 2 5
2 2 5
2 2 5
2 2 5
2 2 5
2 2 5
2 2 5
2 2 5
2 2 5
2 2 5
2 2 5
2 2 5
2 2 5
2 2 5
2 2 5
2 2 5
2 2 5
2 2 5
2 2 5
2 2 5
2 2 5
2 2 5
2 2 5
2 2 5
2 2 5
2 2 5
2 2 5
2 2 5
2 2 5
2 2 5
2 2 5
2 2 5
2 2 5
2 2 5
2 2 5
2 2 5
2 2 5
2 2 5
2 2 5
2 2 5
2 2 5
2 2 5
2 2 5
2 2 5
2 2 5
2 2 5
2 2 5
73 51 61
56 46 46
63 47 36
128 67 63
46 30 31
52 39 36
41 27 28
114 60 52
105 77 56
39 26 28
43 29 30
58 37 42
89 69 80
99 48 48
37 24 26
47 31 41
40 26 28
90 46 52
45 30 36
101 52 59
45 29 32
46 30 32
44 29 31
88 91 59
94 91 59
101 116 77
97 111 66
85 85 58
101 111 66
77 77 53
165 122 86
115 100 63
92 102 69
74 74 51
68 68 47
97 92 61
115 101 67
99 117 78
98 110 74
86 92 65
101 110 67
89 87 74
82 82 56
110 99 62
115 143 71
86 86 57
100 113 67
88 97 60
2 2 5
2 2 5
2 2 5
2 2 5
2 2 5
2 2 5
2 2 5
2 2 5
2 2 5
2 2 5
2 2 5
2 2 5
2 2 5
2 2 5
2 2 5
2 2 5
2 2 5
2 2 5
2 2 5
2 2 5
2 2 5
2 2 5
2 2 5
2 2 5
2 2 5
2 2 5
2 2 5
2 2 5
2 2 5
2 2 5
2 2 5
2 2 5
2 2 5
2 2 5
2 2 5
2 2 5
2 2 5
2 2 5
2 2 5
2 2 5
2 2 5
2 2 5
2 2 5
2 2 5
2 2 5
2 2 5
2 2 5
2 2 5
2 2 5
2 2 5
2 2 5
2 2 5
2 2 5
2 2 5
2 2 5
2 2 5
2 2 5
2 2 5
2 2 5
2 2 5
2 2 5
2 2 5
2 2 5
2 2 5
2 2 5
2 2 5
2 2 5
2 2 5
2 2 5
2 2 5
2 2 5
2 2 5
2 2 5
2 2 5
2 2 5
2 2 5
2 2 5
2 2 5
2 2 5
2 2 5
2 2 5
2 2 5
2 2 5
2 2 5
2 2 5
2 2 5
2 2 5
2 2 5
2 2 5
2 2 5
2 2 5
2 2 5
2 2 5
2 2 5
2 2 5
2 2 5
2 2 5
2 2 5
2 2 5
2 2 5
2 2 5
2 2 5
2 2 5
2 2 5
2 2 5
2 2 5
2 2 5
2 2 5
2 2 5
2 2 5
2 2 5
2 2 5
2 2 5
2 2 5
2 2 5
2 2 5
2 2 5
2 2 5
2 2 5
2 2 5
2 2 5
2 2 5
2 2 5
2 2 5
2 2 5
2 2 5
2 2 5
2 2 5
2 2 5
2 2 5
2 2 5
2 2 5
2 2 5
2 2 5
2 2 5
2 2 5
2 2 5
2 2 5
2 2 5
2 2 5
2 2 5
2 2 5
2 2 5
2 2 5
2 2 5
255 255 255
255 255 255
255 255 255
255 255 255
255 255 255
255 255 255
255 255 255
255 255 255
255 255 255
255 255 255
255 255 255
255 255 255
255 255 255
255 255 255
255 255 255
255 255 255
255 255 255
255 255 255
255 255 255
255 255 255
255 255 255
255 255 255
255 255 255
255 255 255
255 255 255
255 255 255
255 255 255
255 255 255
255 255 255
255 255 255
255 255 255
255 255 255
255 255 255
255 255 255
255 255 255
255 255 255
255 255 255
255 255 255
255 255 255
255 255 255
255 255 255
255 255 255
255 255 255
255 255 255
255 255 255
255 255 255
255 255 255
255 255 255
255 255 255
255 255 255
255 255 255
255 255 255
255 255 255
255 255 255
255 255 255
255 255 255
255 255 255
255 255 255
255 255 255
255 255 255
2 2 5
2 2 5
2 2 5
2 2 5
2 2 5
2 2 5
2 2 5
2 2 5
2 2 5
2 2 5
2 2 5
2 2 5
2 2 5
2 2 5
2 2 5
2 2 5
2 2 5
2 2 5
2 2 5
2 2 5
2 2 5
2 2 5
2 2 5
2 2 5
2 2 5
2 2 5
2 2 5
2 2 5
2 2 5
2 2 5
2 2 5
2 2 5
2 2 5
2 2 5
2 2 5
2 2 5
2 2 5
2 2 5
2 2 5
2 2 5
2 2 5
2 2 5
2 2 5
2 2 5
2 2 5
2 2 5
2 2 5
2 2 5
2 2 5
2 2 5
2 2 5
2 2 5
2 2 5
2 2 5
2 2 5
2 2 5
2 2 5
2 2 5
2 2 5
2 2 5
2 2 5
2 2 5
2 2 5
2 2 5
2 2 5
2 2 5
2 2 5
2 2 5
2 2 5
2 2 5
2 2 5
2 2 5
2 2 5
2 2 5
2 2 5
2 2 5
2 2 5
2 2 5
2 2 5
2 2 5
2 2 5
2 2 5
2 2 5
2 2 5
2 2 5
2 2 5
2 2 5
2 2 5
2 2 5
2 2 5
2 2 5
2 2 5
2 2 5
2 2 5
2 2 5
2 2 5
2 2 5
2 2 5
2 2 5
2 2 5
2 2 5
2 2 5
2 2 5
2 2 5
2 2 5
2 2 5
2 2 5
2 2 5
2 2 5
2 2 5
2 2 5
2 2 5
2 2 5
2 2 5
2 2 5
2 2 5
2 2 5
2 2 5
2 2 5
2 2 5
2 2 5
2 2 5
2 2 5
2 2 5
2 2 5
2 2 5
2 2 5
2 2 5
2 2 5
2 2 5
2 2 5
2 2 5
2 2 5
2 2 5
2 2 5
2 2 5
2 2 5
2 2 5
2 2 5
2 2 5
2 2 5
2 2 5
2 2 5
2 2 5
2 2 5
70 54 52
36 24 26
54 32 37
69 39 46
41 27 29
132 73 59
50 33 34
73 51 51
98 61 51
63 39 39
57 34 39
255 102 113
39 26 28
93 57 47
42 28 29
42 28 30
82 45 56
61 45 43
179 96 89
41 27 29
48 32 34
76 51 42
41 27 28
44 29 31
43 28 30
123 143 79
74 74 51
90 98 61
100 95 64
127 112 86
97 103 61
218 255 145
141 119 73
68 68 47
83 83 56
134 121 75
130 166 85
70 70 48
67 67 46
88 91 60
85 85 58
95 86 58
86 86 59
87 87 59
95 95 65
73 73 50
73 73 50
140 123 73
112 97 61
80 80 55
79 79 54
73 73 50
2 2 5
2 2 5
2 2 5
2 2 5
2 2 5
2 2 5
2 2 5
2 2 5
2 2 5
2 2 5
2 2 5
2 2 5
2 2 5
2 2 5
2 2 5
2 2 5
2 2 5
2 2 5
2 2 5
2 2 5
2 2 5
2 2 5
2 2 5
2 2 5
2 2 5
2 2 5
2 2 5
2 2 5
2 2 5
2 2 5
2 2 5
2 2 5
2 2 5
2 2 5
2 2 5
2 2 5
2 2 5
2 2 5
2 2 5
2 2 5
2 2 5
2 2 5
2 2 5
2 2 5
2 2 5
2 2 5
2 2 5
2 2 5
2 2 5
2 2 5
2 2 5
2 2 5
2 2 5
2 2 5
2 2 5
2 2 5
2 2 5
2 2 5
2 2 5
2 2 5
2 2 5
2 2 5
2 2 5
2 2 5
2 2 5
2 2 5
2 2 5
2 2 5
2 2 5
2 2 5
2 2 5
2 2 5
2 2 5
2 2 5
2 2 5
2 2 5
2 2 5
2 2 5
2 2 5
2 2 5
2 2 5
2 2 5
2 2 5
2 2 5
2 2 5
2 2 5
2 2 5
2 2 5
2 2 5
2 2 5
2 2 5
2 2 5
2 2 5
2 2 5
2 2 5
2 2 5
2 2 5
2 2 5
2 2 5
2 2 5
2 2 5
2 2 5
2 2 5
2 2 5
2 2 5
2 2 5
2 2 5
2 2 5
2 2 5
2 2 5
2 2 5
2 2 5
2 2 5
2 2 5
2 2 5
2 2 5
2 2 5
2 2 5
2 2 5
2 2 5
2 2 5
2 2 5
2 2 5
2 2 5
2 2 5
2 2 5
2 2 5
2 2 5
2 2 5
2 2 5
2 2 5
2 2 5
2 2 5
2 2 5
2 2 5
2 2 5
2 2 5
2 2 5
2 2 5
2 2 5
2 2 5
2 2 5
2 2 5
255 255 255
255 255 255
255 255 255
255 255 255
255 255 255
255 255 255
255 255 255
255 255 255
255 255 255
255 255 255
255 255 255
255 255 255
255 255 255
255 255 255
255 255 255
255 255 255
255 255 255
255 255 255
255 255 255
255 255 255
255 255 255
255 255 255
255 255 255
255 255 255
255 255 255
255 255 255
255 255 255
255 255 255
255 255 255
255 255 255
255 255 255
255 255 255
255 255 255
255 255 255
255 255 255
255 255 255
255 255 255
255 255 255
255 255 255
255 255 255
255 255 255
255 255 255
255 255 255
255 255 255
255 255 255
255 255 255
255 255 255
255 255 255
255 255 255
255 255 255
255 255 255
255 255 255
255 255 255
255 255 255
255 255 255
255 255 255
255 255 255
255 255 255
255 255 255
255 255 255
2 2 5
2 2 5
2 2 5
2 2 5
2 2 5
2 2 5
2 2 5
2 2 5
2 2 5
2 2 5
2 2 5
2 2 5
2 2 5
2 2 5
2 2 5
2 2 5
2 2 5
2 2 5
2 2 5
2 2 5
2 2 5
2 2 5
2 2 5
2 2 5
2 2 5
2 2 5
2 2 5
2 2 5
2 2 5
2 2 5
2 2 5
2 2 5
2 2 5
2 2 5
2 2 5
2 2 5
2 2 5
2 2 5
2 2 5
2 2 5
2 2 5
2 2 5
2 2 5
2 2 5
2 2 5
2 2 5
2 2 5
2 2 5
2 2 5
2 2 5
2 2 5
2 2 5
2 2 5
2 2 5
2 2 5
2 2 5
2 2 5
2 2 5
2 2 5
2 2 5
2 2 5
2 2 5
2 2 5
2 2 5
2 2 5
2 2 5
2 2 5
2 2 5
2 2 5
2 2 5
2 2 5
2 2 5
2 2 5
2 2 5
2 2 5
2 2 5
2 2 5
2 2 5
2 2 5
2 2 5
2 2 5
2 2 5
2 2 5
2 2 5
2 2 5
2 2 5
2 2 5
2 2 5
2 2 5
2 2 5
2 2 5
2 2 5
2 2 5
2 2 5
2 2 5
2 2 5
2 2 5
2 2 5
2 2 5
2 2 5
2 2 5
2 2 5
2 2 5
2 2 5
2 2 5
2 2 5
2 2 5
2 2 5
2 2 5
2 2 5
2 2 5
2 2 5
2 2 5
2 2 5
2 2 5
2 2 5
2 2 5
2 2 5
2 2 5
2 2 5
2 2 5
2 2 5
2 2 5
2 2 5
2 2 5
2 2 5
2 2 5
2 2 5
2 2 5
2 2 5
2 2 5
2 2 5
2 2 5
2 2 5
2 2 5
2 2 5
2 2 5
2 2 5
2 2 5
2 2 5
2 2 5
2 2 5
2 2 5
2 2 5
57 40 36
102 54 68
41 27 29
157 93 63
87 69 49
74 46 37
65 43 39
38 25 26
43 29 30
59 35 39
42 28 30
88 56 47
37 24 26
40 26 28
59 41 49
60 46 41
43 29 30
85 54 48
97 63 54
51 36 35
62 48 49
64 39 39
40 26 28
40 26 28
42 28 30
114 68 59
98 95 63
86 86 59
94 106 72
85 85 58
71 71 49
101 93 65
141 138 94
117 106 70
107 115 65
105 115 78
105 97 65
86 82 55
77 77 53
107 122 64
84 84 57
96 88 58
112 102 65
92 92 62
82 82 56
72 72 49
130 107 66
123 103 64
74 74 50
67 67 46
79 79 54
105 93 63
70 70 48
71 71 49
2 2 5
2 2 5
2 2 5
2 2 5
2 2 5
2 2 5
2 2 5
2 2 5
2 2 5
2 2 5
2 2 5
2 2 5
2 2 5
2 2 5
2 2 5
2 2 5
2 2 5
2 2 5
2 2 5
2 2 5
2 2 5
2 2 5
2 2 5
2 2 5
2 2 5
2 2 5
2 2 5
2 2 5
2 2 5
2 2 5
2 2 5
2 2 5
2 2 5
2 2 5
2 2 5
2 2 5
2 2 5
2 2 5
2 2 5
2 2 5
2 2 5
2 2 5
2 2 5
2 2 5
2 2 5
2 2 5
2 2 5
2 2 5
2 2 5
2 2 5
2 2 5
2 2 5
2 2 5
2 2 5
2 2 5
2 2 5
2 2 5
2 2 5
2 2 5
2 2 5
2 2 5
2 2 5
2 2 5
2 2 5
2 2 5
2 2 5
2 2 5
2 2 5
2 2 5
2 2 5
2 2 5
2 2 5
2 2 5
2 2 5
2 2 5
2 2 5
2 2 5
2 2 5
2 2 5
2 2 5
2 2 5
2 2 5
2 2 5
2 2 5
2 2 5
2 2 5
2 2 5
2 2 5
2 2 5
2 2 5
2 2 5
2 2 5
2 2 5
2 2 5
2 2 5
2 2 5
2 2 5
2 2 5
2 2 5
2 2 5
2 2 5
2 2 5
2 2 5
2 2 5
2 2 5
2 2 5
2 2 5
2 2 5
2 2 5
2 2 5
2 2 5
2 2 5
2 2 5
2 2 5
2 2 5
2 2 5
2 2 5
2 2 5
2 2 5
2 2 5
2 2 5
2 2 5
2 2 5
2 2 5
2 2 5
2 2 5
2 2 5
2 2 5
2 2 5
2 2 5
2 2 5
2 2 5
2 2 5
2 2 5
2 2 5
2 2 5
2 2 5
2 2 5
2 2 5
2 2 5
2 2 5
2 2 5
2 2 5
255 255 255
255 255 255
255 255 255
255 255 255
255 255 255
255 255 255
255 255 255
255 255 255
255 255 255
255 255 255
255 255 255
255 255 255
255 255 255
255 255 255
255 255 255
255 255 255
255 255 255
255 255 255
255 255 255
255 255 255
255 255 255
255 255 255
255 255 255
255 255 255
255 255 255
255 255 255
255 255 255
255 255 255
255 255 255
255 255 255
255 255 255
255 255 255
255 255 255
255 255 255
255 255 255
255 255 255
255 255 255
255 255 255
255 255 255
255 255 255
255 255 255
255 255 255
255 255 255
255 255 255
255 255 255
255 255 255
255 255 255
255 255 255
255 255 255
255 255 255
255 255 255
255 255 255
255 255 255
255 255 255
255 255 255
255 255 255
255 255 255
255 255 255
255 255 255
2 2 5
2 2 5
2 2 5
2 2 5
2 2 5
2 2 5
2 2 5
2 2 5
2 2 5
2 2 5
2 2 5
2 2 5
2 2 5
2 2 5
2 2 5
2 2 5
2 2 5
2 2 5
2 2 5
2 2 5
2 2 5
2 2 5
2 2 5
2 2 5
2 2 5
2 2 5
2 2 5
2 2 5
2 2 5
2 2 5
2 2 5
2 2 5
2 2 5
2 2 5
2 2 5
2 2 5
2 2 5
2 2 5
2 2 5
2 2 5
2 2 5
2 2 5
2 2 5
2 2 5
2 2 5
2 2 5
2 2 5
2 2 5
2 2 5
2 2 5
2 2 5
2 2 5
2 2 5
2 2 5
2 2 5
2 2 5
2 2 5
2 2 5
2 2 5
2 2 5
2 2 5
2 2 5
2 2 5
2 2 5
2 2 5
2 2 5
2 2 5
2 2 5
2 2 5
2 2 5
2 2 5
2 2 5
2 2 5
2 2 5
2 2 5
2 2 5
2 2 5
2 2 5
2 2 5
2 2 5
2 2 5
2 2 5
2 2 5
2 2 5
2 2 5
2 2 5
2 2 5
2 2 5
2 2 5
2 2 5
2 2 5
2 2 5
2 2 5
2 2 5
2 2 5
2 2 5
2 2 5
2 2 5
2 2 5
2 2 5
2 2 5
2 2 5
2 2 5
2 2 5
2 2 5
2 2 5
2 2 5
2 2 5
2 2 5
2 2 5
2 2 5
2 2 5
2 2 5
2 2 5
2 2 5
2 2 5
2 2 5
2 2 5
2 2 5
2 2 5
2 2 5
2 2 5
2 2 5
2 2 5
2 2 5
2 2 5
2 2 5
2 2 5
2 2 5
2 2 5
2 2 5
2 2 5
2 2 5
2 2 5
2 2 5
2 2 5
2 2 5
2 2 5
2 2 5
2 2 5
2 2 5
2 2 5
45 30 31
40 27 28
42 28 30
42 28 29
43 29 30
94 71 50
45 30 31
95 50 46
47 34 35
42 28 38
42 28 29
121 69 56
71 37 44
46 31 32
53 32 46
118 91 59
200 140 140
46 31 32
40 27 28
42 28 29
47 31 33
99 66 55
70 40 48
77 50 45
44 29 31
43 29 30
57 39 40
182 80 65
86 86 59
108 126 78
255 255 201
71 71 49
72 72 50
185 255 104
80 80 55
78 78 53
92 92 63
126 125 74
73 73 50
62 62 43
128 165 89
116 104 69
151 118 74
98 90 58
134 106 78
91 88 58
76 76 52
80 80 55
70 70 48
85 85 58
83 83 56
84 84 57
77 77 53
137 141 73
114 131 74
139 130 82
78 78 53
77 77 53
82 82 56
2 2 5
2 2 5
2 2 5
2 2 5
2 2 5
2 2 5
2 2 5
2 2 5
2 2 5
2 2 5
2 2 5
2 2 5
2 2 5
2 2 5
2 2 5
2 2 5
2 2 5
2 2 5
2 2 5
2 2 5
2 2 5
2 2 5
2 2 5
2 2 5
2 2 5
2 2 5
2 2 5
2 2 5
2 2 5
2 2 5
2 2 5
2 2 5
2 2 5
2 2 5
2 2 5
2 2 5
2 2 5
2 2 5
2 2 5
2 2 5
2 2 5
2 2 5
2 2 5
2 2 5
2 2 5
2 2 5
2 2 5
2 2 5
2 2 5
2 2 5
2 2 5
2 2 5
2 2 5
2 2 5
2 2 5
2 2 5
2 2 5
2 2 5
2 2 5
2 2 5
2 2 5
2 2 5
2 2 5
2 2 5
2 2 5
2 2 5
2 2 5
2 2 5
2 2 5
2 2 5
2 2 5
2 2 5
2 2 5
2 2 5
2 2 5
2 2 5
2 2 5
2 2 5
2 2 5
2 2 5
2 2 5
2 2 5
2 2 5
2 2 5
2 2 5
2 2 5
2 2 5
2 2 5
2 2 5
2 2 5
2 2 5
2 2 5
2 2 5
2 2 5
2 2 5
2 2 5
2 2 5
2 2 5
2 2 5
2 2 5
2 2 5
2 2 5
2 2 5
2 2 5
2 2 5
2 2 5
2 2 5
2 2 5
2 2 5
2 2 5
2 2 5
2 2 5
2 2 5
2 2 5
2 2 5
2 2 5
2 2 5
2 2 5
2 2 5
2 2 5
2 2 5
2 2 5
2 2 5
2 2 5
2 2 5
2 2 5
2 2 5
2 2 5
2 2 5
2 2 5
2 2 5
2 2 5
2 2 5
2 2 5
2 2 5
2 2 5
2 2 5
2 2 5
2 2 5
2 2 5
255 255 255
255 255 255
255 255 255
255 255 255
255 255 255
255 255 255
255 255 255
255 255 255
255 255 255
255 255 255
255 255 255
255 255 255
255 255 255
255 255 255
255 255 255
255 255 255
255 255 255
255 255 255
255 255 255
255 255 255
255 255 255
255 255 255
255 255 255
255 255 255
255 255 255
255 255 255
255 255 255
255 255 255
255 255 255
255 255 255
255 255 255
255 255 255
255 255 255
255 255 255
255 255 255
255 255 255
255 255 255
255 255 255
255 255 255
255 255 255
255 255 255
255 255 255
255 255 255
255 255 255
255 255 255
255 255 255
255 255 255
255 255 255
255 255 255
255 255 255
255 255 255
255 255 255
255 255 255
255 255 255
255 255 255
255 255 255
255 255 255
255 255 255
2 2 5
2 2 5
2 2 5
2 2 5
2 2 5
2 2 5
2 2 5
2 2 5
2 2 5
2 2 5
2 2 5
2 2 5
2 2 5
2 2 5
2 2 5
2 2 5
2 2 5
2 2 5
2 2 5
2 2 5
2 2 5
2 2 5
2 2 5
2 2 5
2 2 5
2 2 5
2 2 5
2 2 5
2 2 5
2 2 5
2 2 5
2 2 5
2 2 5
2 2 5
2 2 5
2 2 5
2 2 5
2 2 5
2 2 5
2 2 5
2 2 5
2 2 5
2 2 5
2 2 5
2 2 5
2 2 5
2 2 5
2 2 5
2 2 5
2 2 5
2 2 5
2 2 5
2 2 5
2 2 5
2 2 5
2 2 5
2 2 5
2 2 5
2 2 5
2 2 5
2 2 5
2 2 5
2 2 5
2 2 5
2 2 5
2 2 5
2 2 5
2 2 5
2 2 5
2 2 5
2 2 5
2 2 5
2 2 5
2 2 5
2 2 5
2 2 5
2 2 5
2 2 5
2 2 5
2 2 5
2 2 5
2 2 5
2 2 5
2 2 5
2 2 5
2 2 5
2 2 5
2 2 5
2 2 5
2 2 5
2 2 5
2 2 5
2 2 5
2 2 5
2 2 5
2 2 5
2 2 5
2 2 5
2 2 5
2 2 5
2 2 5
2 2 5
2 2 5
2 2 5
2 2 5
2 2 5
2 2 5
2 2 5
2 2 5
2 2 5
2 2 5
2 2 5
2 2 5
2 2 5
2 2 5
2 2 5
2 2 5
2 2 5
2 2 5
2 2 5
2 2 5
2 2 5
2 2 5
2 2 5
2 2 5
2 2 5
2 2 5
2 2 5
2 2 5
2 2 5
2 2 5
2 2 5
2 2 5
2 2 5
2 2 5
2 2 5
2 2 5
2 2 5
2 2 5
2 2 5
2 2 5
2 2 5
42 28 29
72 55 45
49 33 30
42 28 29
90 63 51
109 86 58
46 33 31
39 26 28
77 48 42
88 48 58
39 26 27
67 57 47
43 29 30
39 26 27
48 32 34
59 46 47
101 75 65
67 59 59
42 28 29
77 62 47
82 48 55
71 47 41
43 29 30
39 26 27
41 27 29
46 31 32
66 42 40
83 46 52
46 30 32
71 71 48
72 72 49
110 98 65
114 98 65
96 104 65
65 65 44
124 125 70
129 116 73
130 156 78
70 70 48
74 74 51
99 92 62
87 87 59
154 111 77
85 85 58
106 114 70
109 123 78
83 88 56
104 104 70
71 71 49
80 80 55
138 107 87
97 91 69
84 84 57
78 78 53
85 85 58
179 140 103
77 77 53
117 162 86
78 85 53
71 71 49
2 2 5
2 2 5
2 2 5
2 2 5
2 2 5
2 2 5
2 2 5
2 2 5
2 2 5
2 2 5
2 2 5
2 2 5
2 2 5
2 2 5
2 2 5
2 2 5
2 2 5
2 2 5
2 2 5
2 2 5
2 2 5
2 2 5
2 2 5
2 2 5
2 2 5
2 2 5
2 2 5
2 2 5
2 2 5
2 2 5
2 2 5
2 2 5
2 2 5
2 2 5
2 2 5
2 2 5
2 2 5
2 2 5
2 2 5
2 2 5
2 2 5
2 2 5
2 2 5
2 2 5
2 2 5
2 2 5
2 2 5
2 2 5
2 2 5
2 2 5
2 2 5
2 2 5
2 2 5
2 2 5
2 2 5
2 2 5
2 2 5
2 2 5
2 2 5
2 2 5
2 2 5
2 2 5
2 2 5
2 2 5
2 2 5
2 2 5
2 2 5
2 2 5
2 2 5
2 2 5
2 2 5
2 2 5
2 2 5
2 2 5
2 2 5
2 2 5
2 2 5
2 2 5
2 2 5
2 2 5
2 2 5
2 2 5
2 2 5
2 2 5
2 2 5
2 2 5
2 2 5
2 2 5
2 2 5
2 2 5
2 2 5
2 2 5
2 2 5
2 2 5
2 2 5
2 2 5
2 2 5
2 2 5
2 2 5
2 2 5
2 2 5
2 2 5
2 2 5
2 2 5
2 2 5
2 2 5
2 2 5
2 2 5
2 2 5
2 2 5
2 2 5
2 2 5
2 2 5
2 2 5
2 2 5
2 2 5
2 2 5
2 2 5
2 2 5
2 2 5
2 2 5
2 2 5
2 2 5
2 2 5
2 2 5
2 2 5
2 2 5
2 2 5
2 2 5
2 2 5
2 2 5
2 2 5
2 2 5
2 2 5
2 2 5
2 2 5
2 2 5
2 2 5
2 2 5
2 2 5
255 255 255
255 255 255
255 255 255
255 255 255
255 255 255
255 255 255
255 255 255
255 255 255
255 255 255
255 255 255
255 255 255
255 255 255
255 255 255
255 255 255
255 255 255
255 255 255
255 255 255
255 255 255
255 255 255
255 255 255
255 255 255
255 255 255
255 255 255
255 255 255
255 255 255
255 255 255
255 255 255
255 255 255
255 255 255
255 255 255
255 255 255
255 255 255
255 255 255
255 255 255
255 255 255
255 255 255
255 255 255
255 255 255
255 255 255
255 255 255
255 255 255
255 255 255
255 255 255
255 255 255
255 255 255
255 255 255
255 255 255
255 255 255
255 255 255
255 255 255
255 255 255
255 255 255
255 255 255
255 255 255
255 255 255
255 255 255
255 255 255
255 255 255
2 2 5
2 2 5
2 2 5
2 2 5
2 2 5
2 2 5
2 2 5
2 2 5
2 2 5
2 2 5
2 2 5
2 2 5
2 2 5
2 2 5
2 2 5
2 2 5
2 2 5
2 2 5
2 2 5
2 2 5
2 2 5
2 2 5
2 2 5
2 2 5
2 2 5
2 2 5
2 2 5
2 2 5
2 2 5
2 2 5
2 2 5
2 2 5
2 2 5
2 2 5
2 2 5
2 2 5
2 2 5
2 2 5
2 2 5
2 2 5
2 2 5
2 2 5
2 2 5
2 2 5
2 2 5
2 2 5
2 2 5
2 2 5
2 2 5
2 2 5
2 2 5
2 2 5
2 2 5
2 2 5
2 2 5
2 2 5
2 2 5
2 2 5
2 2 5
2 2 5
2 2 5
2 2 5
2 2 5
2 2 5
2 2 5
2 2 5
2 2 5
2 2 5
2 2 5
2 2 5
2 2 5
2 2 5
2 2 5
2 2 5
2 2 5
2 2 5
2 2 5
2 2 5
2 2 5
2 2 5
2 2 5
2 2 5
2 2 5
2 2 5
2 2 5
2 2 5
2 2 5
2 2 5
2 2 5
2 2 5
2 2 5
2 2 5
2 2 5
2 2 5
2 2 5
2 2 5
2 2 5
2 2 5
2 2 5
2 2 5
2 2 5
2 2 5
2 2 5
2 2 5
2 2 5
2 2 5
2 2 5
2 2 5
2 2 5
2 2 5
2 2 5
2 2 5
2 2 5
2 2 5
2 2 5
2 2 5
2 2 5
2 2 5
2 2 5
2 2 5
2 2 5
2 2 5
2 2 5
2 2 5
2 2 5
2 2 5
2 2 5
2 2 5
2 2 5
2 2 5
2 2 5
2 2 5
2 2 5
2 2 5
2 2 5
2 2 5
2 2 5
2 2 5
2 2 5
90 56 64
105 63 51
38 25 27
39 26 28
40 26 28
135 68 82
43 29 30
54 40 37
40 27 28
40 26 28
44 29 31
45 30 31
71 40 49
63 38 44
78 58 56
45 30 31
41 27 29
114 55 66
73 48 42
40 27 28
46 31 32
114 54 65
46 31 32
43 29 30
44 29 30
46 30 32
76 59 45
45 30 31
174 112 154
44 29 31
41 27 29
41 27 29
76 76 52
79 79 54
86 79 53
83 83 57
81 78 52
143 163 88
74 74 51
80 80 55
96 102 68
101 106 70
100 102 66
114 101 68
76 76 52
127 119 92
121 111 74
75 75 51
82 82 56
87 94 64
84 84 58
73 73 50
109 98 66
82 90 54
74 74 51
255 196 130
72 72 49
84 84 58
82 82 56
120 100 67
82 82 56
77 77 52
77 81 52
88 88 60
96 108 72
2 2 5
2 2 5
2 2 5
2 2 5
2 2 5
2 2 5
2 2 5
2 2 5
2 2 5
2 2 5
2 2 5
2 2 5
2 2 5
2 2 5
2 2 5
2 2 5
2 2 5
2 2 5
2 2 5
2 2 5
2 2 5
2 2 5
2 2 5
2 2 5
2 2 5
2 2 5
2 2 5
2 2 5
2 2 5
2 2 5
2 2 5
2 2 5
2 2 5
2 2 5
2 2 5
2 2 5
2 2 5
2 2 5
2 2 5
2 2 5
2 2 5
2 2 5
2 2 5
2 2 5
2 2 5
2 2 5
2 2 5
2 2 5
2 2 5
2 2 5
2 2 5
2 2 5
2 2 5
2 2 5
2 2 5
2 2 5
2 2 5
2 2 5
2 2 5
2 2 5
2 2 5
2 2 5
2 2 5
2 2 5
2 2 5
2 2 5
2 2 5
2 2 5
2 2 5
2 2 5
2 2 5
2 2 5
2 2 5
2 2 5
2 2 5
2 2 5
2 2 5
2 2 5
2 2 5
2 2 5
2 2 5
2 2 5
2 2 5
2 2 5
2 2 5
2 2 5
2 2 5
2 2 5
2 2 5
2 2 5
2 2 5
2 2 5
2 2 5
2 2 5
2 2 5
2 2 5
2 2 5
2 2 5
2 2 5
2 2 5
2 2 5
2 2 5
2 2 5
2 2 5
2 2 5
2 2 5
2 2 5
2 2 5
2 2 5
2 2 5
2 2 5
2 2 5
2 2 5
2 2 5
2 2 5
2 2 5
2 2 5
2 2 5
2 2 5
2 2 5
2 2 5
2 2 5
2 2 5
2 2 5
2 2 5
2 2 5
2 2 5
2 2 5
2 2 5
2 2 5
2 2 5
2 2 5
2 2 5
2 2 5
2 2 5
2 2 5
2 2 5
2 2 5
255 255 255
255 255 255
255 255 255
255 255 255
255 255 255
255 255 255
255 255 255
255 255 255
255 255 255
255 255 255
255 255 255
255 255 255
255 255 255
255 255 255
255 255 255
255 255 255
255 255 255
255 255 255
255 255 255
255 255 255
255 255 255
255 255 255
255 255 255
255 255 255
255 255 255
255 255 255
255 255 255
255 255 255
255 255 255
255 255 255
255 255 255
255 255 255
255 255 255
255 255 255
255 255 255
255 255 255
255 255 255
255 255 255
255 255 255
255 255 255
255 255 255
255 255 255
255 255 255
255 255 255
255 255 255
255 255 255
255 255 255
255 255 255
255 255 255
255 255 255
255 255 255
255 255 255
255 255 255
255 255 255
255 255 255
255 255 255
255 255 255
2 2 5
2 2 5
2 2 5
2 2 5
2 2 5
2 2 5
2 2 5
2 2 5
2 2 5
2 2 5
2 2 5
2 2 5
2 2 5
2 2 5
2 2 5
2 2 5
2 2 5
2 2 5
2 2 5
2 2 5
2 2 5
2 2 5
2 2 5
2 2 5
2 2 5
2 2 5
2 2 5
2 2 5
2 2 5
2 2 5
2 2 5
2 2 5
2 2 5
2 2 5
2 2 5
2 2 5
2 2 5
2 2 5
2 2 5
2 2 5
2 2 5
2 2 5
2 2 5
2 2 5
2 2 5
2 2 5
2 2 5
2 2 5
2 2 5
2 2 5
2 2 5
2 2 5
2 2 5
2 2 5
2 2 5
2 2 5
2 2 5
2 2 5
2 2 5
2 2 5
2 2 5
2 2 5
2 2 5
2 2 5
2 2 5
2 2 5
2 2 5
2 2 5
2 2 5
2 2 5
2 2 5
2 2 5
2 2 5
2 2 5
2 2 5
2 2 5
2 2 5
2 2 5
2 2 5
2 2 5
2 2 5
2 2 5
2 2 5
2 2 5
2 2 5
2 2 5
2 2 5
2 2 5
2 2 5
2 2 5
2 2 5
2 2 5
2 2 5
2 2 5
2 2 5
2 2 5
2 2 5
2 2 5
2 2 5
2 2 5
2 2 5
2 2 5
2 2 5
2 2 5
2 2 5
2 2 5
2 2 5
2 2 5
2 2 5
2 2 5
2 2 5
2 2 5
2 2 5
2 2 5
2 2 5
2 2 5
2 2 5
2 2 5
2 2 5
2 2 5
2 2 5
2 2 5
2 2 5
2 2 5
2 2 5
2 2 5
2 2 5
2 2 5
2 2 5
2 2 5
2 2 5
2 2 5
2 2 5
2 2 5
2 2 5
2 2 5
2 2 5
2 2 5
2 2 5
41 27 28
104 73 62
46 31 32
40 27 28
86 79 58
46 31 32
40 27 28
38 25 27
40 27 28
45 30 31
69 52 39
40 26 28
69 39 41
46 30 32
47 31 33
43 29 30
43 29 30
67 39 45
45 30 31
49 35 47
73 64 60
82 68 50
255 102 102
43 29 30
179 117 119
52 35 36
82 44 47
40 27 28
106 70 57
43 28 30
45 30 31
43 29 30
45 30 31
78 78 54
98 107 66
105 90 60
84 84 57
83 83 56
68 68 47
81 81 56
87 79 59
91 91 62
255 255 178
86 83 55
101 111 68
78 78 53
73 73 50
127 132 71
76 76 52
72 72 50
74 74 50
137 120 93
100 106 70
77 77 52
86 82 55
110 97 66
93 95 63
119 119 73
87 93 59
65 65 45
102 103 70
95 96 85
73 73 50
74 74 51
75 75 51
72 77 53
85 85 58
85 85 58
2 2 5
2 2 5
2 2 5
2 2 5
2 2 5
2 2 5
2 2 5
2 2 5
2 2 5
2 2 5
2 2 5
2 2 5
2 2 5
2 2 5
2 2 5
2 2 5
2 2 5
2 2 5
2 2 5
2 2 5
2 2 5
2 2 5
2 2 5
2 2 5
2 2 5
2 2 5
2 2 5
2 2 5
2 2 5
2 2 5
2 2 5
2 2 5
2 2 5
2 2 5
2 2 5
2 2 5
2 2 5
2 2 5
2 2 5
2 2 5
2 2 5
2 2 5
2 2 5
2 2 5
2 2 5
2 2 5
2 2 5
2 2 5
2 2 5
2 2 5
2 2 5
2 2 5
2 2 5
2 2 5
2 2 5
2 2 5
2 2 5
2 2 5
2 2 5
2 2 5
2 2 5
2 2 5
2 2 5
2 2 5
2 2 5
2 2 5
2 2 5
2 2 5
2 2 5
2 2 5
2 2 5
2 2 5
2 2 5
2 2 5
2 2 5
2 2 5
2 2 5
2 2 5
2 2 5
2 2 5
2 2 5
2 2 5
2 2 5
2 2 5
2 2 5
2 2 5
2 2 5
2 2 5
2 2 5
2 2 5
2 2 5
2 2 5
2 2 5
2 2 5
2 2 5
2 2 5
2 2 5
2 2 5
2 2 5
2 2 5
2 2 5
2 2 5
2 2 5
2 2 5
2 2 5
2 2 5
2 2 5
2 2 5
2 2 5
2 2 5
2 2 5
2 2 5
2 2 5
2 2 5
2 2 5
2 2 5
2 2 5
2 2 5
2 2 5
2 2 5
2 2 5
2 2 5
2 2 5
2 2 5
2 2 5
2 2 5
2 2 5
2 2 5
2 2 5
2 2 5
2 2 5
2 2 5
2 2 5
2 2 5
2 2 5
2 2 5
2 2 5
255 255 255
255 255 255
255 255 255
255 255 255
255 255 255
255 255 255
255 255 255
255 255 255
255 255 255
255 255 255
255 255 255
255 255 255
255 255 255
255 255 255
255 255 255
255 255 255
255 255 255
255 255 255
255 255 255
255 255 255
255 255 255
255 255 255
255 255 255
255 255 255
255 255 255
255 255 255
255 255 255
255 255 255
255 255 255
255 255 255
255 255 255
255 255 255
255 255 255
255 255 255
255 255 255
255 255 255
255 255 255
255 255 255
255 255 255
255 255 255
255 255 255
255 255 255
255 255 255
255 255 255
255 255 255
255 255 255
255 255 255
255 255 255
255 255 255
255 255 255
255 255 255
255 255 255
255 255 255
255 255 255
255 255 255
255 255 255
255 255 255
2 2 5
2 2 5
2 2 5
2 2 5
2 2 5
2 2 5
2 2 5
2 2 5
2 2 5
2 2 5
2 2 5
2 2 5
2 2 5
2 2 5
2 2 5
2 2 5
2 2 5
2 2 5
2 2 5
2 2 5
2 2 5
2 2 5
2 2 5
2 2 5
2 2 5
2 2 5
2 2 5
2 2 5
2 2 5
2 2 5
2 2 5
2 2 5
2 2 5
2 2 5
2 2 5
2 2 5
2 2 5
2 2 5
2 2 5
2 2 5
2 2 5
2 2 5
2 2 5
2 2 5
2 2 5
2 2 5
2 2 5
2 2 5
2 2 5
2 2 5
2 2 5
2 2 5
2 2 5
2 2 5
2 2 5
2 2 5
2 2 5
2 2 5
2 2 5
2 2 5
2 2 5
2 2 5
2 2 5
2 2 5
2 2 5
2 2 5
2 2 5
2 2 5
2 2 5
2 2 5
2 2 5
2 2 5
2 2 5
2 2 5
2 2 5
2 2 5
2 2 5
2 2 5
2 2 5
2 2 5
2 2 5
2 2 5
2 2 5
2 2 5
2 2 5
2 2 5
2 2 5
2 2 5
2 2 5
2 2 5
2 2 5
2 2 5
2 2 5
2 2 5
2 2 5
2 2 5
2 2 5
2 2 5
2 2 5
2 2 5
2 2 5
2 2 5
2 2 5
2 2 5
2 2 5
2 2 5
2 2 5
2 2 5
2 2 5
2 2 5
2 2 5
2 2 5
2 2 5
2 2 5
2 2 5
2 2 5
2 2 5
2 2 5
2 2 5
2 2 5
2 2 5
2 2 5
2 2 5
2 2 5
2 2 5
2 2 5
2 2 5
2 2 5
2 2 5
2 2 5
2 2 5
2 2 5
2 2 5
2 2 5
2 2 5
2 2 5
94 71 48
90 53 65
46 30 32
43 28 30
42 28 29
71 57 109
53 34 37
40 27 28
39 26 27
200 135 81
40 26 28
66 39 39
121 75 58
114 76 61
53 35 35
102 68 49
103 48 49
39 26 27
55 41 42
45 30 31
42 28 31
74 41 46
40 26 28
78 52 52
47 31 33
93 45 51
41 27 29
45 30 31
68 48 41
52 34 32
41 27 29
42 28 30
42 28 30
69 60 50
132 78 57
109 116 78
114 125 75
124 112 84
114 125 76
102 111 66
76 76 52
78 78 54
163 107 85
107 118 72
83 83 57
141 111 82
77 77 52
144 112 73
86 86 59
88 88 60
85 85 58
68 68 47
89 89 61
110 103 66
80 80 55
71 71 49
86 86 59
75 75 51
110 114 73
127 139 98
127 158 92
102 94 64
88 98 67
80 80 53
89 81 55
80 88 54
106 120 131
75 75 51
129 136 75
78 78 53
2 2 5
2 2 5
2 2 5
2 2 5
2 2 5
2 2 5
2 2 5
2 2 5
2 2 5
2 2 5
2 2 5
2 2 5
2 2 5
2 2 5
2 2 5
2 2 5
2 2 5
2 2 5
2 2 5
2 2 5
2 2 5
2 2 5
2 2 5
2 2 5
2 2 5
2 2 5
2 2 5
2 2 5
2 2 5
2 2 5
2 2 5
2 2 5
2 2 5
2 2 5
2 2 5
2 2 5
2 2 5
2 2 5
2 2 5
2 2 5
2 2 5
2 2 5
2 2 5
2 2 5
2 2 5
2 2 5
2 2 5
2 2 5
2 2 5
2 2 5
2 2 5
2 2 5
2 2 5
2 2 5
2 2 5
2 2 5
2 2 5
2 2 5
2 2 5
2 2 5
2 2 5
2 2 5
2 2 5
2 2 5
2 2 5
2 2 5
2 2 5
2 2 5
2 2 5
2 2 5
2 2 5
2 2 5
2 2 5
2 2 5
2 2 5
2 2 5
2 2 5
2 2 5
2 2 5
2 2 5
2 2 5
2 2 5
2 2 5
2 2 5
2 2 5
2 2 5
2 2 5
2 2 5
2 2 5
2 2 5
2 2 5
2 2 5
2 2 5
2 2 5
2 2 5
2 2 5
2 2 5
2 2 5
2 2 5
2 2 5
2 2 5
2 2 5
2 2 5
2 2 5
2 2 5
2 2 5
2 2 5
2 2 5
2 2 5
2 2 5
2 2 5
2 2 5
2 2 5
2 2 5
2 2 5
2 2 5
2 2 5
2 2 5
2 2 5
2 2 5
2 2 5
2 2 5
2 2 5
2 2 5
2 2 5
2 2 5
2 2 5
2 2 5
2 2 5
2 2 5
2 2 5
2 2 5
2 2 5
2 2 5
2 2 5
2 2 5
2 2 5
255 255 255
255 255 255
255 255 255
255 255 255
255 255 255
255 255 255
255 255 255
255 255 255
255 255 255
255 255 255
255 255 255
255 255 255
255 255 255
255 255 255
255 255 255
255 255 255
255 255 255
255 255 255
255 255 255
255 255 255
255 255 255
255 255 255
255 255 255
255 255 255
255 255 255
255 255 255
255 255 255
255 255 255
255 255 255
255 255 255
255 255 255
255 255 255
255 255 255
255 255 255
255 255 255
255 255 255
255 255 255
255 255 255
255 255 255
255 255 255
255 255 255
255 255 255
255 255 255
255 255 255
255 255 255
255 255 255
255 255 255
255 255 255
255 255 255
255 255 255
255 255 255
255 255 255
255 255 255
255 255 255
255 255 255
255 255 255
2 2 5
2 2 5
2 2 5
2 2 5
2 2 5
2 2 5
2 2 5
2 2 5
2 2 5
2 2 5
2 2 5
2 2 5
2 2 5
2 2 5
2 2 5
2 2 5
2 2 5
2 2 5
2 2 5
2 2 5
2 2 5
2 2 5
2 2 5
2 2 5
2 2 5
2 2 5
2 2 5
2 2 5
2 2 5
2 2 5
2 2 5
2 2 5
2 2 5
2 2 5
2 2 5
2 2 5
2 2 5
2 2 5
2 2 5
2 2 5
2 2 5
2 2 5
2 2 5
2 2 5
2 2 5
2 2 5
2 2 5
2 2 5
2 2 5
2 2 5
2 2 5
2 2 5
2 2 5
2 2 5
2 2 5
2 2 5
2 2 5
2 2 5
2 2 5
2 2 5
2 2 5
2 2 5
2 2 5
2 2 5
2 2 5
2 2 5
2 2 5
2 2 5
2 2 5
2 2 5
2 2 5
2 2 5
2 2 5
2 2 5
2 2 5
2 2 5
2 2 5
2 2 5
2 2 5
2 2 5
2 2 5
2 2 5
2 2 5
2 2 5
2 2 5
2 2 5
2 2 5
2 2 5
2 2 5
2 2 5
2 2 5
2 2 5
2 2 5
2 2 5
2 2 5
2 2 5
2 2 5
2 2 5
2 2 5
2 2 5
2 2 5
2 2 5
2 2 5
2 2 5
2 2 5
2 2 5
2 2 5
2 2 5
2 2 5
2 2 5
2 2 5
2 2 5
2 2 5
2 2 5
2 2 5
2 2 5
2 2 5
2 2 5
2 2 5
2 2 5
2 2 5
2 2 5
2 2 5
2 2 5
2 2 5
2 2 5
2 2 5
2 2 5
2 2 5
2 2 5
2 2 5
2 2 5
2 2 5
2 2 5
2 2 5
2 2 5
80 53 44
45 30 31
44 29 31
59 46 40
64 47 43
158 146 105
42 28 30
43 28 30
39 26 27
42 28 29
86 69 43
45 30 31
42 28 29
61 47 42
71 52 48
53 33 32
43 29 30
39 26 28
90 60 45
52 31 35
47 31 32
90 50 66
59 45 41
55 37 34
77 55 40
85 50 43
61 36 42
83 79 57
114 63 77
46 30 32
59 46 40
107 56 65
137 93 67
54 36 34
97 84 54
52 40 41
78 78 53
70 70 48
70 70 48
99 89 65
173 145 80
75 75 51
106 120 71
95 102 68
86 86 59
111 100 75
122 149 87
85 85 58
111 122 74
89 95 65
180 141 106
80 80 54
98 88 59
77 77 53
255 255 172
79 79 54
74 74 51
128 110 69
92 100 62
78 78 53
87 93 59
80 80 54
86 86 59
129 107 66
77 77 53
78 78 54
75 75 51
84 84 57
68 68 46
62 62 43
65 65 44
79 79 54
62 62 43
82 82 56
2 2 5
2 2 5
2 2 5
2 2 5
2 2 5
2 2 5
2 2 5
2 2 5
2 2 5
2 2 5
2 2 5
2 2 5
2 2 5
2 2 5
2 2 5
2 2 5
2 2 5
2 2 5
2 2 5
2 2 5
2 2 5
2 2 5
2 2 5
2 2 5
2 2 5
2 2 5
2 2 5
2 2 5
2 2 5
2 2 5
2 2 5
2 2 5
2 2 5
2 2 5
2 2 5
2 2 5
2 2 5
2 2 5
2 2 5
2 2 5
2 2 5
2 2 5
2 2 5
2 2 5
2 2 5
2 2 5
2 2 5
2 2 5
2 2 5
2 2 5
2 2 5
2 2 5
2 2 5
2 2 5
2 2 5
2 2 5
2 2 5
2 2 5
2 2 5
2 2 5
2 2 5
2 2 5
2 2 5
2 2 5
2 2 5
2 2 5
2 2 5
2 2 5
2 2 5
2 2 5
2 2 5
2 2 5
2 2 5
2 2 5
2 2 5
2 2 5
2 2 5
2 2 5
2 2 5
2 2 5
2 2 5
2 2 5
2 2 5
2 2 5
2 2 5
2 2 5
2 2 5
2 2 5
2 2 5
2 2 5
2 2 5
2 2 5
2 2 5
2 2 5
2 2 5
2 2 5
2 2 5
2 2 5
2 2 5
2 2 5
2 2 5
2 2 5
2 2 5
2 2 5
2 2 5
2 2 5
2 2 5
2 2 5
2 2 5
2 2 5
2 2 5
2 2 5
2 2 5
2 2 5
2 2 5
2 2 5
2 2 5
2 2 5
2 2 5
2 2 5
2 2 5
2 2 5
2 2 5
2 2 5
2 2 5
2 2 5
2 2 5
2 2 5
2 2 5
2 2 5
2 2 5
2 2 5
2 2 5
2 2 5
255 255 255
255 255 255
255 255 255
255 255 255
255 255 255
255 255 255
255 255 255
255 255 255
255 255 255
255 255 255
255 255 255
255 255 255
255 255 255
255 255 255
255 255 255
255 255 255
255 255 255
255 255 255
255 255 255
255 255 255
255 255 255
255 255 255
255 255 255
255 255 255
255 255 255
255 255 255
255 255 255
255 255 255
255 255 255
255 255 255
255 255 255
255 255 255
255 255 255
255 255 255
255 255 255
255 255 255
255 255 255
255 255 255
255 255 255
255 255 255
255 255 255
255 255 255
255 255 255
255 255 255
255 255 255
255 255 255
255 255 255
255 255 255
255 255 255
255 255 255
255 255 255
255 255 255
255 255 255
255 255 255
255 255 255
255 255 255
2 2 5
2 2 5
2 2 5
2 2 5
2 2 5
2 2 5
2 2 5
2 2 5
2 2 5
2 2 5
2 2 5
2 2 5
2 2 5
2 2 5
2 2 5
2 2 5
2 2 5
2 2 5
2 2 5
2 2 5
2 2 5
2 2 5
2 2 5
2 2 5
2 2 5
2 2 5
2 2 5
2 2 5
2 2 5
2 2 5
2 2 5
2 2 5
2 2 5
2 2 5
2 2 5
2 2 5
2 2 5
2 2 5
2 2 5
2 2 5
2 2 5
2 2 5
2 2 5
2 2 5
2 2 5
2 2 5
2 2 5
2 2 5
2 2 5
2 2 5
2 2 5
2 2 5
2 2 5
2 2 5
2 2 5
2 2 5
2 2 5
2 2 5
2 2 5
2 2 5
2 2 5
2 2 5
2 2 5
2 2 5
2 2 5
2 2 5
2 2 5
2 2 5
2 2 5
2 2 5
2 2 5
2 2 5
2 2 5
2 2 5
2 2 5
2 2 5
2 2 5
2 2 5
2 2 5
2 2 5
2 2 5
2 2 5
2 2 5
2 2 5
2 2 5
2 2 5
2 2 5
2 2 5
2 2 5
2 2 5
2 2 5
2 2 5
2 2 5
2 2 5
2 2 5
2 2 5
2 2 5
2 2 5
2 2 5
2 2 5
2 2 5
2 2 5
2 2 5
2 2 5
2 2 5
2 2 5
2 2 5
2 2 5
2 2 5
2 2 5
2 2 5
2 2 5
2 2 5
2 2 5
2 2 5
2 2 5
2 2 5
2 2 5
2 2 5
2 2 5
2 2 5
2 2 5
2 2 5
2 2 5
2 2 5
2 2 5
2 2 5
2 2 5
2 2 5
2 2 5
2 2 5
2 2 5
2 2 5
2 2 5
2 2 5
93 46 53
38 25 27
53 37 37
83 47 36
39 26 28
40 26 28
98 67 60
40 27 28
85 51 60
44 29 31
42 28 29
42 28 29
59 35 40
43 29 30
42 28 29
255 143 135
41 27 29
83 44 56
95 63 83
77 51 39
38 25 27
44 29 31
43 29 30
113 68 54
43 29 30
44 29 31
77 42 52
80 52 52
63 50 43
117 78 57
42 28 28
126 88 55
77 42 49
40 26 28
39 26 28
43 29 30
39 26 27
74 74 51
157 120 87
79 79 54
81 81 55
88 88 60
67 67 46
107 101 68
94 104 63
92 97 62
86 86 58
80 80 55
106 97 65
75 75 51
97 105 65
106 112 68
80 80 55
94 99 63
74 74 51
99 101 65
85 91 57
138 148 80
80 80 55
117 121 81
81 81 55
75 75 51
71 71 49
94 114 70
115 129 86
76 76 52
87 90 59
71 71 49
103 121 63
73 73 50
255 145 115
95 95 65
77 81 50
84 86 55
78 78 53
128 110 77
2 2 5
2 2 5
2 2 5
2 2 5
2 2 5
2 2 5
2 2 5
2 2 5
2 2 5
2 2 5
2 2 5
2 2 5
2 2 5
2 2 5
2 2 5
2 2 5
2 2 5
2 2 5
2 2 5
2 2 5
2 2 5
2 2 5
2 2 5
2 2 5
2 2 5
2 2 5
2 2 5
2 2 5
2 2 5
2 2 5
2 2 5
2 2 5
2 2 5
2 2 5
2 2 5
2 2 5
2 2 5
2 2 5
2 2 5
2 2 5
2 2 5
2 2 5
2 2 5
2 2 5
2 2 5
2 2 5
2 2 5
2 2 5
2 2 5
2 2 5
2 2 5
2 2 5
2 2 5
2 2 5
2 2 5
2 2 5
2 2 5
2 2 5
2 2 5
2 2 5
2 2 5
2 2 5
2 2 5
2 2 5
2 2 5
2 2 5
2 2 5
2 2 5
2 2 5
2 2 5
2 2 5
2 2 5
2 2 5
2 2 5
2 2 5
2 2 5
2 2 5
2 2 5
2 2 5
2 2 5
2 2 5
2 2 5
2 2 5
2 2 5
2 2 5
2 2 5
2 2 5
2 2 5
2 2 5
2 2 5
2 2 5
2 2 5
2 2 5
2 2 5
2 2 5
2 2 5
2 2 5
2 2 5
2 2 5
2 2 5
2 2 5
2 2 5
2 2 5
2 2 5
2 2 5
2 2 5
2 2 5
2 2 5
2 2 5
2 2 5
2 2 5
2 2 5
2 2 5
2 2 5
2 2 5
2 2 5
2 2 5
2 2 5
2 2 5
2 2 5
2 2 5
2 2 5
2 2 5
2 2 5
2 2 5
2 2 5
2 2 5
2 2 5
2 2 5
2 2 5
2 2 5
2 2 5
2 2 5
255 255 255
255 255 255
255 255 255
255 255 255
255 255 255
255 255 255
255 255 255
255 255 255
255 255 255
255 255 255
255 255 255
255 255 255
255 255 255
255 255 255
255 255 255
255 255 255
255 255 255
255 255 255
255 255 255
255 255 255
255 255 255
255 255 255
255 255 255
255 255 255
255 255 255
255 255 255
255 255 255
255 255 255
255 255 255
255 255 255
255 255 255
255 255 255
255 255 255
255 255 255
255 255 255
255 255 255
255 255 255
255 255 255
255 255 255
255 255 255
255 255 255
255 255 255
255 255 255
255 255 255
255 255 255
255 255 255
255 255 255
255 255 255
255 255 255
255 255 255
255 255 255
255 255 255
255 255 255
255 255 255
255 255 255
2 2 5
2 2 5
2 2 5
2 2 5
2 2 5
2 2 5
2 2 5
2 2 5
2 2 5
2 2 5
2 2 5
2 2 5
2 2 5
2 2 5
2 2 5
2 2 5
2 2 5
2 2 5
2 2 5
2 2 5
2 2 5
2 2 5
2 2 5
2 2 5
2 2 5
2 2 5
2 2 5
2 2 5
2 2 5
2 2 5
2 2 5
2 2 5
2 2 5
2 2 5
2 2 5
2 2 5
2 2 5
2 2 5
2 2 5
2 2 5
2 2 5
2 2 5
2 2 5
2 2 5
2 2 5
2 2 5
2 2 5
2 2 5
2 2 5
2 2 5
2 2 5
2 2 5
2 2 5
2 2 5
2 2 5
2 2 5
2 2 5
2 2 5
2 2 5
2 2 5
2 2 5
2 2 5
2 2 5
2 2 5
2 2 5
2 2 5
2 2 5
2 2 5
2 2 5
2 2 5
2 2 5
2 2 5
2 2 5
2 2 5
2 2 5
2 2 5
2 2 5
2 2 5
2 2 5
2 2 5
2 2 5
2 2 5
2 2 5
2 2 5
2 2 5
2 2 5
2 2 5
2 2 5
2 2 5
2 2 5
2 2 5
2 2 5
2 2 5
2 2 5
2 2 5
2 2 5
2 2 5
2 2 5
2 2 5
2 2 5
2 2 5
2 2 5
2 2 5
2 2 5
2 2 5
2 2 5
2 2 5
2 2 5
2 2 5
2 2 5
2 2 5
2 2 5
2 2 5
2 2 5
2 2 5
2 2 5
2 2 5
2 2 5
2 2 5
2 2 5
2 2 5
2 2 5
2 2 5
2 2 5
2 2 5
2 2 5
2 2 5
2 2 5
2 2 5
2 2 5
2 2 5
2 2 5
2 2 5
2 2 5
61 48 41
49 37 39
96 59 69
79 59 44
65 48 38
55 45 40
41 27 29
137 77 62
41 28 35
47 31 33
40 27 28
41 27 29
62 41 37
39 26 27
36 24 25
45 30 31
39 26 28
44 29 31
42 28 29
255 143 125
41 27 29
45 30 31
41 27 28
73 45 43
39 26 27
255 181 129
102 54 62
110 70 57
61 38 40
44 29 30
39 26 27
71 40 49
40 26 28
45 30 31
92 64 59
107 75 60
44 29 31
67 52 45
145 77 67
93 88 66
68 68 47
145 137 78
78 78 53
99 89 60
132 144 84
105 96 61
75 75 51
141 127 90
255 226 150
85 85 58
255 255 179
111 104 65
79 84 53
87 94 59
72 72 49
142 124 92
121 116 81
89 80 54
122 101 69
85 83 55
86 86 59
101 91 62
86 86 58
93 102 69
106 124 66
78 78 53
69 69 47
64 64 44
76 75 79
123 119 70
62 62 43
223 231 118
80 80 54
95 105 64
78 78 53
113 90 65
94 91 54
85 85 58
86 102 58
180 147 89
2 2 5
2 2 5
2 2 5
2 2 5
2 2 5
2 2 5
2 2 5
2 2 5
2 2 5
2 2 5
2 2 5
2 2 5
2 2 5
2 2 5
2 2 5
2 2 5
2 2 5
2 2 5
2 2 5
2 2 5
2 2 5
2 2 5
2 2 5
2 2 5
2 2 5
2 2 5
2 2 5
2 2 5
2 2 5
2 2 5
2 2 5
2 2 5
2 2 5
2 2 5
2 2 5
2 2 5
2 2 5
2 2 5
2 2 5
2 2 5
2 2 5
2 2 5
2 2 5
2 2 5
2 2 5
2 2 5
2 2 5
2 2 5
2 2 5
2 2 5
2 2 5
2 2 5
2 2 5
2 2 5
2 2 5
2 2 5
2 2 5
2 2 5
2 2 5
2 2 5
2 2 5
2 2 5
2 2 5
2 2 5
2 2 5
2 2 5
2 2 5
2 2 5
2 2 5
2 2 5
2 2 5
2 2 5
2 2 5
2 2 5
2 2 5
2 2 5
2 2 5
2 2 5
2 2 5
2 2 5
2 2 5
2 2 5
2 2 5
2 2 5
2 2 5
2 2 5
2 2 5
2 2 5
2 2 5
2 2 5
2 2 5
2 2 5
2 2 5
2 2 5
2 2 5
2 2 5
2 2 5
2 2 5
2 2 5
2 2 5
2 2 5
2 2 5
2 2 5
2 2 5
2 2 5
2 2 5
2 2 5
2 2 5
2 2 5
2 2 5
2 2 5
2 2 5
2 2 5
2 2 5
2 2 5
2 2 5
2 2 5
2 2 5
2 2 5
2 2 5
2 2 5
2 2 5
2 2 5
2 2 5
2 2 5
2 2 5
2 2 5
2 2 5
2 2 5
2 2 5
2 2 5
2 2 5
255 255 255
255 255 255
255 255 255
255 255 255
255 255 255
255 255 255
255 255 255
255 255 255
255 255 255
255 255 255
255 255 255
255 255 255
255 255 255
255 255 255
255 255 255
255 255 255
255 255 255
255 255 255
255 255 255
255 255 255
255 255 255
255 255 255
255 255 255
255 255 255
255 255 255
255 255 255
255 255 255
255 255 255
255 255 255
255 255 255
255 255 255
255 255 255
255 255 255
255 255 255
255 255 255
255 255 255
255 255 255
255 255 255
255 255 255
255 255 255
255 255 255
255 255 255
255 255 255
255 255 255
255 255 255
255 255 255
255 255 255
255 255 255
255 255 255
255 255 255
255 255 255
255 255 255
255 255 255
255 255 255
2 2 5
2 2 5
2 2 5
2 2 5
2 2 5
2 2 5
2 2 5
2 2 5
2 2 5
2 2 5
2 2 5
2 2 5
2 2 5
2 2 5
2 2 5
2 2 5
2 2 5
2 2 5
2 2 5
2 2 5
2 2 5
2 2 5
2 2 5
2 2 5
2 2 5
2 2 5
2 2 5
2 2 5
2 2 5
2 2 5
2 2 5
2 2 5
2 2 5
2 2 5
2 2 5
2 2 5
2 2 5
2 2 5
2 2 5
2 2 5
2 2 5
2 2 5
2 2 5
2 2 5
2 2 5
2 2 5
2 2 5
2 2 5
2 2 5
2 2 5
2 2 5
2 2 5
2 2 5
2 2 5
2 2 5
2 2 5
2 2 5
2 2 5
2 2 5
2 2 5
2 2 5
2 2 5
2 2 5
2 2 5
2 2 5
2 2 5
2 2 5
2 2 5
2 2 5
2 2 5
2 2 5
2 2 5
2 2 5
2 2 5
2 2 5
2 2 5
2 2 5
2 2 5
2 2 5
2 2 5
2 2 5
2 2 5
2 2 5
2 2 5
2 2 5
2 2 5
2 2 5
2 2 5
2 2 5
2 2 5
2 2 5
2 2 5
2 2 5
2 2 5
2 2 5
2 2 5
2 2 5
2 2 5
2 2 5
2 2 5
2 2 5
2 2 5
2 2 5
2 2 5
2 2 5
2 2 5
2 2 5
2 2 5
2 2 5
2 2 5
2 2 5
2 2 5
2 2 5
2 2 5
2 2 5
2 2 5
2 2 5
2 2 5
2 2 5
2 2 5
2 2 5
2 2 5
2 2 5
2 2 5
2 2 5
2 2 5
2 2 5
2 2 5
2 2 5
2 2 5
2 2 5
2 2 5
41 27 29
41 27 29
73 44 43
41 27 29
43 28 30
87 47 56
50 33 35
92 45 55
42 28 30
53 33 39
53 40 41
61 36 42
44 29 31
194 67 79
61 49 42
43 29 30
43 29 30
42 28 29
62 48 54
90 54 65
51 34 34
41 27 29
57 40 38
85 53 44
40 27 28
43 28 30
98 73 52
68 38 47
83 51 45
66 44 39
42 28 30
44 29 31
47 31 33
97 61 52
41 27 28
134 74 65
43 28 30
39 26 27
82 82 75
65 42 43
78 39 45
99 140 73
72 72 49
106 118 80
97 106 69
99 94 60
110 129 78
73 73 50
77 77 52
90 101 67
76 76 52
71 71 48
88 88 60
60 60 42
83 83 57
77 77 53
91 98 61
111 102 75
72 72 50
80 80 55
86 86 59
128 165 97
80 80 55
80 80 55
78 78 53
131 122 89
101 87 62
255 217 147
116 104 69
67 67 46
107 94 61
94 89 57
104 95 64
67 67 46
78 78 53
81 81 56
111 99 63
79 79 54
66 66 45
119 113 76
61 61 42
71 71 48
66 66 45
61 61 42
2 2 5
2 2 5
2 2 5
2 2 5
2 2 5
2 2 5
2 2 5
2 2 5
2 2 5
2 2 5
2 2 5
2 2 5
2 2 5
2 2 5
2 2 5
2 2 5
2 2 5
2 2 5
2 2 5
2 2 5
2 2 5
2 2 5
2 2 5
2 2 5
2 2 5
2 2 5
2 2 5
2 2 5
2 2 5
2 2 5
2 2 5
2 2 5
2 2 5
2 2 5
2 2 5
2 2 5
2 2 5
2 2 5
2 2 5
2 2 5
2 2 5
2 2 5
2 2 5
2 2 5
2 2 5
2 2 5
2 2 5
2 2 5
2 2 5
2 2 5
2 2 5
2 2 5
2 2 5
2 2 5
2 2 5
2 2 5
2 2 5
2 2 5
2 2 5
2 2 5
2 2 5
2 2 5
2 2 5
2 2 5
2 2 5
2 2 5
2 2 5
2 2 5
2 2 5
2 2 5
2 2 5
2 2 5
2 2 5
2 2 5
2 2 5
2 2 5
2 2 5
2 2 5
2 2 5
2 2 5
2 2 5
2 2 5
2 2 5
2 2 5
2 2 5
2 2 5
2 2 5
2 2 5
2 2 5
2 2 5
2 2 5
2 2 5
2 2 5
2 2 5
2 2 5
2 2 5
2 2 5
2 2 5
2 2 5
2 2 5
2 2 5
2 2 5
2 2 5
2 2 5
2 2 5
2 2 5
2 2 5
2 2 5
2 2 5
2 2 5
2 2 5
2 2 5
2 2 5
2 2 5
2 2 5
2 2 5
2 2 5
2 2 5
2 2 5
2 2 5
2 2 5
2 2 5
2 2 5
2 2 5
2 2 5
2 2 5
2 2 5
2 2 5
2 2 5
2 2 5
255 255 255
255 255 255
255 255 255
255 255 255
255 255 255
255 255 255
255 255 255
255 255 255
255 255 255
255 255 255
255 255 255
255 255 255
255 255 255
255 255 255
255 255 255
255 255 255
255 255 255
255 255 255
255 255 255
255 255 255
255 255 255
255 255 255
255 255 255
255 255 255
255 255 255
255 255 255
255 255 255
255 255 255
255 255 255
255 255 255
255 255 255
255 255 255
255 255 255
255 255 255
255 255 255
255 255 255
255 255 255
255 255 255
255 255 255
255 255 255
255 255 255
255 255 255
255 255 255
255 255 255
255 255 255
255 255 255
255 255 255
255 255 255
255 255 255
255 255 255
255 255 255
255 255 255
255 255 255
255 255 255
2 2 5
2 2 5
2 2 5
2 2 5
2 2 5
2 2 5
2 2 5
2 2 5
2 2 5
2 2 5
2 2 5
2 2 5
2 2 5
2 2 5
2 2 5
2 2 5
2 2 5
2 2 5
2 2 5
2 2 5
2 2 5
2 2 5
2 2 5
2 2 5
2 2 5
2 2 5
2 2 5
2 2 5
2 2 5
2 2 5
2 2 5
2 2 5
2 2 5
2 2 5
2 2 5
2 2 5
2 2 5
2 2 5
2 2 5
2 2 5
2 2 5
2 2 5
2 2 5
2 2 5
2 2 5
2 2 5
2 2 5
2 2 5
2 2 5
2 2 5
2 2 5
2 2 5
2 2 5
2 2 5
2 2 5
2 2 5
2 2 5
2 2 5
2 2 5
2 2 5
2 2 5
2 2 5
2 2 5
2 2 5
2 2 5
2 2 5
2 2 5
2 2 5
2 2 5
2 2 5
2 2 5
2 2 5
2 2 5
2 2 5
2 2 5
2 2 5
2 2 5
2 2 5
2 2 5
2 2 5
2 2 5
2 2 5
2 2 5
2 2 5
2 2 5
2 2 5
2 2 5
2 2 5
2 2 5
2 2 5
2 2 5
2 2 5
2 2 5
2 2 5
2 2 5
2 2 5
2 2 5
2 2 5
2 2 5
2 2 5
2 2 5
2 2 5
2 2 5
2 2 5
2 2 5
2 2 5
2 2 5
2 2 5
2 2 5
2 2 5
2 2 5
2 2 5
2 2 5
2 2 5
2 2 5
2 2 5
2 2 5
2 2 5
2 2 5
2 2 5
2 2 5
2 2 5
2 2 5
2 2 5
2 2 5
2 2 5
2 2 5
2 2 5
2 2 5
2 2 5
2 2 5
78 52 44
70 45 52
89 55 60
62 38 38
65 40 39
38 25 27
41 27 29
93 83 54
41 27 29
252 168 120
54 38 36
90 64 50
61 42 33
39 26 27
159 63 75
41 27 29
38 25 27
43 29 30
39 26 28
46 30 32
43 28 30
57 45 39
41 27 29
40 26 28
68 45 39
78 43 53
55 36 34
83 59 50
40 26 28
42 28 29
72 41 49
128 89 98
103 73 50
40 26 28
103 46 61
119 61 121
98 62 74
55 42 38
44 29 30
47 31 32
53 39 36
47 31 35
65 65 45
121 181 92
73 73 50
106 106 65
63 63 43
92 99 67
73 73 50
82 82 56
79 79 54
70 70 48
78 78 53
80 80 55
144 119 77
89 89 61
80 80 55
143 109 72
255 222 148
111 125 72
130 145 109
103 113 75
71 71 49
94 103 63
72 72 49
70 70 48
83 83 56
90 90 61
74 74 50
91 91 62
84 84 62
255 255 178
120 105 64
63 63 44
81 81 56
77 74 49
125 100 59
104 95 64
115 128 76
76 76 52
71 71 52
68 68 47
70 70 48
102 109 69
66 66 45
99 109 67
123 118 79
2 2 5
2 2 5
2 2 5
2 2 5
2 2 5
2 2 5
2 2 5
2 2 5
2 2 5
2 2 5
2 2 5
2 2 5
2 2 5
2 2 5
2 2 5
2 2 5
2 2 5
2 2 5
2 2 5
2 2 5
2 2 5
2 2 5
2 2 5
2 2 5
2 2 5
2 2 5
2 2 5
2 2 5
2 2 5
2 2 5
2 2 5
2 2 5
2 2 5
2 2 5
2 2 5
2 2 5
2 2 5
2 2 5
2 2 5
2 2 5
2 2 5
2 2 5
2 2 5
2 2 5
2 2 5
2 2 5
2 2 5
2 2 5
2 2 5
2 2 5
2 2 5
2 2 5
2 2 5
2 2 5
2 2 5
2 2 5
2 2 5
2 2 5
2 2 5
2 2 5
2 2 5
2 2 5
2 2 5
2 2 5
2 2 5
2 2 5
2 2 5
2 2 5
2 2 5
2 2 5
2 2 5
2 2 5
2 2 5
2 2 5
2 2 5
2 2 5
2 2 5
2 2 5
2 2 5
2 2 5
2 2 5
2 2 5
2 2 5
2 2 5
2 2 5
2 2 5
2 2 5
2 2 5
2 2 5
2 2 5
2 2 5
2 2 5
2 2 5
2 2 5
2 2 5
2 2 5
2 2 5
2 2 5
2 2 5
2 2 5
2 2 5
2 2 5
2 2 5
2 2 5
2 2 5
2 2 5
2 2 5
2 2 5
2 2 5
2 2 5
2 2 5
2 2 5
2 2 5
2 2 5
2 2 5
2 2 5
2 2 5
2 2 5
2 2 5
2 2 5
2 2 5
2 2 5
2 2 5
2 2 5
2 2 5
2 2 5
2 2 5
2 2 5
255 255 255
255 255 255
255 255 255
255 255 255
255 255 255
255 255 255
255 255 255
255 255 255
255 255 255
255 255 255
255 255 255
255 255 255
255 255 255
255 255 255
255 255 255
255 255 255
255 255 255
255 255 255
255 255 255
255 255 255
255 255 255
255 255 255
255 255 255
255 255 255
255 255 255
255 255 255
255 255 255
255 255 255
255 255 255
255 255 255
255 255 255
255 255 255
255 255 255
255 255 255
255 255 255
255 255 255
255 255 255
255 255 255
255 255 255
255 255 255
255 255 255
255 255 255
255 255 255
255 255 255
255 255 255
255 255 255
255 255 255
255 255 255
255 255 255
255 255 255
255 255 255
255 255 255
255 255 255
255 255 255
2 2 5
2 2 5
2 2 5
2 2 5
2 2 5
2 2 5
2 2 5
2 2 5
2 2 5
2 2 5
2 2 5
2 2 5
2 2 5
2 2 5
2 2 5
2 2 5
2 2 5
2 2 5
2 2 5
2 2 5
2 2 5
2 2 5
2 2 5
2 2 5
2 2 5
2 2 5
2 2 5
2 2 5
2 2 5
2 2 5
2 2 5
2 2 5
2 2 5
2 2 5
2 2 5
2 2 5
2 2 5
2 2 5
2 2 5
2 2 5
2 2 5
2 2 5
2 2 5
2 2 5
2 2 5
2 2 5
2 2 5
2 2 5
2 2 5
2 2 5
2 2 5
2 2 5
2 2 5
2 2 5
2 2 5
2 2 5
2 2 5
2 2 5
2 2 5
2 2 5
2 2 5
2 2 5
2 2 5
2 2 5
2 2 5
2 2 5
2 2 5
2 2 5
2 2 5
2 2 5
2 2 5
2 2 5
2 2 5
2 2 5
2 2 5
2 2 5
2 2 5
2 2 5
2 2 5
2 2 5
2 2 5
2 2 5
2 2 5
2 2 5
2 2 5
2 2 5
2 2 5
2 2 5
2 2 5
2 2 5
2 2 5
2 2 5
2 2 5
2 2 5
2 2 5
2 2 5
2 2 5
2 2 5
2 2 5
2 2 5
2 2 5
2 2 5
2 2 5
2 2 5
2 2 5
2 2 5
2 2 5
2 2 5
2 2 5
2 2 5
2 2 5
2 2 5
2 2 5
2 2 5
2 2 5
2 2 5
2 2 5
2 2 5
2 2 5
2 2 5
2 2 5
2 2 5
2 2 5
2 2 5
2 2 5
2 2 5
2 2 5
2 2 5
40 27 28
56 44 38
87 48 56
55 36 33
39 26 29
41 27 29
63 39 45
56 33 33
42 28 30
54 31 40
61 48 41
44 29 31
96 58 45
42 28 29
40 27 28
42 28 29
74 49 43
77 41 39
38 25 27
42 28 29
68 50 42
90 48 57
70 53 46
96 73 67
229 153 153
52 38 36
37 25 26
98 64 54
68 50 39
44 29 31
39 26 27
105 94 77
77 45 47
44 29 31
55 37 36
43 29 30
39 26 27
100 87 56
39 26 28
103 55 51
50 33 34
74 42 51
40 27 28
80 63 65
43 28 30
128 110 69
135 125 69
77 77 52
118 101 63
104 117 65
87 87 59
83 88 57
131 155 76
87 95 58
70 70 48
107 114 76
142 123 75
81 81 55
83 83 56
73 73 50
101 120 65
81 77 55
83 83 56
100 90 61
108 99 67
71 71 48
78 78 54
98 92 62
110 124 79
72 72 49
88 94 58
113 100 68
87 87 59
60 60 42
84 84 57
87 93 63
78 78 53
67 67 46
145 185 96
226 255 150
115 128 70
67 67 46
91 84 57
71 71 49
86 95 64
82 82 56
63 63 43
116 99 79
74 74 50
115 113 71
113 131 75
2 2 5
2 2 5
2 2 5
2 2 5
2 2 5
2 2 5
2 2 5
2 2 5
2 2 5
2 2 5
2 2 5
2 2 5
2 2 5
2 2 5
2 2 5
2 2 5
2 2 5
2 2 5
2 2 5
2 2 5
2 2 5
2 2 5
2 2 5
2 2 5
2 2 5
2 2 5
2 2 5
2 2 5
2 2 5
2 2 5
2 2 5
2 2 5
2 2 5
2 2 5
2 2 5
2 2 5
2 2 5
2 2 5
2 2 5
2 2 5
2 2 5
2 2 5
2 2 5
2 2 5
2 2 5
2 2 5
2 2 5
2 2 5
2 2 5
2 2 5
2 2 5
2 2 5
2 2 5
2 2 5
2 2 5
2 2 5
2 2 5
2 2 5
2 2 5
2 2 5
2 2 5
2 2 5
2 2 5
2 2 5
2 2 5
2 2 5
2 2 5
2 2 5
2 2 5
2 2 5
2 2 5
2 2 5
2 2 5
2 2 5
2 2 5
2 2 5
2 2 5
2 2 5
2 2 5
2 2 5
2 2 5
2 2 5
2 2 5
2 2 5
2 2 5
2 2 5
2 2 5
2 2 5
2 2 5
2 2 5
2 2 5
2 2 5
2 2 5
2 2 5
2 2 5
2 2 5
2 2 5
2 2 5
2 2 5
2 2 5
2 2 5
2 2 5
2 2 5
2 2 5
2 2 5
2 2 5
2 2 5
2 2 5
2 2 5
2 2 5
2 2 5
2 2 5
2 2 5
2 2 5
2 2 5
2 2 5
2 2 5
2 2 5
2 2 5
2 2 5
2 2 5
2 2 5
2 2 5
2 2 5
2 2 5
2 2 5
2 2 5
2 2 5
255 255 255
255 255 255
255 255 255
255 255 255
255 255 255
255 255 255
255 255 255
255 255 255
255 255 255
255 255 255
255 255 255
255 255 255
255 255 255
255 255 255
255 255 255
255 255 255
255 255 255
255 255 255
255 255 255
255 255 255
255 255 255
255 255 255
255 255 255
255 255 255
255 255 255
255 255 255
255 255 255
255 255 255
255 255 255
255 255 255
255 255 255
255 255 255
255 255 255
255 255 255
255 255 255
255 255 255
255 255 255
255 255 255
255 255 255
255 255 255
255 255 255
255 255 255
255 255 255
255 255 255
255 255 255
255 255 255
255 255 255
255 255 255
255 255 255
255 255 255
255 255 255
255 255 255
2 2 5
2 2 5
2 2 5
2 2 5
2 2 5
2 2 5
2 2 5
2 2 5
2 2 5
2 2 5
2 2 5
2 2 5
2 2 5
2 2 5
2 2 5
2 2 5
2 2 5
2 2 5
2 2 5
2 2 5
2 2 5
2 2 5
2 2 5
2 2 5
2 2 5
2 2 5
2 2 5
2 2 5
2 2 5
2 2 5
2 2 5
2 2 5
2 2 5
2 2 5
2 2 5
2 2 5
2 2 5
2 2 5
2 2 5
2 2 5
2 2 5
2 2 5
2 2 5
2 2 5
2 2 5
2 2 5
2 2 5
2 2 5
2 2 5
2 2 5
2 2 5
2 2 5
2 2 5
2 2 5
2 2 5
2 2 5
2 2 5
2 2 5
2 2 5
2 2 5
2 2 5
2 2 5
2 2 5
2 2 5
2 2 5
2 2 5
2 2 5
2 2 5
2 2 5
2 2 5
2 2 5
2 2 5
2 2 5
2 2 5
2 2 5
2 2 5
2 2 5
2 2 5
2 2 5
2 2 5
2 2 5
2 2 5
2 2 5
2 2 5
2 2 5
2 2 5
2 2 5
2 2 5
2 2 5
2 2 5
2 2 5
2 2 5
2 2 5
2 2 5
2 2 5
2 2 5
2 2 5
2 2 5
2 2 5
2 2 5
2 2 5
2 2 5
2 2 5
2 2 5
2 2 5
2 2 5
2 2 5
2 2 5
2 2 5
2 2 5
2 2 5
2 2 5
2 2 5
2 2 5
2 2 5
2 2 5
2 2 5
2 2 5
2 2 5
2 2 5
2 2 5
2 2 5
2 2 5
2 2 5
2 2 5
2 2 5
2 2 5
2 2 5
43 28 30
116 60 69
66 53 53
37 24 26
39 26 27
39 28 37
97 65 52
39 26 27
74 54 55
42 28 30
40 27 28
71 36 42
42 28 30
103 49 56
41 27 29
41 27 29
71 45 53
42 28 29
227 151 151
50 33 34
81 62 71
38 25 27
44 29 31
57 47 38
40 27 28
41 27 29
48 32 39
81 50 41
43 28 30
43 28 30
45 30 31
43 28 30
42 28 29
40 27 28
44 29 31
107 57 61
40 26 28
55 37 33
86 62 58
54 32 37
39 26 27
53 32 32
68 48 43
78 43 53
75 50 43
43 30 29
138 157 94
78 78 54
77 77 53
76 76 52
71 71 49
102 140 69
91 96 58
81 81 55
129 158 98
83 83 56
84 80 53
135 103 75
71 71 49
99 92 62
107 97 65
121 127 88
114 103 66
71 71 49
108 97 61
97 107 62
138 120 78
90 96 65
119 107 77
137 131 80
77 77 53
127 139 100
69 69 47
103 96 65
88 88 60
112 106 69
77 82 51
70 70 48
72 72 49
72 72 50
72 72 49
73 73 50
146 127 68
169 148 78
73 73 50
125 114 72
73 73 50
65 65 45
86 86 59
66 66 46
68 68 46
75 68 46
59 59 40
123 122 85
2 2 5
2 2 5
2 2 5
2 2 5
2 2 5
2 2 5
2 2 5
2 2 5
2 2 5
2 2 5
2 2 5
2 2 5
2 2 5
2 2 5
2 2 5
2 2 5
2 2 5
2 2 5
2 2 5
2 2 5
2 2 5
2 2 5
2 2 5
2 2 5
2 2 5
2 2 5
2 2 5
2 2 5
2 2 5
2 2 5
2 2 5
2 2 5
2 2 5
2 2 5
2 2 5
2 2 5
2 2 5
2 2 5
2 2 5
2 2 5
2 2 5
2 2 5
2 2 5
2 2 5
2 2 5
2 2 5
2 2 5
2 2 5
2 2 5
2 2 5
2 2 5
2 2 5
2 2 5
2 2 5
2 2 5
2 2 5
2 2 5
2 2 5
2 2 5
2 2 5
2 2 5
2 2 5
2 2 5
2 2 5
2 2 5
2 2 5
2 2 5
2 2 5
2 2 5
2 2 5
2 2 5
2 2 5
2 2 5
2 2 5
2 2 5
2 2 5
2 2 5
2 2 5
2 2 5
2 2 5
2 2 5
2 2 5
2 2 5
2 2 5
2 2 5
2 2 5
2 2 5
2 2 5
2 2 5
2 2 5
2 2 5
2 2 5
2 2 5
2 2 5
2 2 5
2 2 5
2 2 5
2 2 5
2 2 5
2 2 5
2 2 5
2 2 5
2 2 5
2 2 5
2 2 5
2 2 5
2 2 5
2 2 5
2 2 5
2 2 5
2 2 5
2 2 5
2 2 5
2 2 5
2 2 5
2 2 5
2 2 5
2 2 5
2 2 5
2 2 5
2 2 5
2 2 5
2 2 5
2 2 5
2 2 5
2 2 5
255 255 255
255 255 255
255 255 255
255 255 255
255 255 255
255 255 255
255 255 255
255 255 255
255 255 255
255 255 255
255 255 255
255 255 255
255 255 255
255 255 255
255 255 255
255 255 255
255 255 255
255 255 255
255 255 255
255 255 255
255 255 255
255 255 255
255 255 255
255 255 255
255 255 255
255 255 255
255 255 255
255 255 255
255 255 255
255 255 255
255 255 255
255 255 255
255 255 255
255 255 255
255 255 255
255 255 255
255 255 255
255 255 255
255 255 255
255 255 255
255 255 255
255 255 255
255 255 255
255 255 255
255 255 255
255 255 255
255 255 255
255 255 255
255 255 255
255 255 255
255 255 255
255 255 255
2 2 5
2 2 5
2 2 5
2 2 5
2 2 5
2 2 5
2 2 5
2 2 5
2 2 5
2 2 5
2 2 5
2 2 5
2 2 5
2 2 5
2 2 5
2 2 5
2 2 5
2 2 5
2 2 5
2 2 5
2 2 5
2 2 5
2 2 5
2 2 5
2 2 5
2 2 5
2 2 5
2 2 5
2 2 5
2 2 5
2 2 5
2 2 5
2 2 5
2 2 5
2 2 5
2 2 5
2 2 5
2 2 5
2 2 5
2 2 5
2 2 5
2 2 5
2 2 5
2 2 5
2 2 5
2 2 5
2 2 5
2 2 5
2 2 5
2 2 5
2 2 5
2 2 5
2 2 5
2 2 5
2 2 5
2 2 5
2 2 5
2 2 5
2 2 5
2 2 5
2 2 5
2 2 5
2 2 5
2 2 5
2 2 5
2 2 5
2 2 5
2 2 5
2 2 5
2 2 5
2 2 5
2 2 5
2 2 5
2 2 5
2 2 5
2 2 5
2 2 5
2 2 5
2 2 5
2 2 5
2 2 5
2 2 5
2 2 5
2 2 5
2 2 5
2 2 5
2 2 5
2 2 5
2 2 5
2 2 5
2 2 5
2 2 5
2 2 5
2 2 5
2 2 5
2 2 5
2 2 5
2 2 5
2 2 5
2 2 5
2 2 5
2 2 5
2 2 5
2 2 5
2 2 5
2 2 5
2 2 5
2 2 5
2 2 5
2 2 5
2 2 5
2 2 5
2 2 5
2 2 5
2 2 5
2 2 5
2 2 5
2 2 5
2 2 5
2 2 5
2 2 5
2 2 5
2 2 5
2 2 5
2 2 5
2 2 5
2 2 5
2 2 5
38 25 27
54 40 37
39 26 27
84 42 52
39 26 27
53 39 37
38 25 27
47 29 32
81 43 56
76 50 43
42 28 29
64 39 37
58 43 39
130 81 60
50 33 39
56 44 38
39 26 27
41 27 29
70 54 51
42 28 29
57 34 34
46 31 32
130 92 71
97 65 53
64 45 42
41 27 29
135 94 76
44 29 31
38 25 26
43 29 30
52 33 35
42 28 30
73 44 38
80 57 64
77 45 40
40 27 28
60 45 47
37 25 26
255 176 125
50 33 31
137 86 64
49 33 34
40 27 28
44 29 30
39 26 27
62 48 42
68 68 47
87 87 59
107 119 86
83 83 57
107 118 72
93 85 53
95 100 66
86 82 55
80 80 55
83 83 56
77 77 53
125 138 76
78 78 53
74 74 51
72 72 49
99 91 61
106 119 84
70 70 48
70 70 48
72 72 50
113 99 64
100 86 63
183 138 77
81 89 55
78 78 53
73 73 50
91 91 62
86 95 62
100 108 67
255 198 132
121 110 74
119 105 71
72 72 50
129 94 65
128 110 67
87 87 59
90 121 72
128 151 89
86 86 59
66 66 45
68 68 47
84 84 57
76 85 52
91 87 58
72 72 49
81 83 62
77 77 53
64 64 45
78 78 53
2 2 5
2 2 5
2 2 5
2 2 5
2 2 5
2 2 5
2 2 5
2 2 5
2 2 5
2 2 5
2 2 5
2 2 5
2 2 5
2 2 5
2 2 5
2 2 5
2 2 5
2 2 5
2 2 5
2 2 5
2 2 5
2 2 5
2 2 5
2 2 5
2 2 5
2 2 5
2 2 5
2 2 5
2 2 5
2 2 5
2 2 5
2 2 5
2 2 5
2 2 5
2 2 5
2 2 5
2 2 5
2 2 5
2 2 5
2 2 5
2 2 5
2 2 5
2 2 5
2 2 5
2 2 5
2 2 5
2 2 5
2 2 5
2 2 5
2 2 5
2 2 5
2 2 5
2 2 5
2 2 5
2 2 5
2 2 5
2 2 5
2 2 5
2 2 5
2 2 5
2 2 5
2 2 5
2 2 5
2 2 5
2 2 5
2 2 5
2 2 5
2 2 5
2 2 5
2 2 5
2 2 5
2 2 5
2 2 5
2 2 5
2 2 5
2 2 5
2 2 5
2 2 5
2 2 5
2 2 5
2 2 5
2 2 5
2 2 5
2 2 5
2 2 5
2 2 5
2 2 5
2 2 5
2 2 5
2 2 5
2 2 5
2 2 5
2 2 5
2 2 5
2 2 5
2 2 5
2 2 5
2 2 5
2 2 5
2 2 5
2 2 5
2 2 5
2 2 5
2 2 5
2 2 5
2 2 5
2 2 5
2 2 5
2 2 5
2 2 5
2 2 5
2 2 5
2 2 5
2 2 5
2 2 5
2 2 5
2 2 5
2 2 5
2 2 5
2 2 5
2 2 5
2 2 5
2 2 5
2 2 5
2 2 5
2 2 5
255 255 255
255 255 255
255 255 255
255 255 255
255 255 255
255 255 255
255 255 255
255 255 255
255 255 255
255 255 255
255 255 255
255 255 255
255 255 255
255 255 255
255 255 255
255 255 255
255 255 255
255 255 255
255 255 255
255 255 255
255 255 255
255 255 255
255 255 255
255 255 255
255 255 255
255 255 255
255 255 255
255 255 255
255 255 255
255 255 255
255 255 255
255 255 255
255 255 255
255 255 255
255 255 255
255 255 255
255 255 255
255 255 255
255 255 255
255 255 255
255 255 255
255 255 255
255 255 255
255 255 255
255 255 255
255 255 255
255 255 255
255 255 255
255 255 255
255 255 255
255 255 255
2 2 5
2 2 5
2 2 5
2 2 5
2 2 5
2 2 5
2 2 5
2 2 5
2 2 5
2 2 5
2 2 5
2 2 5
2 2 5
2 2 5
2 2 5
2 2 5
2 2 5
2 2 5
2 2 5
2 2 5
2 2 5
2 2 5
2 2 5
2 2 5
2 2 5
2 2 5
2 2 5
2 2 5
2 2 5
2 2 5
2 2 5
2 2 5
2 2 5
2 2 5
2 2 5
2 2 5
2 2 5
2 2 5
2 2 5
2 2 5
2 2 5
2 2 5
2 2 5
2 2 5
2 2 5
2 2 5
2 2 5
2 2 5
2 2 5
2 2 5
2 2 5
2 2 5
2 2 5
2 2 5
2 2 5
2 2 5
2 2 5
2 2 5
2 2 5
2 2 5
2 2 5
2 2 5
2 2 5
2 2 5
2 2 5
2 2 5
2 2 5
2 2 5
2 2 5
2 2 5
2 2 5
2 2 5
2 2 5
2 2 5
2 2 5
2 2 5
2 2 5
2 2 5
2 2 5
2 2 5
2 2 5
2 2 5
2 2 5
2 2 5
2 2 5
2 2 5
2 2 5
2 2 5
2 2 5
2 2 5
2 2 5
2 2 5
2 2 5
2 2 5
2 2 5
2 2 5
2 2 5
2 2 5
2 2 5
2 2 5
2 2 5
2 2 5
2 2 5
2 2 5
2 2 5
2 2 5
2 2 5
2 2 5
2 2 5
2 2 5
2 2 5
2 2 5
2 2 5
2 2 5
2 2 5
2 2 5
2 2 5
2 2 5
2 2 5
2 2 5
2 2 5
2 2 5
2 2 5
2 2 5
2 2 5
117 75 72
92 72 69
39 26 27
103 80 81
43 28 30
40 26 28
75 61 46
50 30 33
41 27 29
57 43 38
88 76 51
38 25 26
68 38 46
41 27 29
42 28 29
88 65 48
41 27 29
46 31 32
38 25 27
46 30 32
143 94 55
49 36 38
45 30 31
41 27 29
39 26 27
93 48 53
43 28 30
82 60 58
37 25 26
63 40 37
42 28 29
45 30 31
43 29 30
101 52 63
78 43 44
44 29 31
72 37 42
51 36 37
81 55 45
53 37 38
47 31 33
135 66 73
117 53 52
40 27 28
215 149 111
90 65 129
39 26 28
110 60 67
61 48 49
166 105 83
78 85 58
232 255 159
109 145 75
71 71 48
127 115 72
172 124 91
89 97 60
72 72 49
81 81 55
80 80 55
80 80 55
75 75 51
94 104 71
72 72 49
75 75 51
88 91 61
76 76 52
111 93 66
74 74 51
80 80 55
75 75 52
188 237 125
112 121 80
139 127 81
87 87 59
80 80 54
75 75 52
89 84 56
69 69 47
70 70 48
88 88 60
87 87 59
99 90 61
137 107 76
76 76 52
81 81 56
95 95 64
144 154 88
93 85 57
94 94 64
69 69 47
74 74 50
70 70 48
63 63 44
166 128 74
142 112 62
75 75 52
99 109 70
93 81 55
2 2 5
2 2 5
2 2 5
2 2 5
2 2 5
2 2 5
2 2 5
2 2 5
2 2 5
2 2 5
2 2 5
2 2 5
2 2 5
2 2 5
2 2 5
2 2 5
2 2 5
2 2 5
2 2 5
2 2 5
2 2 5
2 2 5
2 2 5
2 2 5
2 2 5
2 2 5
2 2 5
2 2 5
2 2 5
2 2 5
2 2 5
2 2 5
2 2 5
2 2 5
2 2 5
2 2 5
2 2 5
2 2 5
2 2 5
2 2 5
2 2 5
2 2 5
2 2 5
2 2 5
2 2 5
2 2 5
2 2 5
2 2 5
2 2 5
2 2 5
2 2 5
2 2 5
2 2 5
2 2 5
2 2 5
2 2 5
2 2 5
2 2 5
2 2 5
2 2 5
2 2 5
2 2 5
2 2 5
2 2 5
2 2 5
2 2 5
2 2 5
2 2 5
2 2 5
2 2 5
2 2 5
2 2 5
2 2 5
2 2 5
2 2 5
2 2 5
2 2 5
2 2 5
2 2 5
2 2 5
2 2 5
2 2 5
2 2 5
2 2 5
2 2 5
2 2 5
2 2 5
2 2 5
2 2 5
2 2 5
2 2 5
2 2 5
2 2 5
2 2 5
2 2 5
2 2 5
2 2 5
2 2 5
2 2 5
2 2 5
2 2 5
2 2 5
2 2 5
2 2 5
2 2 5
2 2 5
2 2 5
2 2 5
2 2 5
2 2 5
2 2 5
2 2 5
2 2 5
2 2 5
2 2 5
2 2 5
2 2 5
2 2 5
2 2 5
2 2 5
2 2 5
2 2 5
2 2 5
2 2 5
255 255 255
255 255 255
255 255 255
255 255 255
255 255 255
255 255 255
255 255 255
255 255 255
255 255 255
255 255 255
255 255 255
255 255 255
255 255 255
255 255 255
255 255 255
255 255 255
255 255 255
255 255 255
255 255 255
255 255 255
255 255 255
255 255 255
255 255 255
255 255 255
255 255 255
255 255 255
255 255 255
255 255 255
255 255 255
255 255 255
255 255 255
255 255 255
255 255 255
255 255 255
255 255 255
255 255 255
255 255 255
255 255 255
255 255 255
255 255 255
255 255 255
255 255 255
255 255 255
255 255 255
255 255 255
255 255 255
255 255 255
255 255 255
255 255 255
255 255 255
255 255 255
2 2 5
2 2 5
2 2 5
2 2 5
2 2 5
2 2 5
2 2 5
2 2 5
2 2 5
2 2 5
2 2 5
2 2 5
2 2 5
2 2 5
2 2 5
2 2 5
2 2 5
2 2 5
2 2 5
2 2 5
2 2 5
2 2 5
2 2 5
2 2 5
2 2 5
2 2 5
2 2 5
2 2 5
2 2 5
2 2 5
2 2 5
2 2 5
2 2 5
2 2 5
2 2 5
2 2 5
2 2 5
2 2 5
2 2 5
2 2 5
2 2 5
2 2 5
2 2 5
2 2 5
2 2 5
2 2 5
2 2 5
2 2 5
2 2 5
2 2 5
2 2 5
2 2 5
2 2 5
2 2 5
2 2 5
2 2 5
2 2 5
2 2 5
2 2 5
2 2 5
2 2 5
2 2 5
2 2 5
2 2 5
2 2 5
2 2 5
2 2 5
2 2 5
2 2 5
2 2 5
2 2 5
2 2 5
2 2 5
2 2 5
2 2 5
2 2 5
2 2 5
2 2 5
2 2 5
2 2 5
2 2 5
2 2 5
2 2 5
2 2 5
2 2 5
2 2 5
2 2 5
2 2 5
2 2 5
2 2 5
2 2 5
2 2 5
2 2 5
2 2 5
2 2 5
2 2 5
2 2 5
2 2 5
2 2 5
2 2 5
2 2 5
2 2 5
2 2 5
2 2 5
2 2 5
2 2 5
2 2 5
2 2 5
2 2 5
2 2 5
2 2 5
2 2 5
2 2 5
2 2 5
2 2 5
2 2 5
2 2 5
2 2 5
2 2 5
2 2 5
2 2 5
2 2 5
2 2 5
2 2 5
52 37 39
2 2 5
39 26 27
37 25 26
145 78 70
37 25 26
66 44 38
46 28 28
41 27 29
44 29 31
72 40 49
41 27 29
39 26 27
100 48 62
70 43 47
44 29 30
46 30 31
72 48 42
40 26 28
39 26 27
63 34 37
38 25 27
84 46 52
40 26 28
37 25 26
149 92 61
90 49 62
99 66 52
95 60 49
92 46 57
38 25 27
67 39 46
46 30 32
117 57 72
41 27 29
88 66 62
41 27 29
68 38 46
43 28 30
73 41 43
74 56 45
45 30 31
59 47 44
40 26 28
42 28 30
44 29 31
59 42 35
82 69 49
126 60 67
41 27 28
89 69 45
71 71 48
73 73 50
83 86 60
77 77 53
66 66 45
88 88 60
68 68 47
85 85 58
69 69 47
95 121 63
79 79 54
97 103 65
74 74 51
129 117 79
71 71 49
76 76 52
76 76 52
143 165 79
74 74 51
92 102 68
81 81 55
76 76 52
81 92 55
89 89 61
87 87 59
78 78 53
74 74 51
80 80 54
68 68 47
68 68 46
147 113 85
115 109 69
68 68 47
78 78 53
73 73 50
76 76 52
108 101 64
95 106 72
87 87 59
73 73 50
60 60 41
79 83 53
69 69 46
78 78 53
98 90 61
118 106 66
118 105 72
69 69 47
66 66 45
63 63 43
118 125 91
151 131 76
2 2 5
2 2 5
2 2 5
2 2 5
2 2 5
2 2 5
2 2 5
2 2 5
2 2 5
2 2 5
2 2 5
2 2 5
2 2 5
2 2 5
2 2 5
2 2 5
2 2 5
2 2 5
2 2 5
2 2 5
2 2 5
2 2 5
2 2 5
2 2 5
2 2 5
2 2 5
2 2 5
2 2 5
2 2 5
2 2 5
2 2 5
2 2 5
2 2 5
2 2 5
2 2 5
2 2 5
2 2 5
2 2 5
2 2 5
2 2 5
2 2 5
2 2 5
2 2 5
2 2 5
2 2 5
2 2 5
2 2 5
2 2 5
2 2 5
2 2 5
2 2 5
2 2 5
2 2 5
2 2 5
2 2 5
2 2 5
2 2 5
2 2 5
2 2 5
2 2 5
2 2 5
2 2 5
2 2 5
2 2 5
2 2 5
2 2 5
2 2 5
2 2 5
2 2 5
2 2 5
2 2 5
2 2 5
2 2 5
2 2 5
2 2 5
2 2 5
2 2 5
2 2 5
2 2 5
2 2 5
2 2 5
2 2 5
2 2 5
2 2 5
2 2 5
2 2 5
2 2 5
2 2 5
2 2 5
2 2 5
2 2 5
2 2 5
2 2 5
2 2 5
2 2 5
2 2 5
2 2 5
2 2 5
2 2 5
2 2 5
2 2 5
2 2 5
2 2 5
2 2 5
2 2 5
2 2 5
2 2 5
2 2 5
2 2 5
2 2 5
2 2 5
2 2 5
2 2 5
2 2 5
2 2 5
2 2 5
2 2 5
2 2 5
2 2 5
2 2 5
2 2 5
2 2 5
2 2 5
255 255 255
255 255 255
255 255 255
255 255 255
255 255 255
255 255 255
255 255 255
255 255 255
255 255 255
255 255 255
255 255 255
255 255 255
255 255 255
255 255 255
255 255 255
255 255 255
255 255 255
255 255 255
255 255 255
255 255 255
255 255 255
255 255 255
255 255 255
255 255 255
255 255 255
255 255 255
255 255 255
255 255 255
255 255 255
255 255 255
255 255 255
255 255 255
255 255 255
255 255 255
255 255 255
255 255 255
255 255 255
255 255 255
255 255 255
255 255 255
255 255 255
255 255 255
255 255 255
255 255 255
255 255 255
255 255 255
255 255 255
255 255 255
255 255 255
255 255 255
2 2 5
2 2 5
2 2 5
2 2 5
2 2 5
2 2 5
2 2 5
2 2 5
2 2 5
2 2 5
2 2 5
2 2 5
2 2 5
2 2 5
2 2 5
2 2 5
2 2 5
2 2 5
2 2 5
2 2 5
2 2 5
2 2 5
2 2 5
2 2 5
2 2 5
2 2 5
2 2 5
2 2 5
2 2 5
2 2 5
2 2 5
2 2 5
2 2 5
2 2 5
2 2 5
2 2 5
2 2 5
2 2 5
2 2 5
2 2 5
2 2 5
2 2 5
2 2 5
2 2 5
2 2 5
2 2 5
2 2 5
2 2 5
2 2 5
2 2 5
2 2 5
2 2 5
2 2 5
2 2 5
2 2 5
2 2 5
2 2 5
2 2 5
2 2 5
2 2 5
2 2 5
2 2 5
2 2 5
2 2 5
2 2 5
2 2 5
2 2 5
2 2 5
2 2 5
2 2 5
2 2 5
2 2 5
2 2 5
2 2 5
2 2 5
2 2 5
2 2 5
2 2 5
2 2 5
2 2 5
2 2 5
2 2 5
2 2 5
2 2 5
2 2 5
2 2 5
2 2 5
2 2 5
2 2 5
2 2 5
2 2 5
2 2 5
2 2 5
2 2 5
2 2 5
2 2 5
2 2 5
2 2 5
2 2 5
2 2 5
2 2 5
2 2 5
2 2 5
2 2 5
2 2 5
2 2 5
2 2 5
2 2 5
2 2 5
2 2 5
2 2 5
2 2 5
2 2 5
2 2 5
2 2 5
2 2 5
2 2 5
2 2 5
2 2 5
2 2 5
2 2 5
2 2 5
2 2 5
35 23 25
159 109 74
38 25 27
36 24 26
40 26 28
37 25 26
66 39 47
48 32 31
101 67 54
140 72 65
39 26 27
37 25 26
36 24 25
40 27 28
69 46 39
60 40 36
64 36 44
40 26 28
64 51 42
78 56 42
64 45 50
255 177 177
105 61 57
71 45 37
87 61 47
76 51 44
44 29 31
38 25 27
54 34 34
93 67 54
42 28 30
56 34 38
41 27 28
37 25 26
124 58 59
218 81 145
38 25 26
54 37 37
99 51 62
136 84 70
38 25 27
41 27 29
115 70 56
43 28 30
69 49 41
40 27 28
109 64 45
52 35 33
41 27 28
87 63 52
63 49 51
79 61 45
84 84 57
255 255 199
156 120 94
117 102 79
73 73 50
91 87 62
102 92 69
72 72 50
120 100 70
116 99 68
96 106 72
95 106 64
84 84 57
82 82 56
84 84 57
71 71 48
75 75 52
111 96 61
210 121 98
107 90 63
87 88 64
85 85 58
132 126 91
68 68 47
88 81 54
101 93 63
116 132 77
102 92 64
117 104 66
82 82 56
140 162 82
106 102 63
87 95 59
111 105 78
80 80 55
62 62 43
166 121 83
93 86 91
84 84 57
65 65 45
68 68 46
158 124 72
106 95 72
91 97 59
67 67 46
119 102 63
64 64 44
74 74 51
78 76 63
101 119 69
133 117 74
110 137 108
64 64 44
2 2 5
2 2 5
2 2 5
2 2 5
2 2 5
2 2 5
2 2 5
2 2 5
2 2 5
2 2 5
2 2 5
2 2 5
2 2 5
2 2 5
2 2 5
2 2 5
2 2 5
2 2 5
2 2 5
2 2 5
2 2 5
2 2 5
2 2 5
2 2 5
2 2 5
2 2 5
2 2 5
2 2 5
2 2 5
2 2 5
2 2 5
2 2 5
2 2 5
2 2 5
2 2 5
2 2 5
2 2 5
2 2 5
2 2 5
2 2 5
2 2 5
2 2 5
2 2 5
2 2 5
2 2 5
2 2 5
2 2 5
2 2 5
2 2 5
2 2 5
2 2 5
2 2 5
2 2 5
2 2 5
2 2 5
2 2 5
2 2 5
2 2 5
2 2 5
2 2 5
2 2 5
2 2 5
2 2 5
2 2 5
2 2 5
2 2 5
2 2 5
2 2 5
2 2 5
2 2 5
2 2 5
2 2 5
2 2 5
2 2 5
2 2 5
2 2 5
2 2 5
2 2 5
2 2 5
2 2 5
2 2 5
2 2 5
2 2 5
2 2 5
2 2 5
2 2 5
2 2 5
2 2 5
2 2 5
2 2 5
2 2 5
2 2 5
2 2 5
2 2 5
2 2 5
2 2 5
2 2 5
2 2 5
2 2 5
2 2 5
2 2 5
2 2 5
2 2 5
2 2 5
2 2 5
2 2 5
2 2 5
2 2 5
2 2 5
2 2 5
2 2 5
2 2 5
2 2 5
2 2 5
2 2 5
2 2 5
2 2 5
2 2 5
2 2 5
2 2 5
2 2 5
2 2 5
2 2 5
255 255 255
2 2 5
2 2 5
255 255 255
2 2 5
2 2 5
2 2 5
2 2 5
2 2 5
2 2 5
2 2 5
2 2 5
255 255 255
2 2 5
255 255 255
2 2 5
2 2 5
2 2 5
255 255 255
2 2 5
2 2 5
2 2 5
2 2 5
2 2 5
255 255 255
2 2 5
2 2 5
2 2 5
2 2 5
2 2 5
2 2 5
2 2 5
2 2 5
2 2 5
2 2 5
2 2 5
2 2 5
2 2 5
255 255 255
2 2 5
2 2 5
2 2 5
2 2 5
2 2 5
2 2 5
2 2 5
2 2 5
2 2 5
2 2 5
2 2 5
2 2 5
2 2 5
2 2 5
2 2 5
2 2 5
2 2 5
2 2 5
2 2 5
2 2 5
2 2 5
2 2 5
2 2 5
2 2 5
2 2 5
2 2 5
2 2 5
2 2 5
2 2 5
2 2 5
2 2 5
2 2 5
2 2 5
2 2 5
2 2 5
2 2 5
2 2 5
2 2 5
2 2 5
2 2 5
2 2 5
2 2 5
2 2 5
2 2 5
2 2 5
2 2 5
2 2 5
2 2 5
2 2 5
2 2 5
2 2 5
2 2 5
2 2 5
2 2 5
2 2 5
2 2 5
2 2 5
2 2 5
2 2 5
2 2 5
2 2 5
2 2 5
2 2 5
2 2 5
2 2 5
2 2 5
2 2 5
2 2 5
2 2 5
2 2 5
2 2 5
2 2 5
2 2 5
2 2 5
2 2 5
2 2 5
2 2 5
2 2 5
2 2 5
2 2 5
2 2 5
2 2 5
2 2 5
2 2 5
2 2 5
2 2 5
2 2 5
2 2 5
2 2 5
2 2 5
2 2 5
2 2 5
2 2 5
2 2 5
2 2 5
2 2 5
2 2 5
2 2 5
2 2 5
2 2 5
2 2 5
2 2 5
2 2 5
2 2 5
2 2 5
2 2 5
2 2 5
2 2 5
2 2 5
2 2 5
2 2 5
2 2 5
2 2 5
2 2 5
2 2 5
2 2 5
2 2 5
2 2 5
2 2 5
2 2 5
2 2 5
2 2 5
2 2 5
2 2 5
2 2 5
2 2 5
2 2 5
2 2 5
2 2 5
2 2 5
2 2 5
2 2 5
46 31 35
58 44 40
86 54 44
229 199 141
46 30 31
40 27 28
41 27 28
118 53 48
63 42 36
40 27 28
68 54 43
73 48 42
41 27 29
77 51 43
40 26 28
38 25 26
67 38 42
38 25 26
44 31 40
41 27 28
75 43 55
40 27 28
39 26 27
45 30 31
61 41 36
84 62 46
84 42 57
37 25 26
43 28 30
44 29 35
48 32 33
71 44 49
55 41 42
43 29 30
42 28 29
41 27 29
43 28 30
46 31 32
164 133 76
65 40 36
38 25 27
54 41 43
55 33 37
75 46 41
61 36 42
78 49 43
81 56 43
76 62 46
39 26 27
60 40 36
39 26 27
38 25 26
41 27 29
77 77 53
83 91 56
174 134 98
96 96 79
78 78 54
98 87 59
72 72 50
173 137 95
73 73 50
95 100 62
75 75 51
97 89 59
80 84 54
78 78 53
79 76 50
99 94 63
81 89 55
137 118 76
74 74 51
76 76 52
73 73 50
88 96 59
74 74 50
86 81 55
107 129 69
88 106 72
80 80 55
67 67 46
84 84 58
71 71 49
97 108 66
90 90 61
97 100 68
80 80 54
173 115 87
82 82 56
106 118 72
71 71 49
105 119 62
63 63 43
62 62 42
91 88 61
80 93 59
68 68 46
72 72 50
139 126 85
68 68 47
66 66 45
60 60 41
118 128 78
82 86 56
121 107 69
67 67 46
58 58 40
80 80 55
2 2 5
2 2 5
2 2 5
2 2 5
2 2 5
2 2 5
2 2 5
2 2 5
2 2 5
2 2 5
2 2 5
2 2 5
2 2 5
2 2 5
2 2 5
2 2 5
2 2 5
2 2 5
2 2 5
2 2 5
2 2 5
2 2 5
2 2 5
2 2 5
2 2 5
2 2 5
2 2 5
2 2 5
2 2 5
2 2 5
2 2 5
2 2 5
2 2 5
2 2 5
2 2 5
2 2 5
2 2 5
2 2 5
2 2 5
2 2 5
2 2 5
2 2 5
2 2 5
2 2 5
2 2 5
2 2 5
2 2 5
2 2 5
2 2 5
2 2 5
2 2 5
2 2 5
2 2 5
2 2 5
2 2 5
2 2 5
2 2 5
2 2 5
2 2 5
2 2 5
2 2 5
2 2 5
2 2 5
2 2 5
2 2 5
2 2 5
2 2 5
2 2 5
2 2 5
2 2 5
2 2 5
2 2 5
2 2 5
2 2 5
2 2 5
2 2 5
2 2 5
2 2 5
2 2 5
2 2 5
2 2 5
2 2 5
2 2 5
2 2 5
2 2 5
2 2 5
2 2 5
2 2 5
2 2 5
2 2 5
2 2 5
2 2 5
2 2 5
2 2 5
2 2 5
2 2 5
2 2 5
2 2 5
2 2 5
2 2 5
2 2 5
2 2 5
2 2 5
2 2 5
2 2 5
2 2 5
2 2 5
2 2 5
2 2 5
2 2 5
2 2 5
2 2 5
2 2 5
2 2 5
2 2 5
2 2 5
2 2 5
2 2 5
2 2 5
2 2 5
2 2 5
2 2 5
2 2 5
2 2 5
2 2 5
2 2 5
2 2 5
2 2 5
2 2 5
2 2 5
2 2 5
2 2 5
2 2 5
2 2 5
2 2 5
2 2 5
2 2 5
2 2 5
2 2 5
2 2 5
2 2 5
2 2 5
2 2 5
2 2 5
2 2 5
2 2 5
2 2 5
2 2 5
2 2 5
2 2 5
2 2 5
2 2 5
2 2 5
2 2 5
2 2 5
2 2 5
2 2 5
2 2 5
2 2 5
2 2 5
2 2 5
2 2 5
2 2 5
2 2 5
2 2 5
2 2 5
2 2 5
2 2 5
2 2 5
2 2 5
2 2 5
2 2 5
2 2 5
2 2 5
2 2 5
2 2 5
2 2 5
2 2 5
2 2 5
2 2 5
2 2 5
2 2 5
2 2 5
2 2 5
2 2 5
2 2 5
2 2 5
2 2 5
2 2 5
2 2 5
2 2 5
2 2 5
2 2 5
2 2 5
2 2 5
2 2 5
2 2 5
2 2 5
2 2 5
2 2 5
2 2 5
2 2 5
2 2 5
2 2 5
2 2 5
2 2 5
2 2 5
2 2 5
2 2 5
2 2 5
2 2 5
2 2 5
2 2 5
2 2 5
2 2 5
2 2 5
2 2 5
2 2 5
2 2 5
2 2 5
2 2 5
2 2 5
2 2 5
2 2 5
2 2 5
2 2 5
2 2 5
2 2 5
2 2 5
2 2 5
2 2 5
2 2 5
2 2 5
2 2 5
2 2 5
2 2 5
2 2 5
2 2 5
2 2 5
2 2 5
2 2 5
2 2 5
2 2 5
2 2 5
2 2 5
2 2 5
2 2 5
2 2 5
2 2 5
2 2 5
2 2 5
2 2 5
2 2 5
2 2 5
2 2 5
2 2 5
2 2 5
2 2 5
2 2 5
2 2 5
2 2 5
2 2 5
2 2 5
2 2 5
2 2 5
2 2 5
2 2 5
2 2 5
2 2 5
2 2 5
2 2 5
2 2 5
2 2 5
2 2 5
2 2 5
2 2 5
2 2 5
2 2 5
2 2 5
2 2 5
2 2 5
2 2 5
2 2 5
2 2 5
2 2 5
2 2 5
2 2 5
2 2 5
2 2 5
51 34 32
38 25 27
40 27 28
39 26 27
72 71 42
36 24 25
42 28 29
100 66 54
105 70 55
38 25 31
39 26 27
38 25 27
77 58 59
38 25 26
77 58 48
107 64 52
38 25 27
43 29 30
97 64 53
40 27 28
76 53 84
46 31 32
96 55 54
43 28 30
38 25 27
87 58 48
39 26 28
44 29 31
62 38 36
83 48 45
37 24 26
67 44 39
51 34 32
108 80 63
41 27 29
41 27 29
38 25 27
62 40 36
46 30 32
134 73 88
60 36 40
43 28 30
255 181 181
54 42 36
44 29 31
41 27 29
42 28 29
43 28 30
103 74 54
95 63 52
87 52 48
47 31 32
75 43 50
40 26 28
43 28 30
38 25 27
104 93 62
69 69 47
112 143 102
130 112 80
69 69 47
109 123 71
71 71 49
83 91 59
77 77 52
126 138 79
73 73 50
65 65 45
118 147 72
114 104 68
67 67 46
70 70 48
148 106 81
98 89 60
68 68 46
92 93 79
102 121 60
66 66 46
94 98 65
103 126 73
73 75 59
71 71 49
65 65 45
69 69 47
77 77 52
87 87 59
66 66 45
91 91 62
169 130 99
98 106 72
70 70 48
65 65 44
78 78 54
70 70 48
95 92 65
107 98 66
129 112 69
89 99 60
82 82 56
92 97 67
71 71 49
125 129 81
73 73 50
81 83 54
65 65 45
170 239 149
81 89 53
159 120 83
81 81 55
68 71 46
84 72 48
55 55 38
74 81 50
2 2 5
2 2 5
2 2 5
2 2 5
2 2 5
2 2 5
2 2 5
2 2 5
2 2 5
2 2 5
2 2 5
2 2 5
2 2 5
2 2 5
2 2 5
2 2 5
2 2 5
2 2 5
2 2 5
2 2 5
2 2 5
2 2 5
2 2 5
2 2 5
2 2 5
2 2 5
2 2 5
2 2 5
2 2 5
2 2 5
2 2 5
2 2 5
2 2 5
2 2 5
2 2 5
2 2 5
2 2 5
2 2 5
2 2 5
2 2 5
2 2 5
2 2 5
2 2 5
2 2 5
2 2 5
2 2 5
2 2 5
2 2 5
2 2 5
2 2 5
2 2 5
2 2 5
2 2 5
2 2 5
2 2 5
2 2 5
2 2 5
2 2 5
2 2 5
2 2 5
2 2 5
2 2 5
2 2 5
2 2 5
2 2 5
2 2 5
2 2 5
2 2 5
2 2 5
2 2 5
2 2 5
2 2 5
2 2 5
2 2 5
2 2 5
2 2 5
2 2 5
2 2 5
2 2 5
2 2 5
2 2 5
2 2 5
2 2 5
2 2 5
2 2 5
2 2 5
2 2 5
2 2 5
2 2 5
2 2 5
2 2 5
2 2 5
2 2 5
2 2 5
2 2 5
2 2 5
2 2 5
2 2 5
2 2 5
2 2 5
2 2 5
2 2 5
2 2 5
2 2 5
2 2 5
2 2 5
2 2 5
2 2 5
2 2 5
2 2 5
2 2 5
2 2 5
2 2 5
2 2 5
2 2 5
2 2 5
2 2 5
2 2 5
2 2 5
2 2 5
2 2 5
2 2 5
2 2 5
2 2 5
2 2 5
2 2 5
2 2 5
2 2 5
2 2 5
2 2 5
2 2 5
2 2 5
2 2 5
2 2 5
2 2 5
2 2 5
2 2 5
2 2 5
2 2 5
2 2 5
2 2 5
2 2 5
2 2 5
2 2 5
2 2 5
2 2 5
2 2 5
2 2 5
2 2 5
2 2 5
2 2 5
2 2 5
2 2 5
2 2 5
2 2 5
2 2 5
2 2 5
2 2 5
2 2 5
2 2 5
2 2 5
2 2 5
2 2 5
2 2 5
2 2 5
2 2 5
2 2 5
2 2 5
2 2 5
2 2 5
2 2 5
2 2 5
2 2 5
2 2 5
2 2 5
2 2 5
2 2 5
2 2 5
2 2 5
2 2 5
2 2 5
2 2 5
2 2 5
2 2 5
2 2 5
2 2 5
2 2 5
2 2 5
2 2 5
2 2 5
2 2 5
2 2 5
2 2 5
2 2 5
2 2 5
2 2 5
2 2 5
2 2 5
2 2 5
2 2 5
2 2 5
2 2 5
2 2 5
2 2 5
2 2 5
2 2 5
2 2 5
2 2 5
2 2 5
2 2 5
2 2 5
2 2 5
2 2 5
2 2 5
2 2 5
2 2 5
2 2 5
2 2 5
2 2 5
2 2 5
2 2 5
2 2 5
2 2 5
2 2 5
2 2 5
2 2 5
2 2 5
2 2 5
2 2 5
2 2 5
2 2 5
2 2 5
2 2 5
2 2 5
2 2 5
2 2 5
2 2 5
2 2 5
2 2 5
2 2 5
2 2 5
2 2 5
2 2 5
2 2 5
2 2 5
2 2 5
2 2 5
2 2 5
2 2 5
2 2 5
2 2 5
2 2 5
2 2 5
2 2 5
2 2 5
2 2 5
2 2 5
2 2 5
2 2 5
2 2 5
2 2 5
2 2 5
2 2 5
2 2 5
2 2 5
2 2 5
2 2 5
2 2 5
2 2 5
2 2 5
2 2 5
2 2 5
2 2 5
2 2 5
2 2 5
2 2 5
2 2 5
2 2 5
2 2 5
2 2 5
2 2 5
2 2 5
2 2 5
2 2 5
2 2 5
2 2 5
38 25 27
54 34 57
105 71 56
49 38 34
35 23 24
42 28 29
41 27 29
88 58 48
61 41 34
85 55 62
38 25 27
42 28 29
75 57 67
49 32 33
69 46 40
42 28 29
52 38 33
41 27 29
40 26 28
50 37 34
42 28 30
43 29 30
42 28 29
84 49 63
129 58 75
44 29 31
46 34 36
40 26 28
39 26 27
43 28 30
94 49 62
44 29 30
38 25 27
81 63 50
42 28 29
43 29 30
45 30 32
97 60 48
113 48 58
255 178 178
109 76 57
82 61 55
83 40 48
42 28 30
40 26 28
81 58 50
134 76 66
63 52 44
39 26 28
40 27 28
60 47 49
42 28 29
39 26 27
41 27 29
41 27 29
41 27 29
39 26 28
85 81 54
71 71 49
100 100 62
68 68 47
96 87 57
71 71 49
123 104 65
77 77 52
88 97 66
64 64 44
105 94 63
79 79 54
81 94 55
98 88 66
98 122 76
97 107 70
98 93 62
79 79 53
75 75 51
69 69 47
84 84 57
115 103 69
99 109 67
165 174 81
109 105 67
75 80 54
69 69 48
103 86 60
76 72 48
72 72 49
75 75 51
87 91 59
73 70 48
71 71 48
84 88 56
94 82 56
89 97 60
71 71 48
75 75 52
96 86 61
61 61 42
122 111 77
83 77 55
76 76 52
156 102 78
66 66 45
73 73 50
67 67 46
53 53 37
76 72 76
123 100 61
77 84 51
60 60 41
57 57 39
92 100 60
80 83 51
54 54 37
70 70 48
65 65 45
2 2 5
2 2 5
2 2 5
2 2 5
2 2 5
2 2 5
2 2 5
2 2 5
2 2 5
2 2 5
2 2 5
2 2 5
2 2 5
2 2 5
2 2 5
2 2 5
2 2 5
2 2 5
2 2 5
2 2 5
2 2 5
2 2 5
2 2 5
2 2 5
2 2 5
2 2 5
2 2 5
2 2 5
2 2 5
2 2 5
2 2 5
2 2 5
2 2 5
2 2 5
2 2 5
2 2 5
2 2 5
2 2 5
2 2 5
2 2 5
2 2 5
2 2 5
2 2 5
2 2 5
2 2 5
2 2 5
2 2 5
2 2 5
2 2 5
2 2 5
2 2 5
2 2 5
2 2 5
2 2 5
2 2 5
2 2 5
2 2 5
2 2 5
2 2 5
2 2 5
2 2 5
2 2 5
2 2 5
2 2 5
2 2 5
2 2 5
2 2 5
2 2 5
2 2 5
2 2 5
2 2 5
2 2 5
2 2 5
2 2 5
2 2 5
2 2 5
2 2 5
2 2 5
2 2 5
2 2 5
2 2 5
2 2 5
2 2 5
2 2 5
2 2 5
2 2 5
2 2 5
2 2 5
2 2 5
2 2 5
2 2 5
2 2 5
2 2 5
2 2 5
2 2 5
2 2 5
2 2 5
2 2 5
2 2 5
2 2 5
2 2 5
2 2 5
2 2 5
2 2 5
2 2 5
2 2 5
2 2 5
2 2 5
2 2 5
2 2 5
2 2 5
2 2 5
2 2 5
2 2 5
2 2 5
2 2 5
2 2 5
2 2 5
2 2 5
2 2 5
2 2 5
2 2 5
2 2 5
2 2 5
2 2 5
2 2 5
2 2 5
2 2 5
2 2 5
2 2 5
2 2 5
2 2 5
2 2 5
2 2 5
2 2 5
2 2 5
2 2 5
2 2 5
2 2 5
2 2 5
2 2 5
2 2 5
2 2 5
2 2 5
2 2 5
2 2 5
2 2 5
2 2 5
2 2 5
2 2 5
2 2 5
2 2 5
2 2 5
2 2 5
2 2 5
2 2 5
2 2 5
2 2 5
2 2 5
2 2 5
2 2 5
2 2 5
2 2 5
2 2 5
2 2 5
2 2 5
2 2 5
2 2 5
2 2 5
2 2 5
2 2 5
2 2 5
2 2 5
2 2 5
2 2 5
2 2 5
2 2 5
2 2 5
2 2 5
2 2 5
2 2 5
2 2 5
2 2 5
2 2 5
2 2 5
2 2 5
2 2 5
2 2 5
2 2 5
2 2 5
2 2 5
2 2 5
2 2 5
2 2 5
2 2 5
2 2 5
2 2 5
2 2 5
2 2 5
2 2 5
2 2 5
2 2 5
2 2 5
2 2 5
2 2 5
2 2 5
2 2 5
2 2 5
2 2 5
2 2 5
2 2 5
2 2 5
2 2 5
2 2 5
2 2 5
2 2 5
2 2 5
2 2 5
2 2 5
2 2 5
2 2 5
2 2 5
2 2 5
2 2 5
2 2 5
2 2 5
2 2 5
2 2 5
2 2 5
2 2 5
2 2 5
2 2 5
2 2 5
2 2 5
2 2 5
2 2 5
2 2 5
2 2 5
2 2 5
2 2 5
2 2 5
2 2 5
2 2 5
2 2 5
2 2 5
2 2 5
2 2 5
2 2 5
2 2 5
2 2 5
2 2 5
2 2 5
2 2 5
2 2 5
2 2 5
2 2 5
2 2 5
2 2 5
2 2 5
2 2 5
2 2 5
2 2 5
2 2 5
2 2 5
2 2 5
2 2 5
2 2 5
2 2 5
2 2 5
2 2 5
2 2 5
2 2 5
2 2 5
2 2 5
2 2 5
2 2 5
2 2 5
2 2 5
2 2 5
2 2 5
2 2 5
2 2 5
2 2 5
52 41 35
36 24 25
39 26 28
38 25 26
81 40 38
78 52 43
35 23 25
98 71 45
35 23 28
41 27 28
120 76 60
100 54 52
41 27 29
51 31 35
83 55 45
69 39 47
36 24 25
38 25 27
86 87 53
139 124 71
54 40 37
63 47 51
96 69 52
43 29 30
68 59 41
53 35 32
77 42 48
58 58 44
41 27 28
49 36 33
41 27 29
74 42 46
58 43 38
62 49 42
44 29 31
67 44 39
77 39 45
122 81 63
96 64 75
211 57 68
37 24 26
82 41 62
37 25 26
40 27 28
61 33 35
59 39 41
43 28 30
39 26 27
37 25 26
74 52 40
106 67 53
45 30 31
59 46 40
96 68 43
46 30 42
50 32 43
42 28 29
41 27 29
75 84 55
114 149 78
104 126 64
94 86 71
64 64 44
79 79 54
104 105 66
73 73 50
78 78 53
64 64 44
63 63 44
79 79 52
81 81 55
110 101 68
255 255 178
83 83 56
69 69 47
118 94 65
78 78 54
75 75 51
70 70 48
94 102 63
151 102 68
242 142 123
82 82 56
132 115 65
101 89 58
81 81 55
109 94 60
63 63 43
59 59 49
67 67 46
86 93 58
112 105 71
142 206 84
79 79 54
92 84 56
84 84 51
78 78 53
81 81 55
66 66 45
78 78 53
112 101 68
54 54 38
97 137 80
185 245 123
75 75 52
67 67 46
77 72 53
93 87 59
64 64 44
61 61 42
111 118 87
76 76 52
61 61 42
72 72 49
56 56 39
66 66 45
78 73 47
68 68 47
2 2 5
2 2 5
2 2 5
2 2 5
2 2 5
2 2 5
2 2 5
2 2 5
2 2 5
2 2 5
2 2 5
2 2 5
2 2 5
2 2 5
2 2 5
2 2 5
2 2 5
2 2 5
2 2 5
2 2 5
2 2 5
2 2 5
2 2 5
2 2 5
2 2 5
2 2 5
2 2 5
2 2 5
2 2 5
2 2 5
2 2 5
2 2 5
2 2 5
2 2 5
2 2 5
2 2 5
2 2 5
2 2 5
2 2 5
2 2 5
2 2 5
2 2 5
2 2 5
2 2 5
2 2 5
2 2 5
2 2 5
2 2 5
2 2 5
2 2 5
2 2 5
2 2 5
2 2 5
2 2 5
2 2 5
2 2 5
2 2 5
2 2 5
2 2 5
2 2 5
2 2 5
2 2 5
2 2 5
2 2 5
2 2 5
2 2 5
2 2 5
2 2 5
2 2 5
2 2 5
2 2 5
2 2 5
2 2 5
2 2 5
2 2 5
2 2 5
2 2 5
2 2 5
2 2 5
2 2 5
2 2 5
2 2 5
2 2 5
2 2 5
2 2 5
2 2 5
2 2 5
2 2 5
2 2 5
2 2 5
2 2 5
2 2 5
2 2 5
2 2 5
2 2 5
2 2 5
2 2 5
2 2 5
2 2 5
2 2 5
2 2 5
2 2 5
2 2 5
2 2 5
2 2 5
2 2 5
2 2 5
2 2 5
2 2 5
2 2 5
2 2 5
2 2 5
2 2 5
2 2 5
2 2 5
2 2 5
2 2 5
2 2 5
2 2 5
2 2 5
2 2 5
2 2 5
2 2 5
2 2 5
2 2 5
2 2 5
2 2 5
2 2 5
2 2 5
2 2 5
2 2 5
2 2 5
2 2 5
2 2 5
2 2 5
2 2 5
2 2 5
2 2 5
2 2 5
2 2 5
2 2 5
2 2 5
2 2 5
2 2 5
2 2 5
2 2 5
2 2 5
2 2 5
2 2 5
2 2 5
2 2 5
2 2 5
2 2 5
2 2 5
2 2 5
2 2 5
2 2 5
2 2 5
2 2 5
2 2 5
2 2 5
2 2 5
2 2 5
2 2 5
2 2 5
2 2 5
2 2 5
2 2 5
2 2 5
2 2 5
2 2 5
2 2 5
2 2 5
2 2 5
2 2 5
2 2 5
2 2 5
2 2 5
2 2 5
2 2 5
2 2 5
2 2 5
2 2 5
2 2 5
2 2 5
2 2 5
2 2 5
2 2 5
2 2 5
2 2 5
2 2 5
2 2 5
2 2 5
2 2 5
2 2 5
2 2 5
2 2 5
2 2 5
2 2 5
2 2 5
2 2 5
2 2 5
2 2 5
2 2 5
2 2 5
2 2 5
2 2 5
2 2 5
2 2 5
2 2 5
2 2 5
2 2 5
2 2 5
2 2 5
2 2 5
2 2 5
2 2 5
2 2 5
2 2 5
2 2 5
2 2 5
2 2 5
2 2 5
2 2 5
2 2 5
2 2 5
2 2 5
2 2 5
2 2 5
2 2 5
2 2 5
2 2 5
2 2 5
2 2 5
2 2 5
2 2 5
2 2 5
2 2 5
2 2 5
2 2 5
2 2 5
2 2 5
2 2 5
2 2 5
2 2 5
2 2 5
2 2 5
2 2 5
2 2 5
2 2 5
2 2 5
2 2 5
2 2 5
2 2 5
2 2 5
2 2 5
2 2 5
2 2 5
2 2 5
2 2 5
2 2 5
2 2 5
2 2 5
2 2 5
2 2 5
2 2 5
2 2 5
2 2 5
2 2 5
2 2 5
2 2 5
2 2 5
2 2 5
2 2 5
2 2 5
2 2 5
2 2 5
2 2 5
2 2 5
47 28 31
37 25 26
35 23 25
33 22 23
34 22 24
43 28 30
36 24 25
37 25 26
255 133 189
36 24 25
38 25 38
54 39 36
41 27 29
57 45 38
35 23 25
58 44 39
41 27 29
44 29 31
61 45 45
40 27 27
36 24 26
39 26 27
59 37 40
49 35 36
45 30 31
45 30 31
42 28 29
44 29 31
38 25 27
37 25 26
72 48 40
73 41 50
39 26 28
66 65 57
81 47 47
41 27 29
46 30 32
81 59 47
43 28 30
40 27 28
39 26 27
90 89 59
39 26 28
42 28 30
41 27 28
41 27 29
45 30 31
67 39 53
43 29 30
37 24 26
62 48 48
45 30 31
39 26 27
107 63 51
39 26 27
81 70 51
41 27 29
93 62 52
81 40 49
39 26 27
60 40 42
89 100 59
109 98 66
133 114 79
87 98 66
72 72 49
133 152 72
99 104 58
80 75 51
93 103 68
73 81 52
68 68 47
68 68 47
109 99 64
120 96 76
71 71 49
71 71 49
197 156 81
96 103 65
116 104 66
166 124 87
69 69 47
89 81 55
112 135 68
86 91 58
69 69 47
102 112 70
70 70 48
95 102 61
76 76 52
68 68 46
70 70 48
92 94 61
71 71 49
85 85 58
78 78 54
64 64 44
65 65 45
93 104 71
134 103 76
222 255 136
146 119 71
69 76 44
65 65 45
66 66 45
67 67 46
107 130 66
50 50 35
88 94 58
121 147 87
58 58 40
90 102 61
65 63 42
82 72 49
76 76 52
183 242 161
60 64 40
55 55 38
69 69 47
61 61 42
70 63 42
72 82 49
2 2 5
2 2 5
2 2 5
2 2 5
2 2 5
2 2 5
2 2 5
2 2 5
2 2 5
2 2 5
2 2 5
2 2 5
2 2 5
2 2 5
2 2 5
2 2 5
2 2 5
2 2 5
2 2 5
2 2 5
2 2 5
2 2 5
2 2 5
2 2 5
2 2 5
2 2 5
2 2 5
2 2 5
2 2 5
2 2 5
2 2 5
2 2 5
2 2 5
2 2 5
2 2 5
2 2 5
2 2 5
2 2 5
2 2 5
2 2 5
2 2 5
2 2 5
2 2 5
2 2 5
2 2 5
2 2 5
2 2 5
2 2 5
2 2 5
2 2 5
2 2 5
2 2 5
2 2 5
2 2 5
2 2 5
2 2 5
2 2 5
2 2 5
2 2 5
2 2 5
2 2 5
2 2 5
2 2 5
2 2 5
2 2 5
2 2 5
2 2 5
2 2 5
2 2 5
2 2 5
2 2 5
2 2 5
2 2 5
2 2 5
2 2 5
2 2 5
2 2 5
2 2 5
2 2 5
2 2 5
2 2 5
2 2 5
2 2 5
2 2 5
2 2 5
2 2 5
2 2 5
2 2 5
2 2 5
2 2 5
2 2 5
2 2 5
2 2 5
2 2 5
2 2 5
2 2 5
2 2 5
2 2 5
2 2 5
2 2 5
2 2 5
2 2 5
2 2 5
2 2 5
2 2 5
2 2 5
2 2 5
2 2 5
2 2 5
2 2 5
2 2 5
2 2 5
2 2 5
2 2 5
2 2 5
2 2 5
2 2 5
2 2 5
2 2 5
2 2 5
2 2 5
2 2 5
2 2 5
2 2 5
2 2 5
2 2 5
2 2 5
2 2 5
2 2 5
2 2 5
2 2 5
2 2 5
2 2 5
2 2 5
2 2 5
2 2 5
2 2 5
2 2 5
2 2 5
2 2 5
2 2 5
2 2 5
2 2 5
2 2 5
2 2 5
2 2 5
2 2 5
2 2 5
2 2 5
2 2 5
2 2 5
2 2 5
2 2 5
2 2 5
2 2 5
2 2 5
2 2 5
2 2 5
2 2 5
2 2 5
2 2 5
2 2 5
2 2 5
2 2 5
2 2 5
2 2 5
2 2 5
2 2 5
2 2 5
2 2 5
2 2 5
2 2 5
2 2 5
2 2 5
2 2 5
2 2 5
2 2 5
2 2 5
2 2 5
2 2 5
2 2 5
2 2 5
2 2 5
2 2 5
2 2 5
2 2 5
2 2 5
2 2 5
2 2 5
2 2 5
2 2 5
2 2 5
2 2 5
2 2 5
2 2 5
2 2 5
2 2 5
2 2 5
2 2 5
2 2 5
2 2 5
2 2 5
2 2 5
2 2 5
2 2 5
2 2 5
2 2 5
2 2 5
2 2 5
2 2 5
2 2 5
2 2 5
2 2 5
2 2 5
2 2 5
2 2 5
2 2 5
2 2 5
2 2 5
2 2 5
2 2 5
2 2 5
2 2 5
2 2 5
2 2 5
2 2 5
2 2 5
2 2 5
2 2 5
2 2 5
2 2 5
2 2 5
2 2 5
2 2 5
2 2 5
2 2 5
2 2 5
2 2 5
2 2 5
2 2 5
2 2 5
2 2 5
2 2 5
2 2 5
2 2 5
2 2 5
2 2 5
2 2 5
2 2 5
2 2 5
2 2 5
2 2 5
2 2 5
2 2 5
2 2 5
2 2 5
2 2 5
2 2 5
2 2 5
2 2 5
2 2 5
2 2 5
2 2 5
2 2 5
2 2 5
2 2 5
2 2 5
2 2 5
2 2 5
2 2 5
2 2 5
2 2 5
2 2 5
2 2 5
2 2 5
2 2 5
2 2 5
2 2 5
33 22 23
36 24 26
88 55 51
66 44 37
36 24 25
71 63 56
43 28 30
39 26 27
39 26 28
67 51 42
73 49 41
90 60 50
44 29 30
46 30 32
160 91 66
38 25 27
39 26 27
42 28 30
38 25 27
59 46 40
49 30 34
57 38 34
41 27 28
37 24 26
70 60 43
38 25 26
45 30 31
105 74 54
90 48 72
38 25 27
57 35 38
62 43 38
59 35 34
96 64 53
46 30 29
41 27 28
41 27 29
122 58 73
38 25 27
38 25 27
65 43 36
39 26 28
48 34 32
47 31 33
87 48 48
42 28 30
41 27 29
40 26 28
70 39 48
196 76 95
46 31 32
40 26 28
85 78 51
40 26 28
79 57 52
64 51 52
57 33 39
70 43 41
41 27 29
38 25 27
146 80 57
68 68 46
77 77 53
87 82 53
113 91 62
121 112 63
74 74 61
75 75 51
82 75 51
102 92 62
82 87 53
84 84 57
113 99 63
75 75 51
111 87 62
68 68 46
112 97 65
69 69 47
84 92 56
75 75 51
85 85 58
86 78 58
105 108 66
79 79 54
76 76 52
179 132 93
78 78 53
78 78 54
85 85 58
80 80 54
64 64 44
67 67 46
255 156 135
68 68 47
122 142 70
119 118 68
67 67 46
69 69 47
69 69 48
86 93 63
122 129 68
73 73 50
97 91 60
70 70 48
88 81 60
97 85 57
82 82 55
255 222 202
61 61 42
111 92 65
68 68 46
92 96 65
255 255 190
72 72 49
85 78 55
53 53 37
81 75 50
106 117 78
96 127 59
97 76 61
68 68 46
48 48 33
62 62 42
58 58 40
67 67 46
2 2 5
2 2 5
2 2 5
2 2 5
2 2 5
2 2 5
2 2 5
2 2 5
2 2 5
2 2 5
2 2 5
2 2 5
2 2 5
2 2 5
2 2 5
2 2 5
2 2 5
2 2 5
2 2 5
2 2 5
2 2 5
2 2 5
2 2 5
2 2 5
2 2 5
2 2 5
2 2 5
2 2 5
2 2 5
2 2 5
2 2 5
2 2 5
2 2 5
2 2 5
2 2 5
2 2 5
2 2 5
2 2 5
2 2 5
2 2 5
2 2 5
2 2 5
2 2 5
2 2 5
2 2 5
2 2 5
2 2 5
2 2 5
2 2 5
2 2 5
2 2 5
2 2 5
2 2 5
2 2 5
2 2 5
2 2 5
2 2 5
2 2 5
2 2 5
2 2 5
2 2 5
2 2 5
2 2 5
2 2 5
2 2 5
2 2 5
2 2 5
2 2 5
2 2 5
2 2 5
2 2 5
2 2 5
2 2 5
2 2 5
2 2 5
2 2 5
2 2 5
2 2 5
2 2 5
2 2 5
2 2 5
2 2 5
2 2 5
2 2 5
2 2 5
2 2 5
2 2 5
2 2 5
2 2 5
2 2 5
2 2 5
2 2 5
2 2 5
2 2 5
2 2 5
2 2 5
2 2 5
2 2 5
2 2 5
2 2 5
2 2 5
2 2 5
2 2 5
2 2 5
2 2 5
2 2 5
2 2 5
2 2 5
2 2 5
2 2 5
2 2 5
2 2 5
2 2 5
2 2 5
2 2 5
2 2 5
2 2 5
2 2 5
2 2 5
2 2 5
2 2 5
2 2 5
2 2 5
2 2 5
2 2 5
2 2 5
2 2 5
2 2 5
2 2 5
2 2 5
2 2 5
2 2 5
2 2 5
2 2 5
2 2 5
2 2 5
2 2 5
2 2 5
2 2 5
2 2 5
2 2 5
2 2 5
2 2 5
2 2 5
2 2 5
2 2 5
2 2 5
2 2 5
2 2 5
2 2 5
2 2 5
2 2 5
2 2 5
2 2 5
2 2 5
2 2 5
2 2 5
2 2 5
2 2 5
2 2 5
2 2 5
2 2 5
2 2 5
2 2 5
2 2 5
2 2 5
2 2 5
2 2 5
2 2 5
2 2 5
2 2 5
2 2 5
2 2 5
2 2 5
2 2 5
2 2 5
2 2 5
2 2 5
2 2 5
2 2 5
2 2 5
2 2 5
2 2 5
2 2 5
2 2 5
2 2 5
2 2 5
2 2 5
2 2 5
2 2 5
2 2 5
2 2 5
2 2 5
2 2 5
2 2 5
2 2 5
2 2 5
2 2 5
2 2 5
2 2 5
2 2 5
2 2 5
2 2 5
2 2 5
2 2 5
2 2 5
2 2 5
2 2 5
2 2 5
2 2 5
2 2 5
2 2 5
2 2 5
2 2 5
2 2 5
2 2 5
2 2 5
2 2 5
2 2 5
2 2 5
2 2 5
2 2 5
2 2 5
2 2 5
2 2 5
2 2 5
2 2 5
2 2 5
2 2 5
2 2 5
2 2 5
2 2 5
2 2 5
2 2 5
2 2 5
2 2 5
2 2 5
2 2 5
2 2 5
2 2 5
2 2 5
2 2 5
2 2 5
2 2 5
2 2 5
2 2 5
2 2 5
2 2 5
2 2 5
2 2 5
2 2 5
2 2 5
2 2 5
2 2 5
2 2 5
2 2 5
2 2 5
2 2 5
2 2 5
2 2 5
2 2 5
2 2 5
2 2 5
2 2 5
2 2 5
2 2 5
2 2 5
2 2 5
2 2 5
2 2 5
2 2 5
2 2 5
2 2 5
2 2 5
35 24 31
66 42 38
62 39 45
34 23 24
38 25 27
38 25 26
59 32 34
36 24 26
70 63 52
38 25 27
43 29 30
36 24 25
74 60 48
59 46 48
82 64 46
41 27 29
112 94 87
75 72 55
87 50 40
66 44 40
79 53 42
72 42 49
40 27 28
105 77 55
71 63 48
57 35 38
58 35 36
255 179 179
85 56 51
37 24 26
37 25 27
54 33 31
57 40 36
40 27 28
40 26 28
40 27 28
53 41 36
79 43 68
47 29 33
88 53 48
41 27 28
38 25 27
40 26 28
39 26 27
58 46 40
42 28 29
71 50 46
62 41 36
89 57 49
40 26 28
42 28 29
49 36 34
74 65 55
87 59 49
97 61 60
41 27 29
39 26 27
255 176 176
62 43 39
64 48 37
39 26 28
78 43 49
73 76 49
71 71 49
97 79 57
107 94 73
78 78 53
86 94 64
99 107 60
68 68 47
73 73 50
83 83 56
103 113 64
66 66 45
146 173 84
149 125 74
78 78 53
124 115 73
133 96 78
76 76 52
128 175 78
131 128 107
73 73 50
105 105 62
102 124 58
79 79 54
219 255 146
114 102 69
72 72 49
96 106 65
69 69 47
88 93 59
61 61 42
127 140 82
118 121 76
254 255 129
81 90 54
71 71 60
71 71 49
197 135 82
74 74 51
61 61 42
62 62 43
67 67 46
65 65 44
59 59 41
98 107 71
83 79 53
71 71 49
72 72 50
89 89 55
58 58 40
74 74 50
96 88 56
82 75 51
61 61 42
51 51 35
64 64 44
66 66 45
59 59 41
107 98 58
100 89 60
61 55 41
66 66 45
67 73 41
58 58 39
2 2 5
2 2 5
2 2 5
2 2 5
2 2 5
2 2 5
2 2 5
2 2 5
2 2 5
2 2 5
2 2 5
2 2 5
2 2 5
2 2 5
2 2 5
2 2 5
2 2 5
2 2 5
2 2 5
2 2 5
2 2 5
2 2 5
2 2 5
2 2 5
2 2 5
2 2 5
2 2 5
2 2 5
2 2 5
2 2 5
2 2 5
2 2 5
2 2 5
2 2 5
2 2 5
2 2 5
2 2 5
2 2 5
2 2 5
2 2 5
2 2 5
2 2 5
2 2 5
2 2 5
2 2 5
2 2 5
2 2 5
2 2 5
2 2 5
2 2 5
2 2 5
2 2 5
2 2 5
2 2 5
2 2 5
2 2 5
2 2 5
2 2 5
2 2 5
2 2 5
2 2 5
2 2 5
2 2 5
2 2 5
2 2 5
2 2 5
2 2 5
2 2 5
2 2 5
2 2 5
2 2 5
2 2 5
2 2 5
2 2 5
2 2 5
2 2 5
2 2 5
2 2 5
2 2 5
2 2 5
2 2 5
2 2 5
2 2 5
2 2 5
2 2 5
2 2 5
2 2 5
2 2 5
2 2 5
2 2 5
2 2 5
2 2 5
2 2 5
2 2 5
2 2 5
2 2 5
2 2 5
2 2 5
2 2 5
2 2 5
2 2 5
2 2 5
2 2 5
2 2 5
2 2 5
2 2 5
2 2 5
2 2 5
2 2 5
2 2 5
2 2 5
2 2 5
2 2 5
2 2 5
2 2 5
2 2 5
2 2 5
2 2 5
2 2 5
2 2 5
2 2 5
2 2 5
2 2 5
2 2 5
2 2 5
2 2 5
2 2 5
2 2 5
2 2 5
2 2 5
2 2 5
2 2 5
2 2 5
2 2 5
2 2 5
2 2 5
2 2 5
2 2 5
2 2 5
2 2 5
2 2 5
2 2 5
2 2 5
2 2 5
2 2 5
2 2 5
2 2 5
2 2 5
2 2 5
2 2 5
2 2 5
2 2 5
2 2 5
2 2 5
2 2 5
2 2 5
2 2 5
2 2 5
2 2 5
2 2 5
2 2 5
2 2 5
2 2 5
2 2 5
2 2 5
2 2 5
2 2 5
2 2 5
2 2 5
2 2 5
2 2 5
2 2 5
2 2 5
2 2 5
2 2 5
2 2 5
2 2 5
2 2 5
2 2 5
2 2 5
2 2 5
2 2 5
2 2 5
2 2 5
2 2 5
2 2 5
2 2 5
2 2 5
2 2 5
2 2 5
2 2 5
2 2 5
2 2 5
2 2 5
2 2 5
2 2 5
2 2 5
2 2 5
2 2 5
2 2 5
2 2 5
2 2 5
2 2 5
2 2 5
2 2 5
2 2 5
2 2 5
2 2 5
2 2 5
2 2 5
2 2 5
2 2 5
2 2 5
2 2 5
2 2 5
2 2 5
2 2 5
2 2 5
2 2 5
2 2 5
2 2 5
2 2 5
2 2 5
2 2 5
2 2 5
2 2 5
2 2 5
2 2 5
2 2 5
2 2 5
2 2 5
2 2 5
2 2 5
2 2 5
2 2 5
2 2 5
2 2 5
2 2 5
2 2 5
2 2 5
2 2 5
2 2 5
2 2 5
2 2 5
2 2 5
2 2 5
2 2 5
2 2 5
2 2 5
2 2 5
2 2 5
2 2 5
2 2 5
2 2 5
2 2 5
2 2 5
2 2 5
2 2 5
2 2 5
2 2 5
2 2 5
2 2 5
2 2 5
2 2 5
2 2 5
2 2 5
2 2 5
2 2 5
2 2 5
2 2 5
2 2 5
65 46 36
88 46 56
31 21 22
75 48 37
80 44 40
73 48 41
65 51 51
58 45 37
101 64 55
39 26 27
37 24 26
40 26 28
81 57 44
40 27 28
41 27 29
40 26 28
44 29 31
121 54 66
45 30 31
76 55 46
49 34 41
41 27 29
125 53 65
95 40 51
46 30 46
55 36 38
85 61 46
37 25 26
42 28 29
74 54 46
41 27 28
69 52 43
40 26 28
42 28 30
41 27 29
43 28 30
133 67 77
38 25 27
45 30 31
38 25 27
39 26 27
37 24 26
49 37 33
100 67 54
40 26 28
38 25 27
39 26 27
42 28 29
85 73 52
78 47 59
39 26 28
77 51 44
39 26 28
37 25 26
61 47 49
83 47 52
47 31 33
40 27 28
41 27 28
44 29 30
65 51 44
60 54 45
46 34 36
107 95 63
118 50 57
72 72 45
68 68 47
106 136 80
101 97 62
69 69 47
100 110 65
66 66 45
77 77 53
77 77 53
80 80 55
75 75 52
82 85 57
85 85 58
70 70 48
120 100 61
127 115 72
74 74 51
75 75 51
70 70 48
74 74 51
77 77 53
71 71 49
71 71 49
85 85 58
78 78 53
110 127 75
74 74 51
118 134 95
73 73 50
94 106 72
62 62 43
149 127 76
84 84 58
255 226 150
95 111 64
123 113 67
62 62 43
93 85 57
89 81 55
78 83 52
74 74 51
78 78 53
95 85 57
72 72 49
103 92 58
104 111 65
200 242 125
110 129 76
83 82 71
61 61 42
61 61 60
123 97 70
84 74 50
90 79 53
56 56 38
60 60 41
88 88 59
67 67 46
79 82 49
255 255 187
61 65 42
60 60 41
74 81 53
57 57 39
52 52 36
64 64 44
2 2 5
2 2 5
2 2 5
2 2 5
2 2 5
2 2 5
2 2 5
2 2 5
2 2 5
2 2 5
2 2 5
2 2 5
2 2 5
2 2 5
2 2 5
2 2 5
2 2 5
2 2 5
2 2 5
2 2 5
2 2 5
2 2 5
2 2 5
2 2 5
2 2 5
2 2 5
2 2 5
2 2 5
2 2 5
2 2 5
2 2 5
2 2 5
2 2 5
2 2 5
2 2 5
2 2 5
2 2 5
2 2 5
2 2 5
2 2 5
2 2 5
2 2 5
2 2 5
2 2 5
2 2 5
2 2 5
2 2 5
2 2 5
2 2 5
2 2 5
2 2 5
2 2 5
2 2 5
2 2 5
2 2 5
2 2 5
2 2 5
2 2 5
2 2 5
2 2 5
2 2 5
2 2 5
2 2 5
2 2 5
2 2 5
2 2 5
2 2 5
2 2 5
2 2 5
2 2 5
2 2 5
2 2 5
2 2 5
2 2 5
2 2 5
2 2 5
2 2 5
2 2 5
2 2 5
2 2 5
2 2 5
2 2 5
2 2 5
2 2 5
2 2 5
2 2 5
2 2 5
2 2 5
2 2 5
2 2 5
2 2 5
2 2 5
2 2 5
2 2 5
2 2 5
2 2 5
2 2 5
2 2 5
2 2 5
2 2 5
2 2 5
2 2 5
2 2 5
2 2 5
2 2 5
2 2 5
2 2 5
2 2 5
2 2 5
2 2 5
2 2 5
2 2 5
2 2 5
2 2 5
2 2 5
2 2 5
2 2 5
2 2 5
2 2 5
2 2 5
2 2 5
2 2 5
2 2 5
2 2 5
2 2 5
2 2 5
2 2 5
2 2 5
2 2 5
2 2 5
2 2 5
2 2 5
2 2 5
2 2 5
2 2 5
2 2 5
2 2 5
2 2 5
2 2 5
2 2 5
2 2 5
2 2 5
2 2 5
2 2 5
2 2 5
2 2 5
2 2 5
2 2 5
2 2 5
2 2 5
2 2 5
2 2 5
2 2 5
2 2 5
2 2 5
2 2 5
2 2 5
2 2 5
2 2 5
2 2 5
2 2 5
2 2 5
2 2 5
2 2 5
2 2 5
2 2 5
2 2 5
2 2 5
2 2 5
2 2 5
2 2 5
2 2 5
2 2 5
2 2 5
2 2 5
2 2 5
2 2 5
2 2 5
2 2 5
2 2 5
2 2 5
2 2 5
2 2 5
2 2 5
2 2 5
2 2 5
2 2 5
2 2 5
2 2 5
2 2 5
2 2 5
2 2 5
2 2 5
2 2 5
2 2 5
2 2 5
2 2 5
2 2 5
2 2 5
2 2 5
2 2 5
2 2 5
2 2 5
2 2 5
2 2 5
2 2 5
2 2 5
2 2 5
2 2 5
2 2 5
2 2 5
2 2 5
2 2 5
2 2 5
2 2 5
2 2 5
2 2 5
2 2 5
2 2 5
2 2 5
2 2 5
2 2 5
2 2 5
2 2 5
2 2 5
2 2 5
2 2 5
2 2 5
2 2 5
2 2 5
2 2 5
2 2 5
2 2 5
2 2 5
2 2 5
2 2 5
2 2 5
2 2 5
2 2 5
2 2 5
2 2 5
2 2 5
2 2 5
2 2 5
2 2 5
2 2 5
2 2 5
2 2 5
2 2 5
2 2 5
2 2 5
2 2 5
2 2 5
2 2 5
2 2 5
2 2 5
2 2 5
2 2 5
2 2 5
2 2 5
2 2 5
2 2 5
2 2 5
2 2 5
2 2 5
2 2 5
2 2 5
56 33 34
34 22 24
35 23 25
64 58 42
34 23 24
87 88 66
40 26 28
127 92 69
243 114 162
37 25 26
59 39 34
60 42 33
40 26 28
36 24 25
52 39 34
39 26 27
113 81 58
38 25 27
80 58 40
68 49 43
38 25 27
58 40 54
70 41 36
41 27 29
40 27 28
79 52 42
37 25 26
38 25 26
39 26 27
65 52 42
39 26 27
75 61 57
55 43 44
69 52 42
44 29 31
92 49 63
64 39 51
100 66 54
45 30 31
40 27 28
39 26 27
108 91 74
255 86 115
93 60 66
69 60 57
90 65 51
56 37 34
43 29 30
39 26 27
63 44 36
255 178 178
80 58 45
41 27 29
61 43 49
131 64 75
101 70 58
74 41 50
72 48 40
61 41 36
43 29 30
58 34 35
57 35 36
133 77 58
40 26 28
43 29 30
55 43 38
255 178 178
137 118 68
97 87 59
109 98 66
71 78 52
119 119 69
158 128 75
67 67 46
110 121 88
113 99 66
84 84 57
77 77 53
87 95 59
111 121 80
78 78 53
91 84 62
89 100 66
100 121 65
80 84 54
111 123 67
107 90 63
123 110 89
88 96 65
65 65 45
190 253 127
106 99 63
82 82 56
80 80 54
79 79 54
123 114 69
79 79 54
72 72 50
255 255 197
61 61 42
71 71 49
66 66 46
68 68 47
102 111 83
69 69 47
69 69 48
85 89 58
255 227 151
82 82 56
65 65 45
60 60 41
94 81 52
111 118 59
73 73 50
114 116 65
70 70 48
66 66 45
72 81 55
69 69 47
62 62 43
64 64 44
105 105 64
113 171 88
62 62 43
113 105 71
88 100 56
59 59 40
145 128 60
65 65 45
117 94 61
57 57 40
56 56 38
99 77 61
88 74 53
122 94 59
2 2 5
2 2 5
2 2 5
2 2 5
2 2 5
2 2 5
2 2 5
2 2 5
2 2 5
2 2 5
2 2 5
2 2 5
2 2 5
2 2 5
2 2 5
2 2 5
2 2 5
2 2 5
2 2 5
2 2 5
2 2 5
2 2 5
2 2 5
2 2 5
2 2 5
2 2 5
2 2 5
2 2 5
2 2 5
2 2 5
2 2 5
2 2 5
2 2 5
2 2 5
2 2 5
2 2 5
2 2 5
2 2 5
2 2 5
2 2 5
2 2 5
2 2 5
2 2 5
2 2 5
2 2 5
2 2 5
2 2 5
2 2 5
2 2 5
2 2 5
2 2 5
2 2 5
2 2 5
2 2 5
2 2 5
2 2 5
2 2 5
2 2 5
2 2 5
2 2 5
2 2 5
2 2 5
2 2 5
2 2 5
2 2 5
2 2 5
2 2 5
2 2 5
2 2 5
2 2 5
2 2 5
2 2 5
2 2 5
2 2 5
2 2 5
2 2 5
2 2 5
2 2 5
2 2 5
2 2 5
2 2 5
2 2 5
2 2 5
2 2 5
2 2 5
2 2 5
2 2 5
2 2 5
2 2 5
2 2 5
2 2 5
2 2 5
2 2 5
2 2 5
2 2 5
2 2 5
2 2 5
2 2 5
2 2 5
2 2 5
2 2 5
2 2 5
2 2 5
2 2 5
2 2 5
2 2 5
2 2 5
2 2 5
2 2 5
2 2 5
2 2 5
2 2 5
2 2 5
2 2 5
2 2 5
2 2 5
2 2 5
2 2 5
2 2 5
2 2 5
2 2 5
2 2 5
2 2 5
2 2 5
2 2 5
2 2 5
2 2 5
2 2 5
2 2 5
2 2 5
2 2 5
2 2 5
2 2 5
2 2 5
2 2 5
2 2 5
2 2 5
2 2 5
2 2 5
2 2 5
2 2 5
2 2 5
2 2 5
2 2 5
2 2 5
2 2 5
2 2 5
2 2 5
2 2 5
2 2 5
2 2 5
2 2 5
2 2 5
2 2 5
2 2 5
2 2 5
2 2 5
2 2 5
2 2 5
2 2 5
2 2 5
2 2 5
2 2 5
2 2 5
2 2 5
2 2 5
2 2 5
2 2 5
2 2 5
2 2 5
2 2 5
2 2 5
2 2 5
2 2 5
2 2 5
2 2 5
2 2 5
2 2 5
2 2 5
2 2 5
2 2 5
2 2 5
2 2 5
2 2 5
2 2 5
2 2 5
2 2 5
2 2 5
2 2 5
2 2 5
2 2 5
2 2 5
2 2 5
2 2 5
2 2 5
2 2 5
2 2 5
2 2 5
2 2 5
2 2 5
2 2 5
2 2 5
2 2 5
2 2 5
2 2 5
2 2 5
2 2 5
2 2 5
2 2 5
2 2 5
2 2 5
2 2 5
2 2 5
2 2 5
2 2 5
2 2 5
2 2 5
2 2 5
2 2 5
2 2 5
2 2 5
2 2 5
2 2 5
2 2 5
2 2 5
2 2 5
2 2 5
2 2 5
2 2 5
2 2 5
2 2 5
2 2 5
2 2 5
2 2 5
2 2 5
2 2 5
2 2 5
2 2 5
2 2 5
2 2 5
2 2 5
2 2 5
2 2 5
2 2 5
2 2 5
2 2 5
2 2 5
2 2 5
2 2 5
2 2 5
2 2 5
2 2 5
2 2 5
2 2 5
2 2 5
2 2 5
2 2 5
2 2 5
2 2 5
2 2 5
2 2 5
2 2 5
2 2 5
2 2 5
32 21 23
35 23 25
54 43 37
29 19 21
34 22 24
76 48 38
102 51 64
136 81 67
39 26 27
32 21 23
59 46 40
123 98 60
33 22 24
40 26 28
101 83 46
51 37 34
45 28 28
38 25 26
37 25 26
39 26 27
47 31 32
51 35 31
112 58 50
81 54 46
61 40 41
40 27 28
40 27 28
39 26 28
174 151 76
103 48 61
52 33 49
39 26 28
255 86 121
42 28 29
55 33 38
42 28 29
84 61 43
82 55 46
40 27 28
38 25 27
41 27 28
35 23 25
255 180 180
38 25 27
41 28 34
38 25 27
41 27 29
91 48 58
132 83 62
255 178 178
42 28 29
91 49 56
44 29 31
77 61 45
116 87 56
255 178 178
42 28 29
85 43 46
42 28 30
41 27 29
54 36 33
54 36 32
46 31 32
37 24 26
38 25 26
41 27 29
85 56 43
56 37 33
81 90 54
60 60 41
161 173 80
71 71 49
70 70 48
77 77 49
74 74 51
70 70 48
68 68 47
71 71 49
106 95 64
98 90 66
112 99 67
156 128 76
120 120 61
73 73 50
120 98 75
129 168 71
137 138 73
74 75 55
70 70 48
83 92 55
66 66 45
78 84 52
78 78 53
72 72 49
70 70 48
70 70 48
74 74 51
66 66 45
242 151 161
102 121 79
116 108 78
77 77 53
82 78 54
77 77 53
175 106 75
98 94 60
75 75 51
67 67 45
68 68 47
164 102 74
70 70 48
63 63 43
75 70 47
79 79 54
65 65 45
70 70 48
63 63 43
63 63 43
89 79 74
112 127 74
61 61 42
83 90 55
99 137 73
88 98 53
60 60 42
55 55 38
117 144 66
73 78 49
70 79 47
54 54 37
99 79 53
70 70 48
62 62 43
43 43 30
67 60 41
57 57 39
50 50 35
49 49 34
2 2 5
2 2 5
2 2 5
2 2 5
2 2 5
2 2 5
2 2 5
2 2 5
2 2 5
2 2 5
2 2 5
2 2 5
2 2 5
2 2 5
2 2 5
2 2 5
2 2 5
2 2 5
2 2 5
2 2 5
2 2 5
2 2 5
2 2 5
2 2 5
2 2 5
2 2 5
2 2 5
2 2 5
2 2 5
2 2 5
2 2 5
2 2 5
2 2 5
2 2 5
2 2 5
2 2 5
2 2 5
2 2 5
2 2 5
2 2 5
2 2 5
2 2 5
2 2 5
2 2 5
2 2 5
2 2 5
2 2 5
2 2 5
2 2 5
2 2 5
2 2 5
2 2 5
2 2 5
2 2 5
2 2 5
2 2 5
2 2 5
2 2 5
2 2 5
2 2 5
2 2 5
2 2 5
2 2 5
2 2 5
2 2 5
2 2 5
2 2 5
2 2 5
2 2 5
2 2 5
2 2 5
2 2 5
2 2 5
2 2 5
2 2 5
2 2 5
2 2 5
2 2 5
2 2 5
2 2 5
2 2 5
2 2 5
2 2 5
2 2 5
2 2 5
2 2 5
2 2 5
2 2 5
2 2 5
2 2 5
2 2 5
2 2 5
2 2 5
2 2 5
2 2 5
2 2 5
2 2 5
2 2 5
2 2 5
2 2 5
2 2 5
2 2 5
2 2 5
2 2 5
2 2 5
2 2 5
2 2 5
2 2 5
2 2 5
2 2 5
2 2 5
2 2 5
2 2 5
2 2 5
2 2 5
2 2 5
2 2 5
2 2 5
2 2 5
2 2 5
2 2 5
2 2 5
2 2 5
2 2 5
2 2 5
2 2 5
2 2 5
2 2 5
2 2 5
2 2 5
2 2 5
2 2 5
2 2 5
2 2 5
2 2 5
2 2 5
2 2 5
2 2 5
2 2 5
2 2 5
2 2 5
2 2 5
2 2 5
2 2 5
2 2 5
2 2 5
2 2 5
2 2 5
2 2 5
2 2 5
2 2 5
2 2 5
2 2 5
2 2 5
2 2 5
2 2 5
2 2 5
2 2 5
2 2 5
2 2 5
2 2 5
2 2 5
2 2 5
2 2 5
2 2 5
2 2 5
2 2 5
2 2 5
2 2 5
2 2 5
2 2 5
2 2 5
2 2 5
2 2 5
2 2 5
2 2 5
2 2 5
2 2 5
2 2 5
2 2 5
2 2 5
2 2 5
2 2 5
2 2 5
2 2 5
2 2 5
2 2 5
2 2 5
2 2 5
2 2 5
2 2 5
2 2 5
2 2 5
2 2 5
2 2 5
2 2 5
2 2 5
2 2 5
2 2 5
2 2 5
2 2 5
2 2 5
2 2 5
2 2 5
2 2 5
2 2 5
2 2 5
2 2 5
2 2 5
2 2 5
2 2 5
2 2 5
2 2 5
2 2 5
2 2 5
2 2 5
2 2 5
2 2 5
2 2 5
2 2 5
2 2 5
2 2 5
2 2 5
2 2 5
2 2 5
2 2 5
2 2 5
2 2 5
2 2 5
2 2 5
2 2 5
2 2 5
2 2 5
2 2 5
2 2 5
2 2 5
2 2 5
2 2 5
2 2 5
2 2 5
2 2 5
2 2 5
2 2 5
2 2 5
2 2 5
2 2 5
2 2 5
2 2 5
2 2 5
2 2 5
2 2 5
2 2 5
2 2 5
2 2 5
2 2 5
2 2 5
2 2 5
2 2 5
2 2 5
2 2 5
2 2 5
240 113 160
33 22 23
71 52 46
40 27 28
38 25 26
32 21 23
75 50 38
33 22 23
39 26 25
81 54 44
38 25 27
75 40 48
38 25 27
58 47 44
58 46 39
38 25 27
36 24 25
42 28 31
36 24 25
35 23 25
39 26 27
41 27 29
35 23 24
40 26 28
59 39 37
37 25 26
44 29 30
253 90 123
43 26 30
44 29 31
41 27 29
102 68 55
61 33 37
39 26 27
56 39 35
84 48 56
77 44 38
40 26 28
78 44 52
43 29 30
41 27 29
52 33 33
62 36 41
41 27 29
57 42 44
81 69 61
48 36 37
38 25 27
41 27 29
80 46 44
111 79 85
125 106 66
78 43 53
43 29 30
60 38 41
206 100 103
54 36 39
58 44 39
40 26 28
41 27 29
80 48 61
72 48 41
39 26 27
46 34 34
39 26 27
67 58 58
36 24 26
39 26 28
38 25 27
75 75 51
75 79 50
255 182 116
144 114 69
120 112 71
107 104 74
110 95 70
119 113 60
70 70 48
66 66 45
94 99 66
61 61 42
73 73 50
71 71 49
70 70 48
71 71 48
78 81 54
72 77 53
82 88 60
69 69 47
105 92 70
87 96 65
143 138 79
76 76 52
87 94 70
70 70 48
73 73 50
95 112 66
88 88 60
112 129 71
84 79 56
164 185 82
99 89 60
75 75 51
70 70 48
102 92 61
83 88 60
71 71 49
82 82 56
77 77 53
108 139 66
64 64 44
130 130 86
255 255 196
61 61 42
66 66 46
255 255 187
100 119 81
68 68 47
67 67 46
64 64 44
73 78 47
63 63 43
83 75 51
63 63 43
89 86 58
70 70 48
86 112 59
74 77 50
92 88 57
89 81 55
53 53 37
63 63 44
54 54 38
74 74 51
107 107 62
59 59 41
99 127 58
49 49 34
70 90 67
2 2 5
2 2 5
2 2 5
2 2 5
2 2 5
2 2 5
2 2 5
2 2 5
2 2 5
2 2 5
2 2 5
2 2 5
2 2 5
2 2 5
2 2 5
2 2 5
2 2 5
2 2 5
2 2 5
2 2 5
2 2 5
2 2 5
2 2 5
2 2 5
2 2 5
2 2 5
2 2 5
2 2 5
2 2 5
2 2 5
2 2 5
2 2 5
2 2 5
2 2 5
2 2 5
2 2 5
2 2 5
2 2 5
2 2 5
2 2 5
2 2 5
2 2 5
2 2 5
2 2 5
2 2 5
2 2 5
2 2 5
2 2 5
2 2 5
2 2 5
2 2 5
2 2 5
2 2 5
2 2 5
2 2 5
2 2 5
2 2 5
2 2 5
2 2 5
2 2 5
2 2 5
2 2 5
2 2 5
2 2 5
2 2 5
2 2 5
2 2 5
2 2 5
2 2 5
2 2 5
2 2 5
2 2 5
2 2 5
2 2 5
2 2 5
2 2 5
2 2 5
2 2 5
2 2 5
2 2 5
2 2 5
2 2 5
2 2 5
2 2 5
2 2 5
2 2 5
2 2 5
2 2 5
2 2 5
2 2 5
2 2 5
2 2 5
2 2 5
2 2 5
2 2 5
2 2 5
2 2 5
2 2 5
2 2 5
2 2 5
2 2 5
2 2 5
2 2 5
2 2 5
2 2 5
2 2 5
2 2 5
2 2 5
2 2 5
2 2 5
2 2 5
2 2 5
2 2 5
2 2 5
2 2 5
2 2 5
2 2 5
2 2 5
2 2 5
2 2 5
2 2 5
2 2 5
2 2 5
2 2 5
2 2 5
2 2 5
2 2 5
2 2 5
2 2 5
2 2 5
2 2 5
2 2 5
2 2 5
2 2 5
2 2 5
2 2 5
2 2 5
2 2 5
2 2 5
2 2 5
2 2 5
2 2 5
2 2 5
2 2 5
2 2 5
2 2 5
2 2 5
2 2 5
2 2 5
2 2 5
2 2 5
2 2 5
2 2 5
2 2 5
2 2 5
2 2 5
2 2 5
2 2 5
2 2 5
2 2 5
2 2 5
2 2 5
2 2 5
2 2 5
2 2 5
2 2 5
2 2 5
2 2 5
2 2 5
2 2 5
2 2 5
2 2 5
2 2 5
2 2 5
2 2 5
2 2 5
2 2 5
2 2 5
2 2 5
2 2 5
2 2 5
2 2 5
2 2 5
2 2 5
2 2 5
2 2 5
2 2 5
2 2 5
2 2 5
2 2 5
2 2 5
2 2 5
2 2 5
2 2 5
2 2 5
2 2 5
2 2 5
2 2 5
2 2 5
2 2 5
2 2 5
2 2 5
2 2 5
2 2 5
2 2 5
2 2 5
2 2 5
2 2 5
2 2 5
2 2 5
2 2 5
2 2 5
2 2 5
2 2 5
2 2 5
2 2 5
2 2 5
2 2 5
2 2 5
2 2 5
2 2 5
2 2 5
2 2 5
2 2 5
2 2 5
2 2 5
2 2 5
2 2 5
2 2 5
2 2 5
2 2 5
2 2 5
2 2 5
2 2 5
2 2 5
2 2 5
2 2 5
2 2 5
2 2 5
2 2 5
2 2 5
2 2 5
2 2 5
2 2 5
2 2 5
2 2 5
2 2 5
2 2 5
2 2 5
2 2 5
2 2 5
2 2 5
2 2 5
2 2 5
2 2 5
2 2 5
2 2 5
2 2 5
59 39 39
74 56 37
31 21 22
58 33 36
90 75 60
96 68 49
37 25 26
35 23 24
121 83 46
86 65 42
60 38 40
37 25 26
75 50 42
54 41 37
42 28 28
40 27 28
40 27 28
60 34 49
36 24 25
74 49 42
39 26 27
36 24 26
40 26 28
66 58 47
39 26 27
61 37 43
36 24 26
39 26 27
81 62 62
40 27 28
38 25 27
71 44 40
102 68 48
83 48 48
44 29 31
40 26 28
72 48 41
189 177 126
39 26 27
97 80 55
38 25 27
42 28 29
39 26 27
57 32 32
79 38 51
42 28 29
41 27 29
224 149 149
37 25 26
42 28 29
40 26 28
110 73 58
43 28 30
42 28 29
37 25 26
38 25 27
67 47 40
38 25 27
52 33 50
46 30 35
41 27 29
39 26 28
43 28 30
35 23 23
75 50 42
104 61 54
37 25 26
101 62 43
58 43 40
59 34 41
64 38 45
43 28 30
117 107 86
75 75 51
73 73 50
71 71 49
68 68 47
65 65 44
93 84 62
75 75 52
66 66 46
98 87 59
71 71 49
93 86 58
71 71 49
73 73 50
101 90 56
102 116 71
109 92 64
103 111 68
68 68 46
126 118 68
255 255 91
128 116 68
87 95 58
69 69 47
74 74 51
71 71 49
104 110 69
67 67 46
94 118 60
114 103 71
105 125 79
128 106 64
124 129 76
66 66 45
80 80 55
102 114 82
255 255 174
72 72 49
66 66 45
62 62 43
85 77 59
116 102 74
73 79 50
66 66 45
144 107 75
88 93 62
78 85 54
68 68 47
88 103 57
67 67 46
59 59 41
68 68 47
129 165 78
66 66 45
69 69 47
66 66 45
129 98 67
125 162 74
91 100 57
63 63 43
56 56 39
64 64 44
94 84 57
90 96 54
51 51 35
44 44 31
55 60 41
61 61 42
43 43 30
37 37 26
86 80 51
52 52 36
74 69 44
93 123 65
2 2 5
2 2 5
2 2 5
2 2 5
2 2 5
2 2 5
2 2 5
2 2 5
2 2 5
2 2 5
2 2 5
2 2 5
2 2 5
2 2 5
2 2 5
2 2 5
2 2 5
2 2 5
2 2 5
2 2 5
2 2 5
2 2 5
2 2 5
2 2 5
2 2 5
2 2 5
2 2 5
2 2 5
2 2 5
2 2 5
2 2 5
2 2 5
2 2 5
2 2 5
2 2 5
2 2 5
2 2 5
2 2 5
2 2 5
2 2 5
2 2 5
2 2 5
2 2 5
2 2 5
2 2 5
2 2 5
2 2 5
2 2 5
2 2 5
2 2 5
2 2 5
2 2 5
2 2 5
2 2 5
2 2 5
2 2 5
2 2 5
2 2 5
2 2 5
2 2 5
2 2 5
2 2 5
2 2 5
2 2 5
2 2 5
2 2 5
2 2 5
2 2 5
2 2 5
2 2 5
2 2 5
2 2 5
2 2 5
2 2 5
2 2 5
2 2 5
2 2 5
2 2 5
2 2 5
2 2 5
2 2 5
2 2 5
2 2 5
2 2 5
2 2 5
2 2 5
2 2 5
2 2 5
2 2 5
2 2 5
2 2 5
2 2 5
2 2 5
2 2 5
2 2 5
2 2 5
2 2 5
2 2 5
2 2 5
2 2 5
2 2 5
2 2 5
2 2 5
2 2 5
2 2 5
2 2 5
2 2 5
2 2 5
2 2 5
2 2 5
2 2 5
2 2 5
2 2 5
2 2 5
2 2 5
2 2 5
2 2 5
2 2 5
2 2 5
2 2 5
2 2 5
2 2 5
2 2 5
2 2 5
2 2 5
2 2 5
2 2 5
2 2 5
2 2 5
2 2 5
2 2 5
2 2 5
2 2 5
2 2 5
2 2 5
2 2 5
2 2 5
2 2 5
2 2 5
2 2 5
2 2 5
2 2 5
2 2 5
2 2 5
2 2 5
2 2 5
2 2 5
2 2 5
2 2 5
2 2 5
2 2 5
2 2 5
2 2 5
2 2 5
2 2 5
2 2 5
2 2 5
2 2 5
2 2 5
2 2 5
2 2 5
2 2 5
2 2 5
2 2 5
2 2 5
2 2 5
2 2 5
2 2 5
2 2 5
2 2 5
2 2 5
2 2 5
2 2 5
2 2 5
2 2 5
2 2 5
2 2 5
2 2 5
2 2 5
2 2 5
2 2 5
2 2 5
2 2 5
2 2 5
2 2 5
2 2 5
2 2 5
2 2 5
2 2 5
2 2 5
2 2 5
2 2 5
2 2 5
2 2 5
2 2 5
2 2 5
2 2 5
2 2 5
2 2 5
2 2 5
2 2 5
2 2 5
2 2 5
2 2 5
2 2 5
2 2 5
2 2 5
2 2 5
2 2 5
2 2 5
2 2 5
2 2 5
2 2 5
2 2 5
2 2 5
2 2 5
2 2 5
2 2 5
2 2 5
2 2 5
2 2 5
2 2 5
2 2 5
2 2 5
2 2 5
2 2 5
2 2 5
2 2 5
2 2 5
2 2 5
2 2 5
2 2 5
2 2 5
2 2 5
2 2 5
2 2 5
2 2 5
2 2 5
2 2 5
2 2 5
2 2 5
2 2 5
2 2 5
2 2 5
2 2 5
2 2 5
2 2 5
2 2 5
2 2 5
2 2 5
2 2 5
2 2 5
2 2 5
72 41 45
34 22 24
71 44 35
98 56 51
34 22 24
39 26 27
103 69 54
31 20 22
36 24 26
89 59 48
87 55 61
56 44 35
35 23 25
31 21 22
56 42 34
37 24 26
39 26 27
92 67 73
51 40 41
79 52 44
45 27 31
61 37 35
56 39 34
62 44 40
64 55 39
114 50 53
41 27 29
37 24 26
40 26 28
66 37 41
91 77 53
36 24 25
42 28 29
68 45 39
78 47 58
40 26 28
83 69 50
40 27 28
42 28 29
42 28 30
77 59 42
67 59 45
69 46 39
41 27 29
39 26 28
41 27 30
40 26 28
77 46 39
39 26 27
53 42 33
43 28 30
41 27 29
91 60 49
44 29 31
43 29 30
42 28 30
130 64 75
40 26 28
44 32 32
38 25 27
75 52 42
43 28 30
39 26 27
54 30 30
40 27 28
97 55 72
41 27 29
42 28 29
86 59 56
39 27 33
149 75 51
52 31 34
69 39 47
96 88 60
68 68 46
65 65 45
99 92 66
80 84 52
82 100 62
98 107 65
98 120 63
255 255 174
69 69 48
88 80 54
97 122 63
255 240 168
71 71 49
73 73 50
91 102 69
112 92 64
59 59 41
102 89 66
71 71 49
84 84 57
72 72 50
78 77 64
109 98 61
68 68 47
68 68 46
107 94 62
72 72 49
73 73 50
72 72 49
67 67 46
65 65 44
62 62 43
120 99 66
64 64 44
107 120 71
107 94 73
89 99 59
73 77 49
71 71 49
83 88 58
97 89 60
68 68 47
94 104 64
65 65 45
82 82 56
54 54 37
74 85 58
182 173 80
78 78 54
61 61 42
56 56 39
69 69 47
77 68 46
98 82 53
83 92 56
76 97 55
57 57 39
63 63 43
70 65 44
95 87 60
52 52 36
95 86 58
100 85 68
154 108 89
117 99 62
59 59 41
48 48 34
73 68 45
56 61 42
51 51 35
36 36 25
50 50 35
45 45 32
46 46 32
2 2 5
2 2 5
2 2 5
2 2 5
2 2 5
2 2 5
2 2 5
2 2 5
2 2 5
2 2 5
2 2 5
2 2 5
2 2 5
2 2 5
2 2 5
2 2 5
2 2 5
2 2 5
2 2 5
2 2 5
2 2 5
2 2 5
2 2 5
2 2 5
2 2 5
2 2 5
2 2 5
2 2 5
2 2 5
2 2 5
2 2 5
2 2 5
2 2 5
2 2 5
2 2 5
2 2 5
2 2 5
2 2 5
2 2 5
2 2 5
2 2 5
2 2 5
2 2 5
2 2 5
2 2 5
2 2 5
2 2 5
2 2 5
2 2 5
2 2 5
2 2 5
2 2 5
2 2 5
2 2 5
2 2 5
2 2 5
2 2 5
2 2 5
2 2 5
2 2 5
2 2 5
2 2 5
2 2 5
2 2 5
2 2 5
2 2 5
2 2 5
2 2 5
2 2 5
2 2 5
2 2 5
2 2 5
2 2 5
2 2 5
2 2 5
2 2 5
2 2 5
2 2 5
2 2 5
2 2 5
2 2 5
2 2 5
2 2 5
2 2 5
2 2 5
2 2 5
2 2 5
2 2 5
2 2 5
2 2 5
2 2 5
2 2 5
2 2 5
2 2 5
2 2 5
2 2 5
2 2 5
2 2 5
2 2 5
2 2 5
2 2 5
2 2 5
2 2 5
2 2 5
2 2 5
2 2 5
2 2 5
2 2 5
2 2 5
2 2 5
2 2 5
2 2 5
2 2 5
2 2 5
2 2 5
2 2 5
2 2 5
2 2 5
2 2 5
2 2 5
2 2 5
2 2 5
2 2 5
2 2 5
2 2 5
2 2 5
2 2 5
2 2 5
2 2 5
2 2 5
2 2 5
2 2 5
2 2 5
2 2 5
2 2 5
2 2 5
2 2 5
2 2 5
2 2 5
2 2 5
2 2 5
2 2 5
2 2 5
2 2 5
2 2 5
2 2 5
2 2 5
2 2 5
2 2 5
2 2 5
2 2 5
2 2 5
2 2 5
2 2 5
2 2 5
2 2 5
2 2 5
2 2 5
2 2 5
2 2 5
2 2 5
2 2 5
2 2 5
2 2 5
2 2 5
2 2 5
2 2 5
2 2 5
2 2 5
2 2 5
2 2 5
2 2 5
2 2 5
2 2 5
2 2 5
2 2 5
2 2 5
2 2 5
2 2 5
2 2 5
2 2 5
2 2 5
2 2 5
2 2 5
2 2 5
2 2 5
2 2 5
2 2 5
2 2 5
2 2 5
2 2 5
2 2 5
2 2 5
2 2 5
2 2 5
2 2 5
2 2 5
2 2 5
2 2 5
2 2 5
2 2 5
2 2 5
2 2 5
2 2 5
2 2 5
2 2 5
2 2 5
2 2 5
2 2 5
2 2 5
2 2 5
2 2 5
2 2 5
2 2 5
2 2 5
2 2 5
2 2 5
2 2 5
2 2 5
2 2 5
2 2 5
2 2 5
2 2 5
2 2 5
2 2 5
2 2 5
2 2 5
2 2 5
2 2 5
2 2 5
2 2 5
2 2 5
2 2 5
2 2 5
2 2 5
2 2 5
2 2 5
2 2 5
2 2 5
2 2 5
2 2 5
2 2 5
2 2 5
2 2 5
2 2 5
2 2 5
2 2 5
2 2 5
2 2 5
2 2 5
2 2 5
29 19 21
63 56 40
34 22 24
32 21 23
32 21 23
34 22 24
108 72 55
58 51 40
32 21 23
38 25 27
31 21 22
56 37 31
55 42 42
47 31 29
70 47 40
48 35 31
33 22 23
57 45 39
37 24 26
37 24 26
33 22 23
55 36 33
56 44 38
35 23 25
74 41 53
149 92 78
41 27 28
62 41 36
33 22 23
70 48 40
86 63 43
57 45 39
45 30 32
74 57 57
38 25 26
35 23 25
167 88 88
50 30 34
76 63 54
64 35 37
41 27 29
50 33 35
102 49 59
44 29 30
78 52 44
37 24 26
42 28 29
128 100 61
39 26 27
41 27 28
79 47 40
153 116 80
44 29 30
96 64 52
49 37 37
40 26 28
58 37 34
46 28 31
94 63 50
76 50 43
92 55 45
87 45 51
40 26 28
46 30 32
105 66 53
65 40 35
89 50 43
39 26 28
36 24 25
108 72 58
35 23 25
40 27 28
71 40 41
35 23 25
65 65 45
63 63 43
150 124 73
106 89 60
149 135 90
92 98 57
80 83 56
66 66 46
65 65 45
65 65 45
127 113 75
212 255 141
76 76 52
82 82 52
107 103 63
165 124 68
73 73 50
80 77 61
114 101 77
71 71 49
73 73 50
174 167 80
100 99 61
101 90 68
88 98 60
101 92 62
111 117 69
67 67 46
105 109 65
63 63 44
67 67 46
90 85 52
74 74 51
93 105 66
83 91 56
71 71 49
133 113 72
94 101 60
158 161 96
64 64 44
77 77 52
65 65 44
72 72 49
74 74 50
85 96 57
72 76 51
80 70 48
68 68 48
93 88 56
66 66 45
65 65 45
92 84 53
108 98 66
83 87 51
111 121 65
99 119 62
61 61 42
145 98 70
62 62 42
118 98 62
58 58 40
100 109 83
50 50 34
49 49 34
54 54 37
62 65 42
62 62 42
48 48 33
205 255 104
60 66 39
82 71 56
68 76 46
77 70 44
94 78 55
60 63 40
2 2 5
53 53 36
2 2 5
2 2 5
2 2 5
2 2 5
2 2 5
2 2 5
2 2 5
2 2 5
2 2 5
2 2 5
2 2 5
2 2 5
2 2 5
2 2 5
2 2 5
2 2 5
2 2 5
2 2 5
2 2 5
2 2 5
2 2 5
2 2 5
2 2 5
2 2 5
2 2 5
2 2 5
2 2 5
2 2 5
2 2 5
2 2 5
2 2 5
2 2 5
2 2 5
2 2 5
2 2 5
2 2 5
2 2 5
2 2 5
2 2 5
2 2 5
2 2 5
2 2 5
2 2 5
2 2 5
2 2 5
2 2 5
2 2 5
2 2 5
2 2 5
2 2 5
2 2 5
2 2 5
2 2 5
2 2 5
2 2 5
2 2 5
2 2 5
2 2 5
2 2 5
2 2 5
2 2 5
2 2 5
2 2 5
2 2 5
2 2 5
2 2 5
2 2 5
2 2 5
2 2 5
2 2 5
2 2 5
2 2 5
2 2 5
2 2 5
2 2 5
2 2 5
2 2 5
2 2 5
2 2 5
2 2 5
2 2 5
2 2 5
2 2 5
2 2 5
2 2 5
2 2 5
2 2 5
2 2 5
2 2 5
2 2 5
2 2 5
2 2 5
2 2 5
2 2 5
2 2 5
2 2 5
2 2 5
2 2 5
2 2 5
2 2 5
2 2 5
2 2 5
2 2 5
2 2 5
2 2 5
2 2 5
2 2 5
2 2 5
2 2 5
2 2 5
2 2 5
2 2 5
2 2 5
2 2 5
2 2 5
2 2 5
2 2 5
2 2 5
2 2 5
2 2 5
2 2 5
2 2 5
2 2 5
2 2 5
2 2 5
2 2 5
2 2 5
2 2 5
2 2 5
2 2 5
2 2 5
2 2 5
2 2 5
2 2 5
2 2 5
2 2 5
2 2 5
2 2 5
2 2 5
2 2 5
2 2 5
2 2 5
2 2 5
2 2 5
2 2 5
2 2 5
2 2 5
2 2 5
2 2 5
2 2 5
2 2 5
2 2 5
2 2 5
2 2 5
2 2 5
2 2 5
2 2 5
2 2 5
2 2 5
2 2 5
2 2 5
2 2 5
2 2 5
2 2 5
2 2 5
2 2 5
2 2 5
2 2 5
2 2 5
2 2 5
2 2 5
2 2 5
2 2 5
2 2 5
2 2 5
2 2 5
2 2 5
2 2 5
2 2 5
2 2 5
2 2 5
2 2 5
2 2 5
2 2 5
2 2 5
2 2 5
2 2 5
2 2 5
2 2 5
2 2 5
2 2 5
2 2 5
2 2 5
2 2 5
2 2 5
2 2 5
2 2 5
2 2 5
2 2 5
2 2 5
2 2 5
2 2 5
2 2 5
2 2 5
2 2 5
2 2 5
2 2 5
2 2 5
2 2 5
2 2 5
2 2 5
2 2 5
2 2 5
2 2 5
2 2 5
2 2 5
2 2 5
2 2 5
2 2 5
2 2 5
2 2 5
2 2 5
2 2 5
2 2 5
2 2 5
2 2 5
2 2 5
2 2 5
2 2 5
2 2 5
2 2 5
2 2 5
2 2 5
2 2 5
2 2 5
2 2 5
2 2 5
2 2 5
2 2 5
2 2 5
2 2 5
2 2 5
2 2 5
2 2 5
2 2 5
2 2 5
2 2 5
30 20 21
71 47 39
58 51 42
29 19 21
32 21 23
34 22 24
51 40 35
109 80 46
38 25 27
35 23 24
35 23 25
80 58 43
107 74 58
42 28 29
35 23 24
36 24 25
85 69 49
68 47 38
81 57 43
40 27 28
75 46 42
56 34 34
36 24 25
104 69 56
43 29 30
48 32 38
73 41 40
71 40 41
77 37 48
32 21 23
54 41 42
81 54 45
45 29 43
48 30 30
36 24 26
79 43 48
45 30 31
57 45 39
131 58 61
48 29 30
42 28 29
80 49 44
178 117 92
80 46 44
67 61 52
40 26 28
55 39 37
124 65 71
255 179 179
57 41 44
51 40 35
39 26 27
111 81 63
59 39 52
38 25 27
71 70 59
38 25 26
54 34 34
85 49 64
39 26 28
81 44 55
53 31 35
42 28 29
35 23 24
41 27 28
43 29 39
37 25 26
57 44 36
108 49 64
58 39 34
40 27 28
73 54 45
34 22 24
39 26 27
77 47 39
38 25 27
83 79 52
73 73 50
71 71 49
190 127 79
92 88 62
92 102 62
66 66 45
96 111 61
59 59 41
76 76 52
100 116 61
108 116 66
255 255 201
92 97 57
140 110 81
74 74 51
67 67 46
81 86 58
99 92 64
80 89 61
66 66 46
102 93 63
70 70 48
91 109 59
120 129 75
114 95 63
100 106 62
98 117 68
75 75 52
64 64 44
145 143 98
83 83 56
255 255 200
70 70 48
97 108 73
65 65 45
62 62 43
66 66 45
63 63 43
63 63 43
123 104 67
190 136 108
98 114 67
58 58 40
109 121 70
64 64 44
83 90 56
63 63 44
74 74 50
87 96 58
97 80 53
72 81 55
63 63 43
69 69 47
96 107 56
105 95 60
68 68 46
67 67 46
60 60 42
79 76 51
71 71 48
52 52 36
63 70 43
96 75 53
64 64 44
53 53 37
57 57 39
57 53 36
60 60 41
78 90 53
48 48 33
81 85 41
65 65 45
77 70 47
79 90 54
47 47 33
60 57 38
2 2 5
2 2 5
2 2 5
2 2 5
2 2 5
2 2 5
2 2 5
2 2 5
2 2 5
2 2 5
2 2 5
2 2 5
2 2 5
2 2 5
2 2 5
2 2 5
2 2 5
2 2 5
2 2 5
2 2 5
2 2 5
2 2 5
2 2 5
2 2 5
2 2 5
2 2 5
2 2 5
2 2 5
2 2 5
2 2 5
2 2 5
2 2 5
2 2 5
2 2 5
2 2 5
2 2 5
2 2 5
2 2 5
2 2 5
2 2 5
2 2 5
2 2 5
2 2 5
2 2 5
2 2 5
2 2 5
2 2 5
2 2 5
2 2 5
2 2 5
2 2 5
2 2 5
2 2 5
2 2 5
2 2 5
2 2 5
2 2 5
2 2 5
2 2 5
2 2 5
2 2 5
2 2 5
2 2 5
2 2 5
2 2 5
2 2 5
2 2 5
2 2 5
2 2 5
2 2 5
2 2 5
2 2 5
2 2 5
2 2 5
2 2 5
2 2 5
2 2 5
2 2 5
2 2 5
2 2 5
2 2 5
2 2 5
2 2 5
2 2 5
2 2 5
2 2 5
2 2 5
2 2 5
2 2 5
2 2 5
2 2 5
2 2 5
2 2 5
2 2 5
2 2 5
2 2 5
2 2 5
2 2 5
2 2 5
2 2 5
2 2 5
2 2 5
2 2 5
2 2 5
2 2 5
2 2 5
2 2 5
2 2 5
2 2 5
2 2 5
2 2 5
2 2 5
2 2 5
2 2 5
2 2 5
2 2 5
2 2 5
2 2 5
2 2 5
2 2 5
2 2 5
2 2 5
2 2 5
2 2 5
2 2 5
2 2 5
2 2 5
2 2 5
2 2 5
2 2 5
2 2 5
2 2 5
2 2 5
2 2 5
2 2 5
2 2 5
2 2 5
2 2 5
2 2 5
2 2 5
2 2 5
2 2 5
2 2 5
2 2 5
2 2 5
2 2 5
2 2 5
2 2 5
2 2 5
2 2 5
2 2 5
2 2 5
2 2 5
2 2 5
2 2 5
2 2 5
2 2 5
2 2 5
2 2 5
2 2 5
2 2 5
2 2 5
2 2 5
2 2 5
2 2 5
2 2 5
2 2 5
2 2 5
2 2 5
2 2 5
2 2 5
2 2 5
2 2 5
2 2 5
2 2 5
2 2 5
2 2 5
2 2 5
2 2 5
2 2 5
2 2 5
2 2 5
2 2 5
2 2 5
2 2 5
2 2 5
2 2 5
2 2 5
2 2 5
2 2 5
2 2 5
2 2 5
2 2 5
2 2 5
2 2 5
2 2 5
2 2 5
2 2 5
2 2 5
2 2 5
2 2 5
2 2 5
2 2 5
2 2 5
2 2 5
2 2 5
2 2 5
2 2 5
2 2 5
2 2 5
2 2 5
2 2 5
2 2 5
2 2 5
2 2 5
2 2 5
2 2 5
2 2 5
2 2 5
2 2 5
2 2 5
2 2 5
2 2 5
2 2 5
2 2 5
2 2 5
2 2 5
2 2 5
2 2 5
2 2 5
2 2 5
2 2 5
2 2 5
2 2 5
2 2 5
2 2 5
2 2 5
2 2 5
2 2 5
2 2 5
2 2 5
2 2 5
2 2 5
2 2 5
2 2 5
2 2 5
36 24 25
42 32 34
32 21 23
34 23 24
70 51 58
99 52 44
47 31 29
33 22 23
33 22 23
35 23 25
37 25 26
36 24 25
35 23 25
33 22 23
59 34 33
33 22 24
35 23 25
50 35 33
35 23 25
35 23 25
95 63 50
37 24 26
78 42 60
71 55 37
63 48 39
46 31 29
37 25 26
98 96 53
255 136 81
41 27 29
117 71 56
41 27 29
255 177 177
42 28 29
77 51 43
57 33 39
40 26 28
37 24 26
40 27 28
40 26 28
60 47 48
73 41 49
36 24 26
40 26 28
70 54 54
41 27 28
115 72 56
46 34 35
80 44 50
55 37 33
88 44 54
63 50 51
45 30 31
48 32 33
92 47 57
71 44 47
39 26 27
70 46 40
82 58 54
66 37 42
100 67 53
98 90 61
63 48 72
152 89 72
105 74 85
37 25 26
73 41 46
75 57 42
52 41 42
38 25 27
65 57 43
56 36 32
40 26 28
35 23 25
69 41 51
137 121 65
69 46 37
83 76 52
67 67 46
119 109 75
81 87 58
58 58 40
89 115 74
66 66 46
81 77 51
73 73 50
68 74 50
84 73 51
64 64 44
92 82 55
82 75 51
64 64 44
69 69 48
144 115 90
63 63 44
91 81 55
119 103 80
59 59 41
103 110 73
88 99 60
255 235 157
96 113 75
131 103 65
84 80 54
91 110 66
249 153 126
95 86 57
102 91 61
82 82 55
94 110 60
57 57 39
72 76 55
74 74 51
125 109 64
114 115 62
97 88 60
91 83 56
134 170 79
123 92 75
72 72 49
131 111 72
71 71 49
140 127 99
70 70 48
66 66 46
64 66 52
111 105 59
77 77 52
134 108 83
76 88 56
68 74 45
99 95 51
66 66 45
65 65 45
82 71 48
96 100 62
82 72 48
51 51 35
72 72 49
74 83 57
55 59 38
74 74 50
53 53 37
75 86 48
129 93 57
59 66 40
127 149 84
53 53 37
72 65 49
63 59 39
147 97 74
86 99 66
74 65 44
68 59 40
41 41 28
37 37 26
2 2 5
2 2 5
2 2 5
2 2 5
2 2 5
2 2 5
2 2 5
2 2 5
2 2 5
2 2 5
2 2 5
2 2 5
2 2 5
2 2 5
2 2 5
2 2 5
2 2 5
2 2 5
2 2 5
2 2 5
2 2 5
2 2 5
2 2 5
2 2 5
2 2 5
2 2 5
2 2 5
2 2 5
2 2 5
2 2 5
2 2 5
2 2 5
2 2 5
2 2 5
2 2 5
2 2 5
2 2 5
2 2 5
2 2 5
2 2 5
2 2 5
2 2 5
2 2 5
2 2 5
2 2 5
2 2 5
2 2 5
2 2 5
2 2 5
2 2 5
2 2 5
2 2 5
2 2 5
2 2 5
2 2 5
2 2 5
2 2 5
2 2 5
2 2 5
2 2 5
2 2 5
2 2 5
2 2 5
2 2 5
2 2 5
2 2 5
2 2 5
2 2 5
2 2 5
2 2 5
2 2 5
2 2 5
2 2 5
2 2 5
2 2 5
2 2 5
2 2 5
2 2 5
2 2 5
2 2 5
2 2 5
2 2 5
2 2 5
2 2 5
2 2 5
2 2 5
2 2 5
2 2 5
2 2 5
2 2 5
2 2 5
2 2 5
2 2 5
2 2 5
2 2 5
2 2 5
2 2 5
2 2 5
2 2 5
2 2 5
2 2 5
2 2 5
2 2 5
2 2 5
2 2 5
2 2 5
2 2 5
2 2 5
2 2 5
2 2 5
2 2 5
2 2 5
2 2 5
2 2 5
2 2 5
2 2 5
2 2 5
2 2 5
2 2 5
2 2 5
2 2 5
2 2 5
2 2 5
2 2 5
2 2 5
2 2 5
2 2 5
2 2 5
2 2 5
2 2 5
2 2 5
2 2 5
2 2 5
2 2 5
2 2 5
2 2 5
2 2 5
2 2 5
2 2 5
2 2 5
2 2 5
2 2 5
2 2 5
2 2 5
2 2 5
2 2 5
2 2 5
2 2 5
2 2 5
2 2 5
2 2 5
2 2 5
2 2 5
2 2 5
2 2 5
2 2 5
2 2 5
2 2 5
2 2 5
2 2 5
2 2 5
2 2 5
2 2 5
2 2 5
2 2 5
2 2 5
2 2 5
2 2 5
2 2 5
2 2 5
2 2 5
2 2 5
2 2 5
2 2 5
2 2 5
2 2 5
2 2 5
2 2 5
2 2 5
2 2 5
2 2 5
2 2 5
2 2 5
2 2 5
2 2 5
2 2 5
2 2 5
2 2 5
2 2 5
2 2 5
2 2 5
2 2 5
2 2 5
2 2 5
2 2 5
2 2 5
2 2 5
2 2 5
2 2 5
2 2 5
2 2 5
2 2 5
2 2 5
2 2 5
2 2 5
2 2 5
2 2 5
2 2 5
2 2 5
2 2 5
2 2 5
2 2 5
2 2 5
2 2 5
2 2 5
2 2 5
2 2 5
2 2 5
2 2 5
2 2 5
2 2 5
2 2 5
2 2 5
2 2 5
2 2 5
2 2 5
2 2 5
2 2 5
2 2 5
2 2 5
2 2 5
2 2 5
2 2 5
2 2 5
2 2 5
2 2 5
2 2 5
2 2 5
2 2 5
2 2 5
2 2 5
2 2 5
48 29 35
34 22 24
77 51 41
79 49 40
33 22 23
125 51 72
30 20 21
31 20 22
51 40 35
71 41 34
35 23 25
31 20 22
48 32 31
88 60 44
59 37 34
39 26 27
32 21 23
255 104 111
41 27 29
54 34 31
56 32 38
67 42 42
34 22 24
78 52 42
40 27 28
36 24 25
35 23 25
83 55 43
40 27 28
58 31 35
57 45 39
38 25 27
37 25 26
130 80 63
37 24 26
130 92 70
40 27 28
73 52 53
40 27 28
57 43 39
70 58 44
41 27 29
88 54 53
40 27 28
38 25 27
95 42 54
43 29 30
63 32 37
36 24 25
88 58 47
67 53 45
73 45 51
96 47 58
39 26 28
59 35 35
39 26 27
76 58 47
42 28 29
81 63 59
40 27 28
37 24 26
101 63 51
58 39 34
68 51 38
55 34 33
44 30 37
64 42 37
42 28 29
80 53 104
53 41 42
60 45 45
39 26 27
56 42 42
255 177 177
81 50 41
73 44 41
70 47 38
41 27 29
39 26 27
171 220 147
67 67 46
63 63 43
90 79 58
71 76 47
63 63 43
85 94 57
69 69 48
78 72 48
97 86 58
67 67 46
103 89 69
87 98 59
67 67 46
89 100 68
88 100 64
77 72 53
75 79 52
79 79 54
107 106 70
66 66 45
70 70 48
101 122 70
68 68 55
72 72 50
60 60 41
108 119 66
72 72 49
189 134 104
117 142 70
55 55 38
72 72 49
70 70 48
79 77 53
108 120 66
69 69 48
69 69 47
63 63 43
76 76 52
84 90 57
70 70 48
79 69 46
60 60 41
70 70 46
99 115 62
128 99 68
62 62 43
88 92 59
255 255 189
62 62 43
56 56 39
62 62 43
86 75 51
87 77 53
69 69 48
73 69 46
80 100 61
55 55 38
85 101 51
54 54 37
87 74 59
52 52 36
123 116 81
62 62 43
91 79 53
97 80 58
90 100 61
56 56 39
69 87 55
52 52 36
98 103 71
77 68 45
69 67 75
81 86 48
55 55 45
50 50 35
43 43 30
80 70 55
106 114 66
48 48 33
2 2 5
2 2 5
2 2 5
2 2 5
2 2 5
2 2 5
2 2 5
2 2 5
2 2 5
2 2 5
2 2 5
2 2 5
2 2 5
2 2 5
2 2 5
2 2 5
2 2 5
2 2 5
2 2 5
2 2 5
2 2 5
2 2 5
2 2 5
2 2 5
2 2 5
2 2 5
2 2 5
2 2 5
2 2 5
2 2 5
2 2 5
2 2 5
2 2 5
2 2 5
2 2 5
2 2 5
2 2 5
2 2 5
2 2 5
2 2 5
2 2 5
2 2 5
2 2 5
2 2 5
2 2 5
2 2 5
2 2 5
2 2 5
2 2 5
2 2 5
2 2 5
2 2 5
2 2 5
2 2 5
2 2 5
2 2 5
2 2 5
2 2 5
2 2 5
2 2 5
2 2 5
2 2 5
2 2 5
2 2 5
2 2 5
2 2 5
2 2 5
2 2 5
2 2 5
2 2 5
2 2 5
2 2 5
2 2 5
2 2 5
2 2 5
2 2 5
2 2 5
2 2 5
2 2 5
2 2 5
2 2 5
2 2 5
2 2 5
2 2 5
2 2 5
2 2 5
2 2 5
2 2 5
2 2 5
2 2 5
2 2 5
2 2 5
2 2 5
2 2 5
2 2 5
2 2 5
2 2 5
2 2 5
2 2 5
2 2 5
2 2 5
2 2 5
2 2 5
2 2 5
2 2 5
2 2 5
2 2 5
2 2 5
2 2 5
2 2 5
2 2 5
2 2 5
2 2 5
2 2 5
2 2 5
2 2 5
2 2 5
2 2 5
2 2 5
2 2 5
2 2 5
2 2 5
2 2 5
2 2 5
2 2 5
2 2 5
2 2 5
2 2 5
2 2 5
2 2 5
2 2 5
2 2 5
2 2 5
2 2 5
2 2 5
2 2 5
2 2 5
2 2 5
2 2 5
2 2 5
2 2 5
2 2 5
2 2 5
2 2 5
2 2 5
2 2 5
2 2 5
2 2 5
2 2 5
2 2 5
2 2 5
2 2 5
2 2 5
2 2 5
2 2 5
2 2 5
2 2 5
2 2 5
2 2 5
2 2 5
2 2 5
2 2 5
2 2 5
2 2 5
2 2 5
2 2 5
2 2 5
2 2 5
2 2 5
2 2 5
2 2 5
2 2 5
2 2 5
2 2 5
2 2 5
2 2 5
2 2 5
2 2 5
2 2 5
2 2 5
2 2 5
2 2 5
2 2 5
2 2 5
2 2 5
2 2 5
2 2 5
2 2 5
2 2 5
2 2 5
2 2 5
2 2 5
2 2 5
2 2 5
2 2 5
2 2 5
2 2 5
2 2 5
2 2 5
2 2 5
2 2 5
2 2 5
2 2 5
2 2 5
2 2 5
2 2 5
2 2 5
2 2 5
2 2 5
2 2 5
2 2 5
2 2 5
2 2 5
2 2 5
2 2 5
2 2 5
2 2 5
2 2 5
2 2 5
2 2 5
2 2 5
2 2 5
2 2 5
2 2 5
2 2 5
2 2 5
2 2 5
2 2 5
2 2 5
2 2 5
2 2 5
2 2 5
2 2 5
2 2 5
2 2 5
2 2 5
2 2 5
2 2 5
2 2 5
2 2 5
69 46 38
26 17 19
27 18 19
85 69 49
38 25 27
104 74 57
42 28 24
31 21 22
33 22 23
85 60 44
32 21 23
31 21 22
104 69 55
33 22 24
66 41 37
225 150 150
126 119 51
34 22 24
66 51 43
51 40 34
36 24 26
53 35 33
44 29 31
57 44 39
101 51 41
68 66 50
38 25 27
45 28 34
39 26 28
60 33 38
35 23 25
62 36 44
35 23 25
68 52 41
44 28 29
255 152 134
37 25 26
43 29 30
255 179 179
40 27 28
59 34 41
38 25 27
255 177 177
69 46 38
60 40 37
38 25 26
58 38 32
41 27 28
40 26 28
63 42 37
37 24 26
65 43 39
103 68 55
42 28 30
96 72 51
255 179 179
39 26 27
60 40 35
86 57 47
134 73 69
38 25 27
40 26 28
85 48 79
59 38 35
37 25 26
40 26 28
37 25 26
40 26 28
69 41 46
86 57 48
57 33 40
53 40 40
57 36 38
105 70 55
36 24 26
88 70 52
125 82 80
76 46 38
79 45 53
59 34 40
74 74 48
94 79 57
66 66 45
127 136 70
92 108 66
99 103 60
85 74 49
140 117 71
65 65 45
69 69 48
140 114 88
86 97 66
79 83 53
108 99 61
111 120 72
71 71 49
75 70 46
138 160 77
68 68 47
86 81 52
117 140 86
65 65 45
96 105 59
143 128 81
79 74 54
71 71 49
75 82 51
68 74 50
69 69 47
66 66 46
80 85 58
89 106 58
90 76 54
81 91 62
75 75 51
73 73 50
92 104 61
67 67 46
67 67 46
64 64 44
84 94 57
123 106 78
113 138 74
77 77 53
227 228 123
68 68 47
90 81 55
65 65 45
134 106 75
79 90 53
59 59 40
81 78 52
66 66 46
62 62 42
88 99 68
64 64 44
175 232 154
98 82 67
65 65 45
94 103 59
78 85 53
78 75 47
44 44 31
68 90 49
54 54 37
81 74 49
57 57 39
67 71 43
77 90 48
50 50 34
48 48 33
67 63 43
56 62 43
169 230 113
44 44 31
136 112 83
51 51 35
50 50 34
99 99 56
76 64 39
43 43 30
46 46 32
2 2 5
2 2 5
2 2 5
2 2 5
2 2 5
2 2 5
2 2 5
2 2 5
2 2 5
2 2 5
2 2 5
2 2 5
2 2 5
2 2 5
2 2 5
2 2 5
2 2 5
2 2 5
2 2 5
2 2 5
2 2 5
2 2 5
2 2 5
2 2 5
2 2 5
2 2 5
2 2 5
2 2 5
2 2 5
2 2 5
2 2 5
2 2 5
2 2 5
2 2 5
2 2 5
2 2 5
2 2 5
2 2 5
2 2 5
2 2 5
2 2 5
2 2 5
2 2 5
2 2 5
2 2 5
2 2 5
2 2 5
2 2 5
2 2 5
2 2 5
2 2 5
2 2 5
2 2 5
2 2 5
2 2 5
2 2 5
2 2 5
2 2 5
2 2 5
2 2 5
2 2 5
2 2 5
2 2 5
2 2 5
2 2 5
2 2 5
2 2 5
2 2 5
2 2 5
2 2 5
2 2 5
2 2 5
2 2 5
2 2 5
2 2 5
2 2 5
2 2 5
2 2 5
2 2 5
2 2 5
2 2 5
2 2 5
2 2 5
2 2 5
2 2 5
2 2 5
2 2 5
2 2 5
2 2 5
2 2 5
2 2 5
2 2 5
2 2 5
2 2 5
2 2 5
2 2 5
2 2 5
2 2 5
2 2 5
2 2 5
2 2 5
2 2 5
2 2 5
2 2 5
2 2 5
2 2 5
2 2 5
2 2 5
2 2 5
2 2 5
2 2 5
2 2 5
2 2 5
2 2 5
2 2 5
2 2 5
2 2 5
2 2 5
2 2 5
2 2 5
2 2 5
2 2 5
2 2 5
2 2 5
2 2 5
2 2 5
2 2 5
2 2 5
2 2 5
2 2 5
2 2 5
2 2 5
2 2 5
2 2 5
2 2 5
2 2 5
2 2 5
2 2 5
2 2 5
2 2 5
2 2 5
2 2 5
2 2 5
2 2 5
2 2 5
2 2 5
2 2 5
2 2 5
2 2 5
2 2 5
2 2 5
2 2 5
2 2 5
2 2 5
2 2 5
2 2 5
2 2 5
2 2 5
2 2 5
2 2 5
2 2 5
2 2 5
2 2 5
2 2 5
2 2 5
2 2 5
2 2 5
2 2 5
2 2 5
2 2 5
2 2 5
2 2 5
2 2 5
2 2 5
2 2 5
2 2 5
2 2 5
2 2 5
2 2 5
2 2 5
2 2 5
2 2 5
2 2 5
2 2 5
2 2 5
2 2 5
2 2 5
2 2 5
2 2 5
2 2 5
2 2 5
2 2 5
2 2 5
2 2 5
2 2 5
2 2 5
2 2 5
2 2 5
2 2 5
2 2 5
2 2 5
2 2 5
2 2 5
2 2 5
2 2 5
2 2 5
2 2 5
2 2 5
2 2 5
2 2 5
2 2 5
2 2 5
2 2 5
2 2 5
2 2 5
2 2 5
2 2 5
2 2 5
2 2 5
2 2 5
2 2 5
2 2 5
2 2 5
2 2 5
2 2 5
2 2 5
2 2 5
2 2 5
2 2 5
2 2 5
2 2 5
2 2 5
2 2 5
2 2 5
2 2 5
63 54 37
32 21 23
45 35 30
40 31 35
27 18 20
31 21 22
70 64 42
78 60 39
59 39 33
27 18 20
81 52 41
32 21 23
69 46 39
48 37 32
39 24 27
36 24 25
69 46 38
35 23 24
33 22 24
255 172 172
33 22 23
38 25 26
65 54 51
39 26 28
61 40 36
37 24 26
93 83 66
46 35 32
38 25 27
36 24 25
43 31 55
81 57 49
49 38 34
42 28 29
124 70 58
37 25 26
61 48 38
82 56 48
37 24 26
39 26 27
91 66 54
72 48 40
45 30 31
212 103 102
94 70 54
90 60 71
38 25 27
42 28 30
54 36 33
42 28 29
40 26 28
165 152 110
39 26 27
65 47 50
60 48 35
36 24 26
54 36 33
246 89 121
41 27 29
219 106 146
39 26 28
73 43 48
51 30 35
63 36 43
35 23 25
151 105 68
39 26 27
38 25 27
83 45 64
41 27 29
120 64 64
37 25 26
69 58 44
48 32 30
77 52 44
34 23 24
98 74 57
116 85 60
91 51 58
89 50 39
52 40 41
40 27 28
43 29 28
108 101 62
66 66 46
64 64 44
63 63 44
99 108 56
121 100 64
64 64 44
134 134 81
64 64 44
98 81 66
78 85 53
74 80 55
89 110 61
65 65 45
61 61 42
68 68 47
106 99 63
87 78 53
63 63 43
112 102 72
86 80 54
96 84 57
109 97 64
75 75 51
73 73 50
79 82 56
104 94 71
115 101 80
64 64 44
106 99 75
65 65 45
118 116 93
77 82 56
125 102 68
98 87 54
78 78 54
65 65 45
119 101 63
79 79 54
67 67 46
66 66 45
62 62 43
68 68 46
51 51 36
65 65 45
76 76 52
96 133 67
76 76 52
105 121 61
82 91 55
70 70 48
59 59 41
193 197 129
95 86 58
103 112 59
131 142 86
255 255 194
59 59 41
86 105 55
71 71 48
61 61 42
66 66 45
70 70 48
79 88 60
73 84 50
70 70 48
50 50 35
55 55 38
68 60 41
52 52 36
70 79 54
46 46 32
50 50 35
102 87 69
67 67 40
43 43 30
97 74 44
42 42 30
53 58 40
51 51 35
44 44 31
70 89 50
73 101 44
84 67 52
2 2 5
2 2 5
2 2 5
2 2 5
2 2 5
2 2 5
2 2 5
2 2 5
2 2 5
2 2 5
2 2 5
2 2 5
2 2 5
2 2 5
2 2 5
2 2 5
2 2 5
2 2 5
2 2 5
2 2 5
2 2 5
2 2 5
2 2 5
2 2 5
2 2 5
2 2 5
2 2 5
2 2 5
2 2 5
2 2 5
2 2 5
2 2 5
2 2 5
2 2 5
2 2 5
2 2 5
2 2 5
2 2 5
2 2 5
2 2 5
2 2 5
2 2 5
2 2 5
2 2 5
2 2 5
2 2 5
2 2 5
2 2 5
2 2 5
2 2 5
2 2 5
2 2 5
2 2 5
2 2 5
2 2 5
2 2 5
2 2 5
2 2 5
2 2 5
2 2 5
2 2 5
2 2 5
2 2 5
2 2 5
2 2 5
2 2 5
2 2 5
2 2 5
2 2 5
2 2 5
2 2 5
2 2 5
2 2 5
2 2 5
2 2 5
2 2 5
2 2 5
2 2 5
2 2 5
2 2 5
2 2 5
2 2 5
2 2 5
2 2 5
2 2 5
2 2 5
2 2 5
2 2 5
2 2 5
2 2 5
2 2 5
2 2 5
2 2 5
2 2 5
2 2 5
2 2 5
2 2 5
2 2 5
2 2 5
2 2 5
2 2 5
2 2 5
2 2 5
2 2 5
2 2 5
2 2 5
2 2 5
2 2 5
2 2 5
2 2 5
2 2 5
2 2 5
2 2 5
2 2 5
2 2 5
2 2 5
2 2 5
2 2 5
2 2 5
2 2 5
2 2 5
2 2 5
2 2 5
2 2 5
2 2 5
2 2 5
2 2 5
2 2 5
2 2 5
2 2 5
2 2 5
2 2 5
2 2 5
2 2 5
2 2 5
2 2 5
2 2 5
2 2 5
2 2 5
2 2 5
2 2 5
2 2 5
2 2 5
2 2 5
2 2 5
2 2 5
2 2 5
2 2 5
2 2 5
2 2 5
2 2 5
2 2 5
2 2 5
2 2 5
2 2 5
2 2 5
2 2 5
2 2 5
2 2 5
2 2 5
2 2 5
2 2 5
2 2 5
2 2 5
2 2 5
2 2 5
2 2 5
2 2 5
2 2 5
2 2 5
2 2 5
2 2 5
2 2 5
2 2 5
2 2 5
2 2 5
2 2 5
2 2 5
2 2 5
2 2 5
2 2 5
2 2 5
2 2 5
2 2 5
2 2 5
2 2 5
2 2 5
2 2 5
2 2 5
2 2 5
2 2 5
2 2 5
2 2 5
2 2 5
2 2 5
2 2 5
2 2 5
2 2 5
2 2 5
2 2 5
2 2 5
2 2 5
2 2 5
2 2 5
2 2 5
2 2 5
2 2 5
2 2 5
2 2 5
2 2 5
2 2 5
2 2 5
2 2 5
2 2 5
2 2 5
2 2 5
2 2 5
2 2 5
2 2 5
2 2 5
2 2 5
2 2 5
2 2 5
2 2 5
2 2 5
2 2 5
2 2 5
2 2 5
2 2 5
2 2 5
2 2 5
2 2 5
83 44 48
99 58 56
27 18 19
29 19 21
69 46 38
31 20 22
29 19 21
39 23 43
40 24 28
32 21 23
155 85 70
35 23 24
31 21 22
98 65 51
27 18 20
46 28 28
29 19 21
34 23 24
38 25 27
35 23 25
65 51 53
55 42 35
39 26 27
49 33 31
34 22 24
30 20 22
56 44 38
39 26 26
93 39 57
85 56 46
55 42 36
46 31 32
33 22 23
99 66 52
87 72 54
37 24 26
34 23 24
36 24 26
40 28 47
44 29 30
127 54 75
37 25 26
38 25 27
52 34 35
47 34 58
34 23 24
39 26 27
96 69 49
36 24 26
36 24 25
66 37 44
60 43 40
45 33 30
37 25 26
42 28 30
39 26 27
69 51 47
43 28 30
78 42 52
39 26 28
90 56 43
104 59 45
56 44 38
40 26 28
40 26 28
69 52 50
79 39 48
41 27 28
40 27 28
41 27 29
40 27 28
90 52 60
162 60 84
90 49 44
36 24 25
36 24 25
144 97 59
39 26 27
44 32 30
116 64 69
36 24 25
77 44 54
40 27 28
67 59 66
73 77 52
66 66 45
255 255 196
83 87 59
69 69 47
127 91 64
85 93 55
114 134 83
68 68 47
67 67 46
83 83 78
72 72 49
81 90 61
82 82 82
79 72 49
112 104 62
68 68 47
72 72 49
60 60 41
96 97 61
144 121 69
99 88 59
96 90 63
115 129 76
68 68 47
67 67 46
66 66 45
118 121 77
71 71 49
74 78 49
102 122 74
82 90 55
74 74 51
114 104 69
93 104 63
82 75 51
62 62 43
67 67 46
58 58 40
116 168 103
80 80 54
75 75 51
94 114 71
94 100 58
60 60 42
62 62 43
61 61 42
65 65 45
73 77 49
88 80 60
84 96 57
97 84 66
113 120 66
48 48 33
78 72 51
65 65 45
128 103 62
128 103 62
59 59 41
56 56 39
79 84 53
93 112 54
69 93 51
55 55 38
52 52 36
85 80 51
81 86 51
80 92 53
70 80 45
54 54 37
82 101 49
50 50 35
56 56 38
49 49 34
58 58 40
83 95 46
67 59 46
42 42 29
65 77 44
40 40 28
68 61 39
57 68 39
73 87 49
44 44 30
119 82 61
99 139 55
2 2 5
2 2 5
2 2 5
2 2 5
2 2 5
2 2 5
2 2 5
2 2 5
2 2 5
2 2 5
2 2 5
2 2 5
2 2 5
2 2 5
2 2 5
2 2 5
2 2 5
2 2 5
2 2 5
2 2 5
2 2 5
2 2 5
2 2 5
2 2 5
2 2 5
2 2 5
2 2 5
2 2 5
2 2 5
2 2 5
2 2 5
2 2 5
2 2 5
2 2 5
2 2 5
2 2 5
2 2 5
2 2 5
2 2 5
2 2 5
2 2 5
2 2 5
2 2 5
2 2 5
2 2 5
2 2 5
2 2 5
2 2 5
2 2 5
2 2 5
2 2 5
2 2 5
2 2 5
2 2 5
2 2 5
2 2 5
2 2 5
2 2 5
2 2 5
2 2 5
2 2 5
2 2 5
2 2 5
2 2 5
2 2 5
2 2 5
2 2 5
2 2 5
2 2 5
2 2 5
2 2 5
2 2 5
2 2 5
2 2 5
2 2 5
2 2 5
2 2 5
2 2 5
2 2 5
2 2 5
2 2 5
2 2 5
2 2 5
2 2 5
2 2 5
2 2 5
2 2 5
2 2 5
2 2 5
2 2 5
2 2 5
2 2 5
2 2 5
2 2 5
2 2 5
2 2 5
2 2 5
2 2 5
2 2 5
2 2 5
2 2 5
2 2 5
2 2 5
2 2 5
2 2 5
2 2 5
2 2 5
2 2 5
2 2 5
2 2 5
2 2 5
2 2 5
2 2 5
2 2 5
2 2 5
2 2 5
2 2 5
2 2 5
2 2 5
2 2 5
2 2 5
2 2 5
2 2 5
2 2 5
2 2 5
2 2 5
2 2 5
2 2 5
2 2 5
2 2 5
2 2 5
2 2 5
2 2 5
2 2 5
2 2 5
2 2 5
2 2 5
2 2 5
2 2 5
2 2 5
2 2 5
2 2 5
2 2 5
2 2 5
2 2 5
2 2 5
2 2 5
2 2 5
2 2 5
2 2 5
2 2 5
2 2 5
2 2 5
2 2 5
2 2 5
2 2 5
2 2 5
2 2 5
2 2 5
2 2 5
2 2 5
2 2 5
2 2 5
2 2 5
2 2 5
2 2 5
2 2 5
2 2 5
2 2 5
2 2 5
2 2 5
2 2 5
2 2 5
2 2 5
2 2 5
2 2 5
2 2 5
2 2 5
2 2 5
2 2 5
2 2 5
2 2 5
2 2 5
2 2 5
2 2 5
2 2 5
2 2 5
2 2 5
2 2 5
2 2 5
2 2 5
2 2 5
2 2 5
2 2 5
2 2 5
2 2 5
2 2 5
2 2 5
2 2 5
2 2 5
2 2 5
2 2 5
2 2 5
2 2 5
2 2 5
2 2 5
2 2 5
2 2 5
2 2 5
2 2 5
2 2 5
2 2 5
2 2 5
2 2 5
2 2 5
2 2 5
2 2 5
2 2 5
2 2 5
2 2 5
2 2 5
2 2 5
2 2 5
2 2 5
2 2 5
2 2 5
2 2 5
2 2 5
22 15 16
40 26 24
30 20 22
90 47 37
33 22 23
26 17 19
44 34 30
29 19 21
27 18 19
96 61 50
29 19 21
82 60 43
52 42 36
55 31 31
83 55 49
31 21 22
54 31 36
30 20 21
40 26 28
102 50 63
68 50 42
83 60 40
37 25 26
37 24 26
42 28 29
67 36 45
69 42 35
95 60 50
69 54 40
37 24 26
51 31 31
45 27 30
77 72 53
47 36 37
61 37 37
38 25 27
84 48 39
42 28 29
94 56 54
40 27 28
53 40 35
41 27 28
34 22 24
74 49 42
162 79 62
41 27 29
102 53 61
52 31 36
82 58 43
41 27 29
64 56 46
49 33 31
42 28 30
59 44 35
43 29 30
79 46 46
36 24 25
79 55 45
141 56 69
72 48 41
255 177 177
56 45 38
39 26 28
40 26 28
40 26 28
94 74 47
53 40 36
72 52 40
255 178 178
76 45 51
255 176 176
38 25 27
39 26 28
77 57 78
94 102 57
34 22 24
78 42 53
78 42 47
38 25 27
41 27 29
64 37 43
79 43 54
38 25 26
71 47 40
37 25 26
80 63 59
62 62 42
68 68 47
101 91 67
69 69 47
106 114 63
62 62 43
64 64 44
60 60 42
88 94 63
77 87 52
70 70 48
62 62 43
73 81 50
67 67 46
59 59 41
61 61 42
61 61 42
68 68 47
115 94 69
93 87 55
67 67 46
103 88 55
132 121 65
78 78 53
113 136 67
98 88 59
65 65 45
125 111 88
60 60 41
83 92 62
66 66 45
56 56 39
85 85 53
59 59 41
72 72 49
76 76 52
103 79 62
63 63 44
92 95 68
75 79 49
58 58 40
69 69 47
108 120 64
89 87 70
56 56 39
100 86 61
57 57 39
162 125 76
81 95 54
92 106 63
179 242 95
58 58 40
89 98 62
66 74 45
60 60 42
55 55 38
86 77 52
67 67 46
147 109 64
63 67 42
61 61 42
82 78 48
76 87 59
48 48 34
65 73 42
67 62 42
53 53 36
116 123 66
57 68 38
52 57 39
77 89 61
71 80 47
57 57 39
75 92 57
50 50 35
65 56 36
37 37 26
47 47 33
255 202 135
60 58 39
70 79 44
69 77 52
35 35 24
65 75 44
57 68 46
88 95 46
64 81 41
2 2 5
2 2 5
2 2 5
2 2 5
2 2 5
2 2 5
2 2 5
2 2 5
2 2 5
2 2 5
2 2 5
2 2 5
2 2 5
2 2 5
2 2 5
2 2 5
2 2 5
2 2 5
2 2 5
2 2 5
2 2 5
2 2 5
2 2 5
2 2 5
2 2 5
2 2 5
2 2 5
2 2 5
2 2 5
2 2 5
2 2 5
2 2 5
2 2 5
2 2 5
2 2 5
2 2 5
2 2 5
2 2 5
2 2 5
2 2 5
2 2 5
2 2 5
2 2 5
2 2 5
2 2 5
2 2 5
2 2 5
2 2 5
2 2 5
2 2 5
2 2 5
2 2 5
2 2 5
2 2 5
2 2 5
2 2 5
2 2 5
2 2 5
2 2 5
2 2 5
2 2 5
2 2 5
2 2 5
2 2 5
2 2 5
2 2 5
2 2 5
2 2 5
2 2 5
2 2 5
2 2 5
2 2 5
2 2 5
2 2 5
2 2 5
2 2 5
2 2 5
2 2 5
2 2 5
2 2 5
2 2 5
2 2 5
2 2 5
2 2 5
2 2 5
2 2 5
2 2 5
2 2 5
2 2 5
2 2 5
2 2 5
2 2 5
2 2 5
2 2 5
2 2 5
2 2 5
2 2 5
2 2 5
2 2 5
2 2 5
2 2 5
2 2 5
2 2 5
2 2 5
2 2 5
2 2 5
2 2 5
2 2 5
2 2 5
2 2 5
2 2 5
2 2 5
2 2 5
2 2 5
2 2 5
2 2 5
2 2 5
2 2 5
2 2 5
2 2 5
2 2 5
2 2 5
2 2 5
2 2 5
2 2 5
2 2 5
2 2 5
2 2 5
2 2 5
2 2 5
2 2 5
2 2 5
2 2 5
2 2 5
2 2 5
2 2 5
2 2 5
2 2 5
2 2 5
2 2 5
2 2 5
2 2 5
2 2 5
2 2 5
2 2 5
2 2 5
2 2 5
2 2 5
2 2 5
2 2 5
2 2 5
2 2 5
2 2 5
2 2 5
2 2 5
2 2 5
2 2 5
2 2 5
2 2 5
2 2 5
2 2 5
2 2 5
2 2 5
2 2 5
2 2 5
2 2 5
2 2 5
2 2 5
2 2 5
2 2 5
2 2 5
2 2 5
2 2 5
2 2 5
2 2 5
2 2 5
2 2 5
2 2 5
2 2 5
2 2 5
2 2 5
2 2 5
2 2 5
2 2 5
2 2 5
2 2 5
2 2 5
2 2 5
2 2 5
2 2 5
2 2 5
2 2 5
2 2 5
2 2 5
2 2 5
2 2 5
2 2 5
2 2 5
2 2 5
2 2 5
2 2 5
2 2 5
2 2 5
2 2 5
2 2 5
2 2 5
2 2 5
2 2 5
2 2 5
2 2 5
2 2 5
2 2 5
2 2 5
2 2 5
2 2 5
2 2 5
2 2 5
2 2 5
2 2 5
2 2 5
2 2 5
2 2 5
2 2 5
2 2 5
2 2 5
2 2 5
93 53 38
70 43 35
27 18 20
33 22 23
57 43 39
115 46 55
53 35 30
31 21 22
28 19 20
27 18 20
63 37 33
26 17 19
45 35 30
41 23 28
36 24 25
31 21 22
64 48 43
34 22 24
35 23 25
52 30 36
54 50 37
65 61 55
58 31 36
38 25 27
64 47 39
57 48 40
31 21 22
30 20 21
124 95 78
68 44 39
33 22 23
65 33 39
70 75 53
37 25 26
46 40 34
32 21 23
62 50 38
37 24 24
61 35 42
39 26 28
42 28 29
65 43 34
255 174 174
62 41 36
255 175 124
132 160 91
36 24 25
38 25 27
38 25 26
95 65 52
37 24 26
68 45 39
38 25 27
40 27 36
60 40 36
39 26 27
39 26 27
38 26 32
38 25 27
39 26 28
34 23 24
108 64 57
38 25 27
48 33 33
93 59 47
51 40 34
127 59 94
110 64 54
75 38 47
38 25 27
59 35 39
77 58 59
36 24 25
77 45 39
41 27 29
64 63 49
50 33 31
41 27 29
36 24 26
69 68 59
36 24 29
39 26 27
45 30 30
227 151 151
101 63 49
42 28 29
40 27 28
90 81 61
106 125 66
69 69 47
66 66 45
255 255 170
69 69 47
80 77 51
62 62 43
61 61 42
120 111 61
62 62 43
65 65 45
62 62 43
73 79 49
166 118 88
87 80 54
255 160 136
108 90 56
89 78 52
80 83 55
70 73 49
71 71 48
59 59 41
66 66 45
87 102 61
89 82 53
100 84 51
107 107 62
64 61 41
76 69 46
111 134 61
76 76 52
62 62 43
100 88 60
56 56 39
74 74 50
83 76 51
66 66 45
125 108 77
98 87 59
77 77 53
89 100 59
81 81 55
110 106 64
78 70 48
146 108 80
107 129 74
63 63 44
79 79 54
84 78 53
56 56 39
65 65 44
79 85 57
94 101 66
58 58 40
255 255 192
59 59 41
64 64 44
57 57 40
62 62 43
58 58 40
58 58 40
77 89 52
62 62 42
66 66 45
64 64 44
54 54 37
59 59 41
62 68 46
56 56 39
153 131 66
73 75 45
53 53 44
47 47 33
64 57 39
95 87 58
56 67 40
84 75 50
51 51 35
39 39 28
44 44 31
50 50 34
59 54 37
31 31 22
58 67 38
116 109 54
39 39 28
46 50 29
33 33 24
2 2 5
2 2 5
2 2 5
2 2 5
2 2 5
2 2 5
2 2 5
2 2 5
2 2 5
2 2 5
2 2 5
2 2 5
2 2 5
2 2 5
2 2 5
2 2 5
2 2 5
2 2 5
2 2 5
2 2 5
2 2 5
2 2 5
2 2 5
2 2 5
2 2 5
2 2 5
2 2 5
2 2 5
2 2 5
2 2 5
2 2 5
2 2 5
2 2 5
2 2 5
2 2 5
2 2 5
2 2 5
2 2 5
2 2 5
2 2 5
2 2 5
2 2 5
2 2 5
2 2 5
2 2 5
2 2 5
2 2 5
2 2 5
2 2 5
2 2 5
2 2 5
2 2 5
2 2 5
2 2 5
2 2 5
2 2 5
2 2 5
2 2 5
2 2 5
2 2 5
2 2 5
2 2 5
2 2 5
2 2 5
2 2 5
2 2 5
2 2 5
2 2 5
2 2 5
2 2 5
2 2 5
2 2 5
2 2 5
2 2 5
2 2 5
2 2 5
2 2 5
2 2 5
2 2 5
2 2 5
2 2 5
2 2 5
2 2 5
2 2 5
2 2 5
2 2 5
2 2 5
2 2 5
2 2 5
2 2 5
2 2 5
2 2 5
2 2 5
2 2 5
2 2 5
2 2 5
2 2 5
2 2 5
2 2 5
2 2 5
2 2 5
2 2 5
2 2 5
2 2 5
2 2 5
2 2 5
2 2 5
2 2 5
2 2 5
2 2 5
2 2 5
2 2 5
2 2 5
2 2 5
2 2 5
2 2 5
2 2 5
2 2 5
2 2 5
2 2 5
2 2 5
2 2 5
2 2 5
2 2 5
2 2 5
2 2 5
2 2 5
2 2 5
2 2 5
2 2 5
2 2 5
2 2 5
2 2 5
2 2 5
2 2 5
2 2 5
2 2 5
2 2 5
2 2 5
2 2 5
2 2 5
2 2 5
2 2 5
2 2 5
2 2 5
2 2 5
2 2 5
2 2 5
2 2 5
2 2 5
2 2 5
2 2 5
2 2 5
2 2 5
2 2 5
2 2 5
2 2 5
2 2 5
2 2 5
2 2 5
2 2 5
2 2 5
2 2 5
2 2 5
2 2 5
2 2 5
2 2 5
2 2 5
2 2 5
2 2 5
2 2 5
2 2 5
2 2 5
2 2 5
2 2 5
2 2 5
2 2 5
2 2 5
2 2 5
2 2 5
2 2 5
2 2 5
2 2 5
2 2 5
2 2 5
2 2 5
2 2 5
2 2 5
2 2 5
2 2 5
2 2 5
2 2 5
2 2 5
2 2 5
2 2 5
2 2 5
2 2 5
2 2 5
2 2 5
2 2 5
2 2 5
2 2 5
2 2 5
2 2 5
2 2 5
2 2 5
2 2 5
2 2 5
2 2 5
2 2 5
2 2 5
2 2 5
2 2 5
2 2 5
2 2 5
2 2 5
2 2 5
2 2 5
2 2 5
2 2 5
2 2 5
2 2 5
27 18 19
30 20 21
51 37 36
27 18 20
45 36 30
110 52 42
27 18 19
25 16 18
29 19 21
40 32 28
28 19 20
31 20 22
105 48 62
73 62 43
160 193 63
34 23 24
255 173 173
32 21 23
56 32 33
60 35 35
36 24 26
31 20 22
64 45 35
29 19 21
50 33 29
39 26 27
37 24 26
39 26 27
106 63 44
77 42 53
115 71 56
90 60 45
180 88 71
70 51 39
36 24 25
37 24 26
38 25 27
38 25 27
38 25 27
53 41 42
34 22 24
67 42 46
34 23 24
118 55 55
37 24 26
77 58 47
41 27 29
42 28 29
37 24 26
37 24 26
47 34 32
36 24 25
43 28 30
38 25 27
58 39 35
37 25 26
39 26 28
39 26 27
88 58 48
73 41 50
51 37 30
66 39 47
36 24 25
149 86 82
40 27 28
67 54 41
87 48 58
255 179 179
78 56 45
63 50 51
50 30 35
45 30 31
34 23 24
58 38 38
35 23 25
39 26 28
60 40 34
73 40 50
86 43 52
138 64 57
38 25 27
39 26 27
48 34 33
51 30 35
36 24 26
42 28 29
67 51 38
155 99 68
73 45 40
71 71 48
59 59 41
93 85 58
81 93 63
64 64 44
78 88 53
114 96 72
91 105 67
136 104 57
61 61 42
63 63 44
72 72 49
78 71 53
69 69 47
86 96 65
94 93 55
101 82 57
94 91 56
97 99 72
60 60 41
108 99 66
167 255 146
101 92 62
107 97 65
54 54 38
77 88 56
97 80 57
83 78 51
74 74 50
71 77 53
75 75 51
69 69 47
93 89 55
79 84 54
85 79 52
64 64 44
72 72 49
71 71 49
103 124 87
86 77 52
80 80 54
86 96 54
65 63 47
108 129 63
56 56 39
66 66 45
58 58 40
106 102 63
80 80 55
68 68 47
64 64 44
65 70 46
87 75 47
62 62 42
65 65 45
87 78 53
98 84 56
63 63 43
107 94 63
56 56 38
255 158 136
255 255 183
52 52 36
61 61 42
45 45 32
81 84 56
54 54 38
72 84 57
68 77 46
70 62 42
50 50 35
120 124 74
53 53 36
99 124 64
63 57 39
82 69 47
147 115 71
76 82 46
36 36 25
35 35 25
38 38 27
140 137 57
88 97 59
43 46 29
40 36 25
58 70 40
41 41 29
35 35 25
68 55 35
52 62 35
2 2 5
2 2 5
2 2 5
2 2 5
2 2 5
2 2 5
2 2 5
2 2 5
2 2 5
2 2 5
2 2 5
2 2 5
2 2 5
2 2 5
2 2 5
2 2 5
2 2 5
2 2 5
2 2 5
2 2 5
2 2 5
2 2 5
2 2 5
2 2 5
2 2 5
2 2 5
2 2 5
2 2 5
2 2 5
2 2 5
2 2 5
2 2 5
2 2 5
2 2 5
2 2 5
2 2 5
2 2 5
2 2 5
2 2 5
2 2 5
2 2 5
2 2 5
2 2 5
2 2 5
2 2 5
2 2 5
2 2 5
2 2 5
2 2 5
2 2 5
2 2 5
2 2 5
2 2 5
2 2 5
2 2 5
2 2 5
2 2 5
2 2 5
2 2 5
2 2 5
2 2 5
2 2 5
2 2 5
2 2 5
2 2 5
2 2 5
2 2 5
2 2 5
2 2 5
2 2 5
2 2 5
2 2 5
2 2 5
2 2 5
2 2 5
2 2 5
2 2 5
2 2 5
2 2 5
2 2 5
2 2 5
2 2 5
2 2 5
2 2 5
2 2 5
2 2 5
2 2 5
2 2 5
2 2 5
2 2 5
2 2 5
2 2 5
2 2 5
2 2 5
2 2 5
2 2 5
2 2 5
2 2 5
2 2 5
2 2 5
2 2 5
2 2 5
2 2 5
2 2 5
2 2 5
2 2 5
2 2 5
2 2 5
2 2 5
2 2 5
2 2 5
2 2 5
2 2 5
2 2 5
2 2 5
2 2 5
2 2 5
2 2 5
2 2 5
2 2 5
2 2 5
2 2 5
2 2 5
2 2 5
2 2 5
2 2 5
2 2 5
2 2 5
2 2 5
2 2 5
2 2 5
2 2 5
2 2 5
2 2 5
2 2 5
2 2 5
2 2 5
2 2 5
2 2 5
2 2 5
2 2 5
2 2 5
2 2 5
2 2 5
2 2 5
2 2 5
2 2 5
2 2 5
2 2 5
2 2 5
2 2 5
2 2 5
2 2 5
2 2 5
2 2 5
2 2 5
2 2 5
2 2 5
2 2 5
2 2 5
2 2 5
2 2 5
2 2 5
2 2 5
2 2 5
2 2 5
2 2 5
2 2 5
2 2 5
2 2 5
2 2 5
2 2 5
2 2 5
2 2 5
2 2 5
2 2 5
2 2 5
2 2 5
2 2 5
2 2 5
2 2 5
2 2 5
2 2 5
2 2 5
2 2 5
2 2 5
2 2 5
2 2 5
2 2 5
2 2 5
2 2 5
2 2 5
2 2 5
2 2 5
2 2 5
2 2 5
2 2 5
2 2 5
2 2 5
2 2 5
2 2 5
2 2 5
2 2 5
2 2 5
2 2 5
2 2 5
2 2 5
2 2 5
2 2 5
2 2 5
2 2 5
2 2 5
2 2 5
2 2 5
2 2 5
2 2 5
2 2 5
2 2 5
2 2 5
2 2 5
26 16 16
28 19 20
84 56 43
56 44 31
69 62 39
28 18 20
50 40 34
73 64 43
44 24 58
28 18 20
56 33 32
42 31 28
75 45 40
26 17 19
61 55 43
32 21 23
35 23 25
33 22 23
52 41 35
45 36 38
34 23 24
98 51 61
51 39 35
35 23 24
40 26 26
32 21 23
46 37 32
49 32 30
35 23 24
41 29 28
31 21 22
30 20 21
57 38 50
80 43 55
34 23 24
66 45 49
35 23 25
40 26 28
34 22 24
38 25 26
68 40 40
71 47 39
38 25 27
62 37 41
52 35 36
85 42 53
57 44 39
147 91 65
38 25 27
38 25 26
86 44 45
36 24 25
39 26 27
38 25 27
58 34 40
38 25 27
55 34 35
74 47 40
35 23 25
65 35 37
39 26 27
255 178 178
79 52 43
42 28 30
53 42 43
53 40 41
56 33 34
40 26 28
38 25 27
93 62 50
68 48 42
40 27 28
38 25 27
37 24 26
37 24 26
39 26 27
35 23 24
39 26 27
36 24 26
102 60 54
92 56 43
87 43 53
38 25 27
111 56 71
35 23 25
36 24 25
62 45 46
66 37 45
105 77 53
69 52 52
98 95 55
137 105 93
201 255 134
82 73 54
88 77 60
57 57 39
62 62 42
95 103 67
98 90 64
69 66 45
125 119 86
70 70 45
107 132 66
90 83 56
95 83 56
76 86 52
89 81 54
86 91 62
65 65 44
99 102 59
88 107 54
215 255 192
65 66 47
92 99 59
65 65 45
75 75 51
69 69 47
64 64 44
58 58 40
98 102 59
87 96 59
65 65 44
65 65 45
99 93 62
57 57 39
96 103 64
91 105 62
62 62 43
67 67 46
71 71 49
75 75 51
64 64 44
73 73 50
67 67 46
63 63 44
60 60 47
60 60 41
57 57 39
135 186 89
95 84 65
99 112 60
128 111 61
60 60 41
81 87 54
135 115 70
139 107 74
60 56 41
58 58 40
72 72 49
85 99 121
79 87 50
82 102 57
61 61 42
47 47 33
81 89 49
97 100 73
97 136 80
44 44 31
45 45 31
63 71 43
53 53 37
50 50 34
70 81 48
68 59 40
84 73 49
56 64 37
88 102 48
127 93 58
74 82 50
45 45 31
39 39 27
59 69 39
255 139 116
33 33 23
111 74 57
42 42 29
67 90 49
35 35 25
84 68 41
56 66 45
48 48 30
2 2 5
2 2 5
2 2 5
2 2 5
2 2 5
2 2 5
2 2 5
2 2 5
2 2 5
2 2 5
2 2 5
2 2 5
2 2 5
2 2 5
2 2 5
2 2 5
2 2 5
2 2 5
2 2 5
2 2 5
2 2 5
2 2 5
2 2 5
2 2 5
2 2 5
2 2 5
2 2 5
2 2 5
2 2 5
2 2 5
2 2 5
2 2 5
2 2 5
2 2 5
2 2 5
2 2 5
2 2 5
2 2 5
2 2 5
2 2 5
2 2 5
2 2 5
2 2 5
2 2 5
2 2 5
2 2 5
2 2 5
2 2 5
2 2 5
2 2 5
2 2 5
2 2 5
2 2 5
2 2 5
2 2 5
2 2 5
2 2 5
2 2 5
2 2 5
2 2 5
2 2 5
2 2 5
2 2 5
2 2 5
2 2 5
2 2 5
2 2 5
2 2 5
2 2 5
2 2 5
2 2 5
2 2 5
2 2 5
2 2 5
2 2 5
2 2 5
2 2 5
2 2 5
2 2 5
2 2 5
2 2 5
2 2 5
2 2 5
2 2 5
2 2 5
2 2 5
2 2 5
2 2 5
2 2 5
2 2 5
2 2 5
2 2 5
2 2 5
2 2 5
2 2 5
2 2 5
2 2 5
2 2 5
2 2 5
2 2 5
2 2 5
2 2 5
2 2 5
2 2 5
2 2 5
2 2 5
2 2 5
2 2 5
2 2 5
2 2 5
2 2 5
2 2 5
2 2 5
2 2 5
2 2 5
2 2 5
2 2 5
2 2 5
2 2 5
2 2 5
2 2 5
2 2 5
2 2 5
2 2 5
2 2 5
2 2 5
2 2 5
2 2 5
2 2 5
2 2 5
2 2 5
2 2 5
2 2 5
2 2 5
2 2 5
2 2 5
2 2 5
2 2 5
2 2 5
2 2 5
2 2 5
2 2 5
2 2 5
2 2 5
2 2 5
2 2 5
2 2 5
2 2 5
2 2 5
2 2 5
2 2 5
2 2 5
2 2 5
2 2 5
2 2 5
2 2 5
2 2 5
2 2 5
2 2 5
2 2 5
2 2 5
2 2 5
2 2 5
2 2 5
2 2 5
2 2 5
2 2 5
2 2 5
2 2 5
2 2 5
2 2 5
2 2 5
2 2 5
2 2 5
2 2 5
2 2 5
2 2 5
2 2 5
2 2 5
2 2 5
2 2 5
2 2 5
2 2 5
2 2 5
2 2 5
2 2 5
2 2 5
2 2 5
2 2 5
2 2 5
2 2 5
2 2 5
2 2 5
2 2 5
2 2 5
2 2 5
2 2 5
2 2 5
2 2 5
2 2 5
2 2 5
2 2 5
2 2 5
2 2 5
2 2 5
2 2 5
2 2 5
2 2 5
2 2 5
2 2 5
2 2 5
2 2 5
2 2 5
19 28 20
18 27 20
108 170 110
30 38 26
29 54 37
76 91 54
37 25 23
24 16 17
47 42 42
79 71 50
119 58 42
25 17 18
29 19 21
35 26 23
94 65 54
42 31 32
33 22 23
30 20 22
28 18 20
31 21 22
83 40 58
35 23 25
87 58 46
30 20 21
33 22 23
73 44 39
28 18 20
69 48 39
31 20 22
36 24 25
36 24 25
32 21 23
123 92 66
32 21 23
102 57 64
83 51 41
33 22 24
48 36 33
83 50 41
82 44 56
37 25 26
66 36 45
42 26 29
56 34 35
255 175 175
41 31 27
32 21 23
38 25 27
51 31 36
104 72 55
39 26 27
61 35 36
193 180 129
37 25 26
37 25 26
69 39 37
40 27 28
92 43 51
60 40 36
57 33 39
41 27 29
36 24 26
39 26 28
56 40 41
89 65 48
39 26 28
84 59 49
77 52 49
84 43 52
85 56 46
53 32 32
38 25 27
50 38 34
38 25 27
38 25 27
36 24 26
89 81 67
95 62 49
40 26 28
75 74 49
66 50 39
37 25 26
36 24 25
38 25 27
48 36 33
38 25 31
75 45 38
35 23 25
58 33 34
228 152 152
38 25 27
49 37 34
98 46 65
38 25 26
38 25 27
67 70 53
71 67 45
89 103 71
85 77 52
90 80 62
80 90 52
96 104 70
110 132 68
123 106 74
107 96 58
93 129 69
66 66 45
85 99 53
67 67 46
83 91 56
63 63 43
104 111 75
100 86 68
84 94 57
187 139 108
80 86 58
120 99 76
62 62 43
102 88 69
61 61 42
60 60 42
64 64 44
78 86 52
70 70 48
132 112 63
66 66 47
80 80 55
64 64 44
75 79 50
64 64 44
74 74 51
63 63 43
155 253 86
78 84 57
94 85 57
86 88 51
58 58 40
81 87 54
113 84 59
96 90 60
61 61 42
59 59 41
76 78 48
79 72 49
66 66 45
63 63 44
81 76 51
56 56 39
106 90 54
84 90 57
72 78 48
77 70 47
58 58 40
56 56 39
92 88 67
54 54 37
124 94 65
66 77 45
53 53 37
49 49 34
58 65 39
63 63 43
53 53 36
51 51 36
47 47 33
50 50 35
42 42 30
52 52 34
40 40 28
63 74 48
40 40 28
88 86 51
81 67 45
63 52 35
47 53 35
88 108 62
50 50 35
39 43 26
61 55 50
71 58 39
76 96 46
45 45 32
48 48 33
45 48 29
40 40 28
102 116 50
32 32 23
2 2 5
2 2 5
2 2 5
2 2 5
2 2 5
2 2 5
2 2 5
2 2 5
2 2 5
2 2 5
2 2 5
2 2 5
2 2 5
2 2 5
2 2 5
2 2 5
2 2 5
2 2 5
2 2 5
2 2 5
2 2 5
2 2 5
2 2 5
2 2 5
2 2 5
2 2 5
2 2 5
2 2 5
2 2 5
2 2 5
2 2 5
2 2 5
2 2 5
2 2 5
2 2 5
2 2 5
2 2 5
2 2 5
2 2 5
2 2 5
2 2 5
2 2 5
2 2 5
2 2 5
2 2 5
2 2 5
2 2 5
2 2 5
2 2 5
2 2 5
2 2 5
2 2 5
2 2 5
2 2 5
2 2 5
2 2 5
2 2 5
2 2 5
2 2 5
2 2 5
2 2 5
2 2 5
2 2 5
2 2 5
2 2 5
2 2 5
2 2 5
2 2 5
2 2 5
2 2 5
2 2 5
2 2 5
2 2 5
2 2 5
2 2 5
2 2 5
2 2 5
2 2 5
2 2 5
2 2 5
2 2 5
2 2 5
2 2 5
2 2 5
2 2 5
2 2 5
2 2 5
2 2 5
2 2 5
2 2 5
2 2 5
2 2 5
2 2 5
2 2 5
2 2 5
2 2 5
2 2 5
2 2 5
2 2 5
2 2 5
2 2 5
2 2 5
2 2 5
2 2 5
2 2 5
2 2 5
2 2 5
2 2 5
2 2 5
2 2 5
2 2 5
2 2 5
2 2 5
2 2 5
2 2 5
2 2 5
2 2 5
2 2 5
2 2 5
2 2 5
2 2 5
2 2 5
2 2 5
2 2 5
2 2 5
2 2 5
2 2 5
2 2 5
2 2 5
2 2 5
2 2 5
2 2 5
2 2 5
2 2 5
2 2 5
2 2 5
2 2 5
2 2 5
2 2 5
2 2 5
2 2 5
2 2 5
2 2 5
2 2 5
2 2 5
2 2 5
2 2 5
2 2 5
2 2 5
2 2 5
2 2 5
2 2 5
2 2 5
2 2 5
2 2 5
2 2 5
2 2 5
2 2 5
2 2 5
2 2 5
2 2 5
2 2 5
2 2 5
2 2 5
2 2 5
2 2 5
2 2 5
2 2 5
2 2 5
2 2 5
2 2 5
2 2 5
2 2 5
2 2 5
2 2 5
2 2 5
2 2 5
2 2 5
2 2 5
2 2 5
2 2 5
2 2 5
2 2 5
2 2 5
2 2 5
2 2 5
2 2 5
2 2 5
2 2 5
2 2 5
2 2 5
2 2 5
2 2 5
2 2 5
2 2 5
2 2 5
2 2 5
2 2 5
2 2 5
2 2 5
2 2 5
2 2 5
2 2 5
2 2 5
20 30 21
2 2 5
20 30 22
28 49 34
19 29 20
18 27 20
19 28 20
154 121 61
70 99 50
18 28 20
18 27 19
18 28 20
45 67 40
32 41 28
25 17 18
87 52 41
78 38 43
27 18 20
27 18 19
30 20 22
67 38 45
90 71 53
26 17 18
30 20 21
53 35 30
59 56 44
30 20 22
74 61 61
58 36 32
118 97 58
116 85 65
108 52 65
31 20 22
106 84 48
45 30 27
53 33 40
70 38 48
33 22 23
85 74 62
38 25 27
67 36 40
36 24 25
38 25 27
36 24 25
70 35 41
62 36 43
29 19 21
255 173 173
37 24 26
47 37 32
60 38 38
80 77 64
74 49 41
255 172 172
43 32 30
33 22 23
36 24 25
63 50 37
53 35 32
51 37 34
39 26 28
46 27 32
33 22 23
55 32 33
39 26 27
36 24 25
64 51 40
106 67 50
66 48 46
47 31 32
38 25 27
37 25 26
39 26 27
62 54 54
147 97 66
36 24 26
76 44 39
97 64 52
49 36 32
49 38 36
58 48 45
43 28 30
99 55 71
37 25 26
36 24 25
37 25 26
41 27 29
68 38 47
38 25 26
35 23 25
38 25 27
36 24 25
38 25 27
37 25 26
47 31 32
140 138 91
36 24 26
36 24 26
52 35 31
72 45 35
39 26 27
39 26 27
52 41 35
48 35 35
38 25 27
74 81 50
60 60 41
79 89 53
60 60 42
58 58 40
69 69 48
72 76 52
80 88 54
113 146 63
255 255 171
57 57 40
62 62 43
81 76 51
59 59 41
74 74 51
254 254 169
255 255 193
86 100 61
70 76 47
69 69 47
86 86 53
67 67 46
122 103 87
62 62 43
62 62 43
94 91 54
255 255 190
83 75 52
75 71 51
60 60 41
65 65 45
69 69 47
151 139 98
148 99 57
149 123 70
142 111 83
64 64 44
104 147 73
66 66 46
255 255 197
65 65 45
91 96 58
99 109 79
71 71 49
100 107 59
86 76 52
76 76 52
53 53 37
61 61 42
73 80 49
119 98 73
88 100 55
64 64 44
89 80 54
69 75 51
83 93 56
84 77 56
59 59 41
49 49 34
66 66 45
54 54 36
66 66 45
81 72 61
87 107 52
61 61 42
76 67 45
53 53 37
68 68 47
83 72 56
59 53 36
51 51 35
47 47 32
72 75 47
58 58 40
60 75 46
57 52 35
43 43 30
106 138 60
44 44 30
61 56 37
64 84 45
39 39 27
44 44 30
46 46 32
58 66 34
42 42 29
43 43 30
50 63 31
37 37 26
30 30 22
60 58 35
2 2 5
2 2 5
2 2 5
2 2 5
2 2 5
2 2 5
2 2 5
2 2 5
2 2 5
2 2 5
2 2 5
2 2 5
2 2 5
2 2 5
2 2 5
2 2 5
2 2 5
2 2 5
2 2 5
2 2 5
2 2 5
2 2 5
2 2 5
2 2 5
2 2 5
2 2 5
2 2 5
2 2 5
2 2 5
2 2 5
2 2 5
2 2 5
2 2 5
2 2 5
2 2 5
2 2 5
2 2 5
2 2 5
2 2 5
2 2 5
2 2 5
2 2 5
2 2 5
2 2 5
2 2 5
2 2 5
2 2 5
2 2 5
2 2 5
2 2 5
2 2 5
2 2 5
2 2 5
2 2 5
2 2 5
2 2 5
2 2 5
2 2 5
2 2 5
2 2 5
2 2 5
2 2 5
2 2 5
2 2 5
2 2 5
2 2 5
2 2 5
2 2 5
2 2 5
2 2 5
2 2 5
2 2 5
2 2 5
2 2 5
2 2 5
2 2 5
2 2 5
2 2 5
2 2 5
2 2 5
2 2 5
2 2 5
2 2 5
2 2 5
2 2 5
2 2 5
2 2 5
2 2 5
2 2 5
2 2 5
2 2 5
2 2 5
2 2 5
2 2 5
2 2 5
2 2 5
2 2 5
2 2 5
2 2 5
2 2 5
2 2 5
2 2 5
2 2 5
2 2 5
2 2 5
2 2 5
2 2 5
2 2 5
2 2 5
2 2 5
2 2 5
2 2 5
2 2 5
2 2 5
2 2 5
2 2 5
2 2 5
2 2 5
2 2 5
2 2 5
2 2 5
2 2 5
2 2 5
2 2 5
2 2 5
2 2 5
2 2 5
2 2 5
2 2 5
2 2 5
2 2 5
2 2 5
2 2 5
2 2 5
2 2 5
2 2 5
2 2 5
2 2 5
2 2 5
2 2 5
2 2 5
2 2 5
2 2 5
2 2 5
2 2 5
2 2 5
2 2 5
2 2 5
2 2 5
2 2 5
2 2 5
2 2 5
2 2 5
2 2 5
2 2 5
2 2 5
2 2 5
2 2 5
2 2 5
2 2 5
2 2 5
2 2 5
2 2 5
2 2 5
2 2 5
2 2 5
2 2 5
2 2 5
2 2 5
2 2 5
2 2 5
2 2 5
2 2 5
2 2 5
2 2 5
2 2 5
2 2 5
2 2 5
2 2 5
2 2 5
2 2 5
2 2 5
2 2 5
2 2 5
2 2 5
2 2 5
2 2 5
2 2 5
2 2 5
2 2 5
2 2 5
2 2 5
2 2 5
2 2 5
2 2 5
2 2 5
2 2 5
2 2 5
20 31 22
2 2 5
22 33 23
26 40 30
51 54 39
197 255 137
17 26 19
20 30 21
48 63 33
18 28 20
20 31 22
60 63 55
32 52 35
35 67 46
19 29 21
28 40 26
19 29 21
27 48 33
45 54 47
44 56 33
58 75 38
83 60 43
60 46 37
95 60 66
24 16 17
25 17 18
39 26 25
44 36 30
62 44 48
27 18 19
75 39 55
33 22 23
52 35 31
30 20 21
60 45 37
28 19 20
31 21 22
88 58 45
64 37 39
28 19 20
76 40 52
30 20 21
31 21 22
62 41 35
72 55 48
65 36 45
70 37 47
51 39 35
38 25 26
37 24 26
31 20 22
102 70 54
34 22 24
100 65 61
35 23 25
35 23 25
101 67 53
76 38 48
132 110 59
68 52 57
45 30 31
36 24 25
102 80 55
41 27 29
55 32 37
39 26 27
49 35 28
35 23 25
60 52 45
47 35 32
49 31 32
38 25 27
37 25 26
49 37 33
67 42 39
48 36 38
68 38 47
34 23 24
35 23 25
37 24 26
59 51 42
35 23 25
45 30 31
38 25 26
88 63 50
112 74 59
35 23 25
97 65 52
37 25 26
123 50 63
57 45 39
199 95 102
65 58 51
119 65 47
62 41 33
68 39 46
90 73 55
125 73 51
38 25 27
52 40 35
38 25 27
35 23 25
40 26 28
255 178 178
91 67 54
97 68 48
38 25 27
65 54 49
37 25 26
41 27 29
61 43 38
59 59 41
255 207 109
89 76 60
58 59 41
60 60 41
66 66 45
79 80 64
57 57 39
83 100 61
64 64 44
65 65 44
56 56 38
77 72 51
73 80 49
65 65 45
103 86 64
138 127 84
66 65 59
71 71 49
79 79 49
66 66 45
85 79 53
71 71 48
63 63 44
144 106 60
58 58 40
71 71 49
255 255 193
61 61 42
163 116 75
52 52 36
115 90 66
68 68 47
78 92 58
100 100 75
74 74 51
59 59 41
98 104 76
61 61 41
59 59 41
92 97 63
80 78 51
240 240 120
61 61 42
56 56 39
73 73 50
108 84 55
78 86 59
68 68 46
99 87 66
85 78 56
69 74 47
84 102 53
95 92 58
55 55 38
50 50 35
89 101 61
194 159 79
102 85 52
71 74 46
157 88 64
73 81 49
51 51 35
99 75 56
78 66 44
86 77 46
59 59 40
94 94 52
65 65 45
59 68 40
58 61 44
209 209 104
38 38 27
66 66 45
39 39 27
42 42 31
54 54 37
98 87 43
45 45 31
64 57 39
43 43 30
41 41 29
38 38 27
36 36 25
41 41 29
66 91 51
54 64 44
36 36 26
30 30 21
51 61 35
186 180 90
2 2 5
2 2 5
2 2 5
2 2 5
2 2 5
2 2 5
2 2 5
2 2 5
2 2 5
2 2 5
2 2 5
2 2 5
2 2 5
2 2 5
2 2 5
2 2 5
2 2 5
2 2 5
2 2 5
2 2 5
2 2 5
2 2 5
2 2 5
2 2 5
2 2 5
2 2 5
2 2 5
2 2 5
2 2 5
2 2 5
2 2 5
2 2 5
2 2 5
2 2 5
2 2 5
2 2 5
2 2 5
2 2 5
2 2 5
2 2 5
2 2 5
2 2 5
2 2 5
2 2 5
2 2 5
2 2 5
2 2 5
2 2 5
2 2 5
2 2 5
2 2 5
2 2 5
2 2 5
2 2 5
2 2 5
2 2 5
2 2 5
2 2 5
2 2 5
2 2 5
2 2 5
2 2 5
2 2 5
2 2 5
2 2 5
2 2 5
2 2 5
2 2 5
2 2 5
2 2 5
2 2 5
2 2 5
2 2 5
2 2 5
2 2 5
2 2 5
2 2 5
2 2 5
2 2 5
2 2 5
2 2 5
2 2 5
2 2 5
2 2 5
2 2 5
2 2 5
2 2 5
2 2 5
2 2 5
2 2 5
2 2 5
2 2 5
2 2 5
2 2 5
2 2 5
2 2 5
2 2 5
2 2 5
2 2 5
2 2 5
2 2 5
2 2 5
2 2 5
2 2 5
2 2 5
2 2 5
2 2 5
2 2 5
2 2 5
2 2 5
2 2 5
2 2 5
2 2 5
2 2 5
2 2 5
2 2 5
2 2 5
2 2 5
2 2 5
2 2 5
2 2 5
2 2 5
2 2 5
2 2 5
2 2 5
2 2 5
2 2 5
2 2 5
2 2 5
2 2 5
2 2 5
2 2 5
2 2 5
2 2 5
2 2 5
2 2 5
2 2 5
2 2 5
2 2 5
2 2 5
2 2 5
2 2 5
2 2 5
2 2 5
2 2 5
2 2 5
2 2 5
2 2 5
2 2 5
2 2 5
2 2 5
2 2 5
2 2 5
2 2 5
2 2 5
2 2 5
2 2 5
2 2 5
2 2 5
2 2 5
2 2 5
2 2 5
2 2 5
2 2 5
2 2 5
2 2 5
2 2 5
2 2 5
2 2 5
2 2 5
2 2 5
2 2 5
2 2 5
2 2 5
2 2 5
2 2 5
2 2 5
2 2 5
2 2 5
2 2 5
2 2 5
2 2 5
2 2 5
2 2 5
2 2 5
2 2 5
2 2 5
102 83 76
25 38 27
2 2 5
2 2 5
32 48 31
38 48 32
33 43 26
20 31 22
70 100 52
20 31 22
35 53 31
20 30 21
26 39 27
18 27 19
34 61 42
18 28 20
99 145 96
67 67 52
58 68 41
30 46 28
68 63 68
17 26 19
27 39 26
25 34 23
32 54 41
25 33 26
27 49 33
17 26 19
17 26 22
17 25 18
17 26 19
26 39 27
20 13 15
72 57 47
58 43 31
73 43 36
102 63 47
34 22 24
29 19 21
65 40 32
31 21 22
26 17 18
71 47 38
29 19 21
56 44 52
29 19 21
85 40 44
30 20 22
31 20 22
29 19 21
52 42 35
32 21 22
59 33 41
33 22 23
51 38 38
83 61 48
203 139 139
49 38 33
36 24 25
34 23 24
40 27 28
89 52 42
58 47 39
113 75 58
129 78 65
46 35 36
71 39 43
37 24 26
32 21 23
57 45 39
34 23 24
36 24 25
36 24 25
90 57 51
56 41 32
87 81 59
37 25 26
34 22 24
74 47 64
35 23 25
84 56 47
77 44 40
37 24 26
37 24 26
36 24 25
69 52 37
37 24 26
38 25 27
38 25 27
255 126 178
33 22 23
39 26 27
40 26 28
41 27 28
38 25 27
36 24 26
116 62 66
38 25 27
99 66 62
38 25 26
67 60 55
39 26 28
88 57 38
39 26 27
76 37 48
44 29 30
61 37 32
39 26 28
40 26 28
37 25 26
78 56 51
68 38 47
37 25 26
64 51 52
52 35 31
63 42 36
36 24 26
72 48 40
56 37 45
51 32 37
67 48 37
36 24 25
61 61 42
109 94 59
77 87 52
67 67 46
76 83 51
56 56 39
60 60 41
59 59 41
62 62 42
67 67 46
59 59 40
141 130 70
73 73 50
58 58 40
255 255 190
92 96 65
82 92 55
89 93 62
95 121 69
88 96 65
65 65 45
67 67 46
114 104 88
104 108 63
103 91 68
57 57 39
69 69 48
74 83 50
63 63 46
255 255 194
152 126 86
81 91 62
73 73 50
81 91 55
84 118 55
79 92 53
96 117 71
66 66 45
106 104 72
59 59 41
77 74 50
63 63 43
84 89 56
55 55 38
97 115 59
58 61 42
92 87 51
78 91 52
91 81 55
90 102 61
109 98 61
76 68 46
89 83 56
86 104 53
58 58 40
55 55 38
66 66 45
51 51 35
52 52 36
63 63 43
59 59 41
69 69 47
56 56 39
59 59 41
57 57 39
55 55 38
98 125 94
57 63 38
54 54 37
58 54 37
69 62 41
46 46 32
65 59 40
71 63 42
90 70 51
43 43 30
51 60 35
36 36 25
58 50 34
71 62 49
41 41 29
74 86 54
111 87 50
59 64 37
38 38 27
35 35 25
35 35 24
40 40 28
37 37 26
32 32 22
2 2 5
2 2 5
2 2 5
2 2 5
2 2 5
2 2 5
2 2 5
2 2 5
2 2 5
2 2 5
2 2 5
2 2 5
2 2 5
2 2 5
2 2 5
2 2 5
2 2 5
2 2 5
2 2 5
2 2 5
2 2 5
2 2 5
2 2 5
2 2 5
2 2 5
2 2 5
2 2 5
2 2 5
2 2 5
2 2 5
2 2 5
2 2 5
2 2 5
2 2 5
2 2 5
2 2 5
2 2 5
2 2 5
2 2 5
2 2 5
2 2 5
2 2 5
2 2 5
2 2 5
2 2 5
2 2 5
2 2 5
2 2 5
2 2 5
2 2 5
2 2 5
2 2 5
2 2 5
2 2 5
2 2 5
2 2 5
2 2 5
2 2 5
2 2 5
2 2 5
2 2 5
2 2 5
2 2 5
2 2 5
2 2 5
2 2 5
2 2 5
2 2 5
2 2 5
2 2 5
2 2 5
2 2 5
2 2 5
2 2 5
2 2 5
2 2 5
2 2 5
2 2 5
2 2 5
2 2 5
2 2 5
2 2 5
2 2 5
2 2 5
2 2 5
2 2 5
2 2 5
2 2 5
2 2 5
2 2 5
2 2 5
2 2 5
2 2 5
2 2 5
2 2 5
2 2 5
2 2 5
2 2 5
2 2 5
2 2 5
2 2 5
2 2 5
2 2 5
2 2 5
2 2 5
2 2 5
2 2 5
2 2 5
2 2 5
2 2 5
2 2 5
2 2 5
2 2 5
2 2 5
2 2 5
2 2 5
2 2 5
2 2 5
2 2 5
2 2 5
2 2 5
2 2 5
2 2 5
2 2 5
2 2 5
2 2 5
2 2 5
2 2 5
2 2 5
2 2 5
2 2 5
2 2 5
2 2 5
2 2 5
2 2 5
2 2 5
2 2 5
2 2 5
2 2 5
2 2 5
2 2 5
2 2 5
2 2 5
2 2 5
2 2 5
2 2 5
2 2 5
2 2 5
2 2 5
2 2 5
2 2 5
2 2 5
2 2 5
2 2 5
2 2 5
2 2 5
2 2 5
2 2 5
2 2 5
2 2 5
2 2 5
2 2 5
2 2 5
2 2 5
2 2 5
2 2 5
2 2 5
2 2 5
2 2 5
2 2 5
2 2 5
2 2 5
2 2 5
2 2 5
2 2 5
2 2 5
2 2 5
2 2 5
2 2 5
2 2 5
2 2 5
2 2 5
23 35 25
20 30 21
23 35 25
2 2 5
22 33 24
21 32 22
21 32 23
76 59 46
21 32 23
21 31 22
22 34 24
52 112 59
21 32 23
21 32 23
20 30 21
40 69 53
21 32 23
26 44 30
18 28 20
28 49 34
19 29 21
59 71 45
137 166 71
19 29 21
20 30 21
91 68 58
31 39 27
19 28 20
18 28 20
29 37 25
16 24 18
40 74 45
18 28 20
49 52 38
34 42 29
18 27 19
19 28 20
65 51 36
23 15 17
29 19 21
32 21 23
31 21 22
23 15 17
64 47 37
27 18 20
95 62 46
29 19 21
58 44 32
57 36 29
39 29 29
26 17 19
133 68 61
85 50 40
202 132 98
66 44 36
247 117 165
72 47 52
122 88 60
255 160 86
67 44 37
83 76 46
31 20 22
73 49 40
32 21 23
52 40 35
35 23 25
37 25 26
36 24 25
39 26 27
93 58 45
38 25 27
36 24 25
36 24 25
65 43 38
37 23 24
42 28 29
69 69 47
40 26 28
255 175 175
39 26 27
41 27 28
37 25 26
35 23 25
35 23 25
39 26 34
43 28 40
57 40 40
35 23 24
46 35 31
39 26 27
37 25 26
72 41 39
36 24 25
38 25 27
44 28 39
96 71 53
255 198 139
40 26 28
37 25 26
82 58 61
45 30 28
46 34 32
35 23 25
82 44 56
88 50 42
44 29 34
40 26 28
101 54 51
36 24 26
40 27 28
66 56 91
34 23 24
109 72 56
41 27 27
69 46 39
38 25 26
38 25 26
38 25 26
69 39 52
61 34 38
34 23 24
93 47 54
37 25 26
78 43 53
37 25 26
99 58 47
255 184 130
34 23 24
58 58 40
83 80 55
58 58 40
68 68 46
56 56 39
137 115 103
56 56 38
68 65 44
83 94 64
61 61 42
62 62 43
115 121 67
72 78 49
96 148 68
117 115 69
66 66 46
93 82 55
81 84 59
113 131 70
75 71 46
63 63 44
81 73 49
144 161 81
66 66 45
61 61 42
86 92 54
88 100 59
65 65 45
63 63 43
64 64 44
93 83 52
87 109 55
61 61 42
69 69 47
56 56 39
124 116 66
59 59 41
61 63 60
112 112 86
69 63 43
80 70 51
69 69 47
85 77 55
96 91 58
114 74 50
64 64 44
92 120 66
59 59 41
51 51 36
63 68 42
53 53 37
82 98 58
80 85 54
57 57 39
54 54 37
114 85 61
70 72 53
59 59 41
82 72 49
60 60 41
100 95 64
84 73 50
71 78 51
69 80 43
126 124 55
52 52 36
47 47 33
55 55 38
90 95 55
45 45 31
58 58 40
44 44 30
83 74 51
73 86 46
73 67 44
42 42 29
53 53 37
76 91 61
37 37 26
50 45 29
71 84 55
161 255 88
38 38 27
53 61 36
71 61 42
50 54 36
44 44 30
110 141 78
45 45 31
99 67 57
37 37 26
2 2 5
2 2 5
2 2 5
2 2 5
2 2 5
2 2 5
2 2 5
2 2 5
2 2 5
2 2 5
2 2 5
2 2 5
2 2 5
2 2 5
2 2 5
2 2 5
2 2 5
2 2 5
2 2 5
2 2 5
2 2 5
2 2 5
2 2 5
2 2 5
2 2 5
2 2 5
2 2 5
2 2 5
2 2 5
2 2 5
2 2 5
2 2 5
2 2 5
2 2 5
2 2 5
2 2 5
2 2 5
2 2 5
2 2 5
2 2 5
2 2 5
2 2 5
2 2 5
2 2 5
2 2 5
2 2 5
2 2 5
2 2 5
2 2 5
2 2 5
2 2 5
2 2 5
2 2 5
2 2 5
2 2 5
2 2 5
2 2 5
2 2 5
2 2 5
2 2 5
2 2 5
2 2 5
2 2 5
2 2 5
2 2 5
2 2 5
2 2 5
2 2 5
2 2 5
2 2 5
2 2 5
2 2 5
2 2 5
2 2 5
2 2 5
2 2 5
2 2 5
2 2 5
2 2 5
2 2 5
2 2 5
2 2 5
2 2 5
2 2 5
2 2 5
2 2 5
2 2 5
2 2 5
2 2 5
2 2 5
2 2 5
2 2 5
2 2 5
2 2 5
2 2 5
2 2 5
2 2 5
2 2 5
2 2 5
2 2 5
2 2 5
2 2 5
2 2 5
2 2 5
2 2 5
2 2 5
2 2 5
2 2 5
2 2 5
2 2 5
2 2 5
2 2 5
2 2 5
2 2 5
2 2 5
2 2 5
2 2 5
2 2 5
2 2 5
2 2 5
2 2 5
2 2 5
2 2 5
2 2 5
2 2 5
2 2 5
2 2 5
2 2 5
2 2 5
2 2 5
2 2 5
2 2 5
2 2 5
2 2 5
2 2 5
2 2 5
2 2 5
2 2 5
2 2 5
2 2 5
2 2 5
2 2 5
2 2 5
2 2 5
2 2 5
2 2 5
2 2 5
2 2 5
2 2 5
2 2 5
2 2 5
2 2 5
2 2 5
2 2 5
2 2 5
2 2 5
2 2 5
2 2 5
2 2 5
2 2 5
2 2 5
2 2 5
2 2 5
2 2 5
2 2 5
2 2 5
2 2 5
2 2 5
2 2 5
2 2 5
2 2 5
2 2 5
2 2 5
2 2 5
2 2 5
2 2 5
68 116 56
19 29 21
23 35 25
22 34 24
23 35 25
22 33 24
26 36 24
21 32 22
24 36 25
23 35 25
23 35 25
55 95 44
66 90 45
62 69 44
37 48 33
22 33 24
60 59 40
22 33 24
52 57 41
21 32 23
41 77 46
21 32 22
19 28 20
19 28 20
18 27 19
29 44 27
22 34 44
18 28 20
57 69 43
16 25 18
20 31 22
18 28 20
41 53 39
19 29 21
57 58 51
36 44 30
45 87 51
72 83 43
33 41 28
45 58 36
33 61 42
32 51 38
31 22 21
23 15 17
86 63 42
110 76 55
133 129 91
68 49 40
29 19 21
26 17 19
47 37 32
29 19 21
46 30 27
27 18 19
108 46 71
32 21 23
30 20 21
61 49 34
30 20 21
255 172 120
32 21 23
83 46 53
59 52 38
31 21 22
36 24 25
69 41 34
52 35 31
33 22 23
36 24 25
105 47 61
32 21 23
57 35 35
33 22 23
92 58 46
36 24 25
37 25 26
37 25 26
33 22 24
88 57 49
36 24 25
67 50 56
66 37 45
58 34 34
44 33 35
36 24 25
63 57 46
34 23 24
37 24 26
36 24 26
76 50 42
36 24 26
38 25 27
35 23 25
58 41 45
49 32 30
37 24 26
73 66 48
35 23 25
80 43 54
86 55 43
35 23 25
50 29 34
55 43 44
87 60 72
50 31 33
72 53 53
35 23 25
57 38 34
52 47 43
99 69 77
50 29 33
49 36 37
48 36 37
38 25 27
72 54 52
52 32 30
55 36 33
68 38 46
38 25 27
135 79 62
52 40 38
35 23 23
95 69 55
37 24 26
36 24 25
41 27 29
63 36 43
58 52 42
35 23 25
107 71 56
37 24 26
37 24 26
102 68 48
55 55 38
53 53 37
62 62 42
82 92 55
60 60 41
104 93 57
60 60 44
59 59 41
62 62 43
103 86 56
62 62 43
61 61 42
61 61 42
62 62 43
95 103 58
90 97 72
101 78 53
65 65 44
66 66 45
61 61 42
121 135 79
81 93 55
104 93 70
66 66 45
69 69 47
85 100 67
71 71 51
149 171 119
168 136 75
89 103 53
78 76 71
123 96 75
185 245 123
65 65 45
81 75 51
103 96 59
68 68 47
73 82 49
58 58 40
105 90 58
104 92 59
104 81 87
81 77 57
64 64 44
57 57 39
255 207 138
100 91 65
53 53 36
86 91 65
74 84 46
81 96 59
62 62 43
96 107 77
53 53 37
76 87 52
58 58 40
108 74 62
47 47 33
51 51 35
62 62 43
44 44 31
56 56 39
48 48 33
76 82 51
128 90 74
47 47 32
61 61 42
64 68 50
46 46 32
58 58 40
73 85 49
103 93 56
47 47 32
40 40 28
105 116 83
48 48 34
71 61 40
40 40 28
38 38 27
70 85 54
39 39 27
30 30 22
64 55 37
37 37 26
79 110 51
39 39 28
38 38 27
71 71 42
112 85 50
75 80 45
2 2 5
2 2 5
2 2 5
2 2 5
2 2 5
2 2 5
2 2 5
2 2 5
2 2 5
2 2 5
2 2 5
2 2 5
2 2 5
2 2 5
2 2 5
2 2 5
2 2 5
2 2 5
2 2 5
2 2 5
2 2 5
2 2 5
2 2 5
2 2 5
2 2 5
2 2 5
2 2 5
2 2 5
2 2 5
2 2 5
2 2 5
2 2 5
2 2 5
2 2 5
2 2 5
2 2 5
2 2 5
2 2 5
2 2 5
2 2 5
2 2 5
2 2 5
2 2 5
2 2 5
2 2 5
2 2 5
2 2 5
2 2 5
2 2 5
2 2 5
2 2 5
2 2 5
2 2 5
2 2 5
2 2 5
2 2 5
2 2 5
2 2 5
2 2 5
2 2 5
2 2 5
2 2 5
2 2 5
2 2 5
2 2 5
2 2 5
2 2 5
2 2 5
2 2 5
2 2 5
2 2 5
2 2 5
2 2 5
2 2 5
2 2 5
2 2 5
2 2 5
2 2 5
2 2 5
2 2 5
2 2 5
2 2 5
2 2 5
2 2 5
2 2 5
2 2 5
2 2 5
2 2 5
2 2 5
2 2 5
2 2 5
2 2 5
2 2 5
2 2 5
2 2 5
2 2 5
2 2 5
2 2 5
2 2 5
2 2 5
2 2 5
2 2 5
2 2 5
2 2 5
2 2 5
2 2 5
2 2 5
2 2 5
2 2 5
2 2 5
2 2 5
2 2 5
2 2 5
2 2 5
2 2 5
2 2 5
2 2 5
2 2 5
2 2 5
2 2 5
2 2 5
2 2 5
2 2 5
2 2 5
2 2 5
2 2 5
2 2 5
2 2 5
2 2 5
2 2 5
2 2 5
2 2 5
2 2 5
2 2 5
2 2 5
2 2 5
2 2 5
2 2 5
2 2 5
2 2 5
2 2 5
2 2 5
2 2 5
2 2 5
2 2 5
2 2 5
2 2 5
2 2 5
2 2 5
2 2 5
2 2 5
2 2 5
2 2 5
2 2 5
2 2 5
2 2 5
2 2 5
2 2 5
2 2 5
2 2 5
2 2 5
2 2 5
2 2 5
2 2 5
2 2 5
2 2 5
2 2 5
37 56 49
22 33 24
26 39 27
51 58 51
39 59 34
25 38 27
56 111 61
24 37 26
119 252 168
67 82 45
20 30 22
74 98 77
54 74 44
52 70 42
44 59 49
24 36 25
23 34 24
174 185 94
42 51 35
26 39 28
26 39 27
37 47 32
22 33 24
43 85 49
51 69 40
50 60 52
42 63 35
22 33 23
17 26 19
34 44 30
27 49 34
22 34 24
20 30 21
45 57 45
173 183 122
23 35 25
16 25 18
32 48 28
37 47 32
20 31 22
47 62 38
19 29 21
37 46 32
33 42 29
57 81 38
32 41 28
29 46 30
19 28 20
17 26 19
19 29 20
17 26 18
41 61 34
26 17 19
24 16 17
246 164 115
27 18 19
35 26 22
27 18 19
35 23 24
45 42 40
71 50 35
29 19 21
88 55 43
34 26 32
28 18 20
38 26 36
53 44 32
38 25 27
71 53 32
36 27 28
33 22 23
98 65 51
29 19 21
33 22 24
34 22 24
34 22 24
47 36 38
36 24 25
65 43 36
30 20 22
34 22 24
52 31 36
70 49 41
36 24 26
38 25 27
77 56 39
33 22 24
85 52 65
69 48 37
36 24 26
37 25 26
92 61 48
38 25 27
92 67 49
91 72 46
55 32 37
72 45 38
33 22 23
38 25 27
39 26 28
75 40 51
112 58 68
35 23 24
255 174 174
38 25 27
101 50 39
34 23 24
255 177 177
33 22 23
85 41 51
36 24 25
87 50 64
38 25 27
44 30 28
38 25 27
52 38 34
54 36 32
125 56 80
39 26 27
37 25 26
39 26 27
97 49 58
36 24 25
37 24 26
66 39 45
81 67 45
160 66 95
36 24 25
52 31 36
51 34 30
40 27 28
36 24 26
50 36 36
59 35 32
44 33 29
50 38 38
35 23 25
62 35 42
84 45 41
45 30 31
45 30 29
64 36 44
53 38 34
78 73 48
61 61 42
151 121 71
78 81 54
255 255 192
59 59 40
77 69 47
65 65 45
56 56 39
81 93 55
60 60 41
55 55 38
65 65 44
120 110 63
80 71 48
135 114 65
130 157 75
72 80 48
66 66 45
100 73 50
61 61 42
55 55 38
61 61 42
192 109 81
66 66 45
111 92 56
63 63 43
68 68 47
58 58 40
255 255 189
85 76 51
61 61 42
65 65 45
68 68 45
54 54 37
57 57 40
73 73 50
112 139 61
67 71 49
85 77 52
73 83 49
63 63 43
255 193 170
80 88 54
97 111 76
53 53 37
73 80 54
63 63 44
87 80 54
57 57 39
63 62 50
52 52 36
57 57 39
214 255 142
255 255 193
63 63 43
50 50 35
61 67 46
90 80 54
66 73 45
79 97 47
88 75 48
41 41 29
55 49 34
139 120 64
51 51 36
49 49 34
69 94 41
42 42 29
109 117 80
160 90 72
58 65 38
86 74 58
46 46 32
55 55 38
51 51 35
49 47 31
39 39 27
49 49 34
40 40 28
58 65 42
44 48 29
85 102 61
115 130 57
37 37 26
31 31 22
59 68 40
67 92 52
62 54 34
58 54 34
31 31 22
2 2 5
2 2 5
2 2 5
2 2 5
2 2 5
2 2 5
2 2 5
2 2 5
2 2 5
2 2 5
2 2 5
2 2 5
2 2 5
2 2 5
2 2 5
2 2 5
2 2 5
2 2 5
2 2 5
2 2 5
2 2 5
2 2 5
2 2 5
2 2 5
2 2 5
2 2 5
2 2 5
2 2 5
2 2 5
2 2 5
2 2 5
2 2 5
2 2 5
2 2 5
2 2 5
2 2 5
2 2 5
2 2 5
2 2 5
2 2 5
2 2 5
2 2 5
2 2 5
2 2 5
2 2 5
2 2 5
2 2 5
2 2 5
2 2 5
2 2 5
2 2 5
2 2 5
2 2 5
2 2 5
2 2 5
2 2 5
2 2 5
2 2 5
2 2 5
2 2 5
2 2 5
2 2 5
2 2 5
2 2 5
2 2 5
2 2 5
2 2 5
2 2 5
2 2 5
2 2 5
2 2 5
2 2 5
2 2 5
2 2 5
2 2 5
2 2 5
2 2 5
2 2 5
2 2 5
2 2 5
2 2 5
2 2 5
2 2 5
2 2 5
2 2 5
2 2 5
2 2 5
2 2 5
2 2 5
2 2 5
2 2 5
2 2 5
2 2 5
2 2 5
2 2 5
2 2 5
2 2 5
2 2 5
2 2 5
2 2 5
2 2 5
2 2 5
2 2 5
2 2 5
2 2 5
2 2 5
2 2 5
2 2 5
2 2 5
2 2 5
2 2 5
2 2 5
2 2 5
2 2 5
2 2 5
2 2 5
2 2 5
2 2 5
2 2 5
2 2 5
2 2 5
2 2 5
2 2 5
2 2 5
2 2 5
2 2 5
2 2 5
2 2 5
2 2 5
2 2 5
2 2 5
2 2 5
2 2 5
2 2 5
2 2 5
2 2 5
2 2 5
2 2 5
2 2 5
2 2 5
2 2 5
2 2 5
2 2 5
2 2 5
2 2 5
2 2 5
2 2 5
2 2 5
2 2 5
2 2 5
2 2 5
2 2 5
2 2 5
2 2 5
2 2 5
2 2 5
2 2 5
2 2 5
2 2 5
2 2 5
44 58 39
2 2 5
2 2 5
32 49 29
29 46 38
42 66 34
27 40 28
50 62 42
23 35 24
23 34 24
26 40 28
22 34 24
45 71 47
27 41 28
26 39 27
23 35 25
56 79 41
51 71 42
38 43 34
24 36 26
24 37 26
24 36 25
23 34 24
39 49 38
106 97 51
41 86 53
20 30 21
59 58 43
21 32 23
26 35 27
61 60 46
30 51 30
20 30 21
19 29 21
39 48 33
42 51 35
43 53 35
20 31 22
22 33 24
36 44 30
45 77 58
45 68 38
39 49 38
44 54 36
74 114 50
19 29 21
33 46 31
31 58 40
18 28 20
18 27 19
17 26 19
37 46 31
17 26 19
17 25 18
65 77 53
19 28 20
20 30 21
28 50 34
23 15 17
27 18 19
43 37 38
28 19 20
77 50 37
59 42 38
26 17 18
45 36 31
28 19 20
31 21 22
30 20 22
33 22 24
28 19 20
81 59 43
49 39 33
55 40 33
55 37 32
99 113 57
75 39 51
32 21 23
27 18 19
70 38 48
39 26 27
34 23 24
34 22 24
34 22 24
174 122 72
35 23 25
42 28 29
64 49 43
38 25 27
70 53 39
43 31 29
30 20 22
150 77 69
37 25 26
85 66 49
83 48 40
33 22 23
33 22 23
55 36 33
90 51 74
113 61 52
71 53 54
43 29 30
34 23 24
35 24 23
70 65 49
36 24 24
36 24 26
39 26 27
38 25 27
96 59 76
41 29 41
36 24 26
35 23 25
38 25 27
68 41 46
75 63 46
84 53 47
55 42 37
53 38 38
40 27 28
81 41 49
38 25 27
67 55 49
42 28 29
38 25 26
36 24 25
41 27 28
98 65 48
102 57 51
36 24 25
48 29 32
75 43 49
40 27 28
67 44 38
69 43 50
39 26 28
101 79 52
43 31 40
84 36 41
39 26 28
34 22 24
35 23 25
38 25 27
36 24 25
53 42 33
132 55 64
45 32 28
34 22 24
60 60 41
68 75 46
64 71 44
52 52 36
56 56 39
69 69 70
73 81 49
100 84 52
101 132 71
255 255 191
83 72 48
92 81 55
65 65 44
60 60 41
180 145 80
64 64 44
60 60 41
67 67 46
67 67 46
201 120 110
70 64 43
58 58 40
84 76 51
70 74 50
61 61 42
60 60 41
56 56 39
51 51 35
90 89 55
59 59 40
67 67 45
89 82 64
56 56 39
255 255 192
56 56 39
88 76 51
66 66 46
77 77 74
79 88 54
71 71 46
69 69 47
108 90 57
54 54 37
50 50 34
63 63 43
59 59 41
89 77 60
83 87 54
65 65 45
99 91 60
78 67 44
82 101 58
51 51 35
73 89 48
59 59 41
57 57 39
93 86 51
72 67 49
126 130 62
48 48 33
60 60 41
50 50 35
64 64 44
110 108 75
47 47 33
99 129 55
78 85 54
85 73 48
255 255 182
43 43 30
46 46 32
69 62 38
45 45 31
137 115 54
47 47 33
45 45 32
49 49 34
72 86 49
43 43 30
44 44 31
39 39 27
46 46 32
38 38 26
41 42 36
44 44 31
34 34 24
46 40 28
71 116 61
79 88 51
37 37 26
54 66 37
2 2 5
2 2 5
2 2 5
2 2 5
2 2 5
2 2 5
2 2 5
2 2 5
2 2 5
2 2 5
2 2 5
2 2 5
2 2 5
2 2 5
2 2 5
2 2 5
2 2 5
2 2 5
2 2 5
2 2 5
2 2 5
2 2 5
2 2 5
2 2 5
2 2 5
2 2 5
2 2 5
2 2 5
2 2 5
2 2 5
2 2 5
2 2 5
2 2 5
2 2 5
2 2 5
2 2 5
2 2 5
2 2 5
2 2 5
2 2 5
2 2 5
2 2 5
2 2 5
2 2 5
2 2 5
2 2 5
2 2 5
2 2 5
2 2 5
2 2 5
2 2 5
2 2 5
2 2 5
2 2 5
2 2 5
2 2 5
2 2 5
2 2 5
2 2 5
2 2 5
2 2 5
2 2 5
2 2 5
2 2 5
2 2 5
2 2 5
2 2 5
2 2 5
2 2 5
2 2 5
2 2 5
2 2 5
2 2 5
2 2 5
2 2 5
2 2 5
2 2 5
2 2 5
2 2 5
2 2 5
2 2 5
2 2 5
2 2 5
2 2 5
2 2 5
2 2 5
2 2 5
2 2 5
2 2 5
2 2 5
2 2 5
2 2 5
2 2 5
2 2 5
2 2 5
2 2 5
2 2 5
2 2 5
2 2 5
2 2 5
2 2 5
2 2 5
2 2 5
2 2 5
2 2 5
2 2 5
2 2 5
2 2 5
2 2 5
2 2 5
2 2 5
2 2 5
2 2 5
2 2 5
2 2 5
2 2 5
2 2 5
2 2 5
2 2 5
2 2 5
2 2 5
2 2 5
2 2 5
2 2 5
2 2 5
2 2 5
2 2 5
2 2 5
2 2 5
2 2 5
2 2 5
2 2 5
2 2 5
2 2 5
2 2 5
2 2 5
2 2 5
2 2 5
2 2 5
2 2 5
2 2 5
2 2 5
2 2 5
2 2 5
2 2 5
2 2 5
2 2 5
2 2 5
2 2 5
2 2 5
2 2 5
2 2 5
2 2 5
2 2 5
23 35 25
2 2 5
39 68 45
185 198 140
38 49 34
24 37 26
31 45 26
25 38 26
23 34 24
25 38 27
46 63 39
34 61 42
22 34 24
20 30 21
25 38 27
25 38 27
45 54 45
23 35 25
78 130 65
91 197 100
78 97 48
28 43 28
23 34 24
21 31 22
26 39 27
26 39 27
20 30 21
44 63 38
52 60 40
19 29 21
21 32 26
19 29 21
42 52 36
21 32 23
25 38 26
24 37 26
40 56 29
20 30 22
39 48 33
19 28 20
53 88 38
79 69 60
19 29 21
47 56 48
27 48 34
58 70 40
41 61 35
37 56 29
58 98 45
53 69 60
39 48 33
26 40 24
41 75 47
34 43 30
19 29 21
37 44 33
18 28 20
19 29 21
32 41 28
29 44 26
49 77 37
65 61 44
34 43 29
32 40 27
96 67 48
23 15 17
48 35 29
31 20 22
76 45 47
28 19 20
26 17 19
42 33 28
31 21 22
83 50 63
47 38 32
28 18 20
102 68 51
87 56 50
70 55 38
31 20 22
31 21 22
29 19 21
72 40 38
49 38 34
29 19 21
34 22 24
151 91 77
33 22 23
31 20 22
40 26 27
33 21 27
54 43 36
67 40 36
72 41 42
39 26 28
167 60 73
36 24 25
29 19 21
92 49 40
38 25 27
35 23 25
44 29 27
84 56 45
39 26 27
34 23 24
67 50 50
224 149 149
64 45 34
39 26 27
36 24 25
111 66 52
92 56 43
34 23 24
59 39 36
33 22 23
32 21 23
60 30 34
60 40 35
55 37 34
34 23 24
37 25 26
36 24 26
223 149 149
44 33 30
34 22 24
33 22 24
70 44 38
50 38 40
35 23 25
33 22 24
255 96 133
38 25 26
73 49 40
48 29 33
37 25 26
74 57 43
74 41 51
50 33 31
83 43 56
35 23 25
68 45 38
36 24 25
57 46 47
33 22 23
35 23 25
89 52 44
37 25 26
66 41 41
43 28 30
37 24 26
176 114 160
212 137 81
94 55 50
35 23 24
36 24 25
55 55 38
58 58 40
58 58 40
61 61 42
78 88 53
94 99 60
59 59 41
57 57 39
50 50 35
59 59 41
67 67 45
59 59 40
51 51 35
92 100 67
149 151 70
56 56 39
63 63 43
83 94 53
61 61 42
79 71 48
80 87 59
68 68 46
104 90 61
63 63 44
99 102 66
58 58 39
53 53 36
69 74 50
59 59 41
118 102 68
66 71 44
74 74 50
57 57 39
106 132 63
55 55 38
54 54 37
71 71 49
60 60 41
57 57 40
81 92 63
71 71 49
71 84 62
58 58 40
134 100 73
148 98 77
58 58 40
255 255 193
108 87 54
53 53 36
51 51 35
47 47 32
75 87 50
76 68 44
92 81 60
123 84 61
78 85 52
58 53 36
55 55 38
67 79 54
50 50 35
53 53 37
72 88 46
86 80 53
87 93 64
72 77 45
44 44 31
95 71 51
86 94 58
44 44 31
46 46 32
71 86 44
87 94 67
48 48 33
45 45 32
40 40 28
49 49 34
63 73 43
43 43 30
47 47 32
194 255 129
43 43 30
255 196 130
64 53 43
68 72 42
38 38 27
98 100 54
39 39 27
90 70 45
35 35 25
37 37 26
34 34 24
2 2 5
2 2 5
2 2 5
2 2 5
2 2 5
2 2 5
2 2 5
2 2 5
2 2 5
2 2 5
2 2 5
2 2 5
2 2 5
2 2 5
2 2 5
2 2 5
2 2 5
2 2 5
2 2 5
2 2 5
2 2 5
2 2 5
2 2 5
2 2 5
2 2 5
2 2 5
2 2 5
2 2 5
2 2 5
2 2 5
2 2 5
2 2 5
2 2 5
2 2 5
2 2 5
2 2 5
2 2 5
2 2 5
2 2 5
2 2 5
2 2 5
2 2 5
2 2 5
2 2 5
2 2 5
2 2 5
2 2 5
2 2 5
2 2 5
2 2 5
2 2 5
2 2 5
2 2 5
2 2 5
2 2 5
2 2 5
2 2 5
2 2 5
2 2 5
2 2 5
2 2 5
2 2 5
2 2 5
2 2 5
2 2 5
2 2 5
2 2 5
2 2 5
2 2 5
2 2 5
2 2 5
2 2 5
2 2 5
2 2 5
2 2 5
2 2 5
2 2 5
2 2 5
2 2 5
2 2 5
2 2 5
2 2 5
2 2 5
2 2 5
2 2 5
2 2 5
2 2 5
2 2 5
2 2 5
2 2 5
2 2 5
2 2 5
2 2 5
2 2 5
2 2 5
2 2 5
2 2 5
2 2 5
2 2 5
2 2 5
2 2 5
2 2 5
2 2 5
2 2 5
2 2 5
2 2 5
2 2 5
2 2 5
2 2 5
2 2 5
2 2 5
2 2 5
2 2 5
2 2 5
2 2 5
2 2 5
2 2 5
2 2 5
2 2 5
2 2 5
2 2 5
2 2 5
2 2 5
2 2 5
2 2 5
2 2 5
2 2 5
2 2 5
2 2 5
2 2 5
2 2 5
2 2 5
2 2 5
2 2 5
2 2 5
2 2 5
2 2 5
2 2 5
2 2 5
2 2 5
2 2 5
2 2 5
2 2 5
30 45 32
2 2 5
51 99 60
82 122 63
42 67 45
29 44 31
52 89 59
51 67 53
28 42 30
25 37 26
45 68 39
58 87 55
23 35 25
24 36 25
30 45 31
26 40 28
42 59 43
25 38 27
55 82 46
24 37 26
26 39 28
29 43 30
25 38 27
43 54 44
25 37 26
31 47 29
27 41 29
20 31 22
22 33 23
43 54 37
22 34 24
23 35 25
45 85 51
24 36 25
88 123 61
55 60 50
57 116 60
92 98 61
22 33 24
25 38 27
33 44 34
21 32 23
34 44 30
19 29 21
41 51 42
46 61 37
21 32 23
48 73 41
51 62 40
49 120 58
19 29 21
172 180 120
21 32 23
21 31 22
20 31 22
68 72 42
22 33 23
41 50 42
47 83 58
19 29 21
32 45 28
46 60 35
20 30 22
56 83 47
35 43 29
59 75 73
66 82 39
23 34 24
33 42 29
20 30 22
31 40 28
123 178 88
16 24 17
19 28 20
17 25 18
23 15 17
25 17 18
36 25 39
100 60 49
44 35 30
45 36 31
78 65 43
27 18 19
31 21 22
29 19 20
122 114 67
74 69 46
35 23 24
48 39 33
31 21 22
80 35 34
32 21 23
26 17 19
88 64 49
31 21 22
60 30 35
56 45 38
255 174 174
100 45 50
68 33 41
77 51 41
32 21 23
29 19 21
59 30 35
33 22 23
33 22 24
35 23 25
47 29 32
52 30 34
63 60 55
47 31 28
51 29 35
32 21 23
64 42 37
36 24 25
33 22 23
93 42 49
100 72 52
36 24 26
60 40 35
33 22 23
78 69 37
38 25 27
39 26 27
35 23 25
45 30 31
35 23 25
38 25 27
40 26 28
37 25 26
37 24 26
67 37 46
74 39 46
64 43 37
37 24 26
116 117 46
51 31 34
54 31 37
69 37 47
82 56 44
45 34 28
40 27 28
35 23 25
255 175 175
108 76 46
76 41 52
78 47 48
51 34 32
82 44 56
74 38 45
255 175 175
45 27 31
107 64 63
255 121 121
48 29 33
34 22 24
72 56 61
46 36 34
200 134 96
104 57 51
69 55 39
79 38 46
52 36 45
34 23 24
70 45 36
94 63 51
119 103 58
76 70 47
52 52 36
81 93 51
80 76 50
110 113 91
77 85 53
53 53 37
64 64 43
74 84 54
130 101 71
76 85 51
255 255 187
66 66 45
82 77 48
70 82 47
54 54 37
56 56 39
64 73 43
93 77 56
60 60 41
255 255 192
88 79 54
54 54 37
102 89 60
70 80 54
176 169 112
85 99 66
57 59 38
59 59 41
133 104 64
70 76 57
68 78 45
54 54 38
56 56 39
79 75 51
255 255 186
81 71 57
58 58 40
83 79 50
55 55 38
60 60 41
58 58 40
87 99 62
77 71 48
118 100 55
85 95 64
56 56 39
60 60 41
50 50 35
122 86 66
144 93 79
58 58 40
79 84 48
67 72 44
102 103 52
68 78 52
63 63 43
81 87 51
53 53 37
90 87 50
60 68 46
47 47 33
70 85 46
61 61 42
54 53 40
50 50 34
44 44 31
57 57 39
96 123 58
41 41 29
57 61 42
47 47 33
72 60 40
40 40 28
64 72 44
42 42 30
102 75 51
73 87 49
75 63 51
95 122 57
54 63 35
42 42 30
39 39 28
35 35 24
37 37 26
44 44 31
47 51 36
59 68 40
55 46 31
53 76 42
2 2 5
2 2 5
2 2 5
2 2 5
2 2 5
2 2 5
2 2 5
2 2 5
2 2 5
2 2 5
2 2 5
2 2 5
2 2 5
2 2 5
2 2 5
2 2 5
2 2 5
2 2 5
2 2 5
2 2 5
2 2 5
2 2 5
2 2 5
2 2 5
2 2 5
2 2 5
2 2 5
2 2 5
2 2 5
2 2 5
2 2 5
2 2 5
2 2 5
2 2 5
2 2 5
2 2 5
2 2 5
2 2 5
2 2 5
2 2 5
2 2 5
2 2 5
2 2 5
2 2 5
2 2 5
2 2 5
2 2 5
2 2 5
2 2 5
2 2 5
2 2 5
2 2 5
2 2 5
2 2 5
2 2 5
2 2 5
2 2 5
2 2 5
2 2 5
2 2 5
2 2 5
2 2 5
2 2 5
2 2 5
2 2 5
2 2 5
2 2 5
2 2 5
2 2 5
2 2 5
2 2 5
2 2 5
2 2 5
2 2 5
2 2 5
2 2 5
2 2 5
2 2 5
2 2 5
2 2 5
2 2 5
2 2 5
2 2 5
2 2 5
2 2 5
2 2 5
2 2 5
2 2 5
2 2 5
2 2 5
2 2 5
2 2 5
2 2 5
2 2 5
2 2 5
2 2 5
2 2 5
2 2 5
2 2 5
2 2 5
2 2 5
2 2 5
2 2 5
2 2 5
2 2 5
2 2 5
2 2 5
2 2 5
2 2 5
2 2 5
2 2 5
2 2 5
2 2 5
2 2 5
2 2 5
2 2 5
2 2 5
2 2 5
2 2 5
2 2 5
2 2 5
2 2 5
2 2 5
2 2 5
2 2 5
2 2 5
2 2 5
2 2 5
2 2 5
2 2 5
2 2 5
2 2 5
2 2 5
2 2 5
2 2 5
2 2 5
2 2 5
40 61 56
2 2 5
2 2 5
176 255 127
23 35 24
36 54 32
23 35 25
47 59 46
24 36 25
30 45 31
27 40 28
57 76 45
55 68 56
21 32 23
81 110 58
36 60 41
46 70 39
23 35 25
67 138 55
27 41 27
28 43 30
26 39 27
26 40 29
26 39 28
53 64 38
67 101 54
45 72 49
23 34 24
27 41 28
70 93 55
26 40 28
24 36 25
53 74 44
36 65 44
22 33 23
67 85 67
41 52 35
22 34 24
23 35 25
51 60 32
20 30 21
31 47 28
25 38 26
86 94 55
23 35 25
59 82 47
37 66 45
36 44 31
57 81 37
20 31 21
39 48 33
33 60 60
72 79 39
141 212 101
21 31 22
18 28 20
26 42 29
19 28 20
20 30 22
167 131 121
167 175 167
53 71 43
18 27 20
55 97 48
19 29 21
35 57 40
65 57 42
20 30 21
20 30 21
17 26 19
17 26 19
42 49 43
31 47 28
16 24 18
19 28 23
36 44 30
34 42 28
16 24 18
29 41 27
24 32 26
17 26 19
66 46 36
27 18 19
99 56 45
254 169 169
27 19 29
59 47 34
100 60 52
30 20 21
58 56 36
26 17 19
57 34 28
59 44 34
28 19 20
32 21 23
29 19 21
34 22 24
30 20 21
37 24 26
47 37 32
37 24 26
44 32 28
33 22 23
49 40 33
56 32 37
72 48 40
82 47 38
72 45 37
255 123 174
48 32 32
136 77 64
32 21 23
65 53 39
54 30 31
70 41 38
107 54 63
81 44 62
38 25 27
35 23 25
49 28 34
35 23 25
35 23 25
111 115 64
50 34 49
44 29 36
51 31 50
59 47 52
112 54 64
35 23 25
64 44 37
35 23 24
67 36 37
77 69 44
175 98 68
57 42 42
53 37 34
83 62 57
37 24 26
33 22 23
54 41 36
48 36 38
93 62 50
98 73 53
34 23 24
39 26 27
36 24 25
83 65 48
106 71 55
60 34 42
70 48 39
54 31 32
129 89 66
59 36 43
45 33 31
36 24 25
39 26 26
36 24 25
60 42 33
37 24 26
37 24 26
129 99 70
36 24 25
37 25 26
35 23 25
45 35 31
36 24 25
35 23 25
90 65 68
59 39 35
109 49 48
58 57 48
45 30 31
56 56 39
56 56 39
82 96 51
57 57 39
81 92 55
55 55 38
55 55 38
63 63 44
74 77 47
72 80 48
93 84 57
59 59 40
84 93 63
58 58 40
61 66 41
56 56 39
75 84 56
83 76 52
154 98 80
66 66 45
138 94 69
255 152 133
58 58 40
54 54 37
131 108 65
60 60 42
54 54 37
131 123 62
195 185 130
63 63 44
72 68 46
61 61 46
63 63 44
58 58 40
84 101 51
106 96 59
73 69 47
78 80 50
85 101 54
61 66 45
61 61 42
82 107 62
111 97 59
57 57 42
77 94 51
58 58 40
91 116 65
56 56 38
57 57 40
94 82 54
51 51 35
102 91 62
47 47 33
56 56 39
57 57 39
113 89 54
49 49 34
240 240 160
89 83 54
180 99 69
51 51 35
61 67 42
74 86 50
97 87 52
255 255 193
78 73 47
74 83 50
113 117 61
81 67 40
69 81 47
80 69 47
58 65 39
64 59 37
38 38 27
37 37 26
41 41 29
57 52 35
108 103 59
60 52 40
63 74 43
42 42 29
42 47 29
42 42 29
71 62 42
51 61 35
83 83 47
33 33 23
39 46 27
44 44 31
37 37 26
34 34 24
2 2 5
2 2 5
2 2 5
2 2 5
2 2 5
2 2 5
2 2 5
2 2 5
2 2 5
2 2 5
2 2 5
2 2 5
2 2 5
2 2 5
2 2 5
2 2 5
2 2 5
2 2 5
2 2 5
2 2 5
2 2 5
2 2 5
2 2 5
2 2 5
2 2 5
2 2 5
2 2 5
2 2 5
2 2 5
2 2 5
2 2 5
2 2 5
2 2 5
2 2 5
2 2 5
2 2 5
2 2 5
2 2 5
2 2 5
2 2 5
2 2 5
2 2 5
2 2 5
2 2 5
2 2 5
2 2 5
2 2 5
2 2 5
2 2 5
2 2 5
2 2 5
2 2 5
2 2 5
2 2 5
2 2 5
2 2 5
2 2 5
2 2 5
2 2 5
2 2 5
2 2 5
2 2 5
2 2 5
2 2 5
2 2 5
2 2 5
2 2 5
2 2 5
2 2 5
2 2 5
2 2 5
2 2 5
2 2 5
2 2 5
2 2 5
2 2 5
2 2 5
2 2 5
2 2 5
2 2 5
2 2 5
2 2 5
2 2 5
2 2 5
2 2 5
2 2 5
2 2 5
2 2 5
2 2 5
2 2 5
2 2 5
2 2 5
2 2 5
2 2 5
2 2 5
2 2 5
2 2 5
2 2 5
2 2 5
2 2 5
2 2 5
2 2 5
2 2 5
2 2 5
2 2 5
2 2 5
2 2 5
2 2 5
2 2 5
2 2 5
2 2 5
2 2 5
2 2 5
2 2 5
2 2 5
2 2 5
2 2 5
2 2 5
2 2 5
2 2 5
2 2 5
2 2 5
2 2 5
2 2 5
2 2 5
2 2 5
2 2 5
2 2 5
23 35 25
2 2 5
25 37 26
2 2 5
2 2 5
25 37 25
37 50 37
26 39 27
28 42 29
25 38 26
169 181 169
220 196 121
63 95 50
23 35 25
24 37 26
27 41 29
34 56 39
22 33 24
37 56 34
38 71 47
84 108 47
29 42 34
25 37 26
28 42 30
76 83 70
45 54 41
65 86 49
56 66 39
104 89 45
32 48 33
59 86 50
26 39 28
30 46 32
47 59 49
28 42 30
27 40 28
37 45 37
23 35 25
60 99 53
56 85 46
43 60 36
22 33 23
27 41 29
24 37 26
25 38 27
21 32 22
31 47 30
151 227 151
34 55 34
45 56 47
20 31 22
21 32 23
21 32 23
50 65 40
20 30 21
41 52 42
21 32 23
20 31 22
22 33 23
73 105 49
93 124 61
23 34 24
21 31 22
20 30 21
22 33 23
49 90 60
134 255 96
20 31 22
21 32 23
19 28 20
20 31 22
21 32 28
46 63 45
21 32 22
34 42 28
48 75 39
31 65 45
17 25 18
16 25 18
20 31 22
39 48 30
18 27 19
51 67 56
36 47 37
30 45 26
50 62 35
17 26 19
29 54 37
17 26 18
17 25 18
48 46 36
49 33 28
24 16 16
30 20 21
125 68 73
29 19 21
54 26 32
73 46 36
68 40 41
106 111 62
115 69 52
55 33 37
29 19 21
33 22 24
61 44 36
255 171 171
24 16 17
33 22 24
85 57 45
33 22 23
65 51 40
97 51 69
31 20 22
52 42 35
67 37 46
80 53 42
33 22 23
56 32 38
34 23 24
37 24 24
85 77 50
96 74 63
45 33 30
62 48 34
126 146 84
36 24 26
31 20 22
48 41 32
68 39 53
47 28 32
36 24 26
33 22 23
75 74 52
214 192 82
45 31 33
53 42 43
53 41 36
77 53 39
93 43 36
35 23 25
255 139 100
37 25 26
36 24 25
123 77 71
50 32 32
37 25 26
91 55 45
122 75 57
255 174 174
48 32 30
81 57 51
47 28 35
60 51 38
54 46 38
86 51 47
36 24 25
64 53 64
108 58 60
43 27 27
101 73 48
36 24 25
35 23 25
54 34 39
121 48 57
36 24 26
54 31 37
93 62 50
35 23 25
104 67 52
94 62 50
80 46 56
120 189 103
61 50 43
68 37 45
46 30 28
38 25 27
113 61 59
84 56 45
34 23 24
87 66 61
49 36 33
54 54 37
255 255 187
58 58 40
67 61 45
56 56 38
119 89 66
70 78 48
65 65 44
128 104 63
54 54 38
103 89 60
52 52 36
53 53 37
56 56 39
60 60 41
58 58 40
88 116 57
73 84 49
86 79 51
116 89 63
82 74 50
93 122 55
59 59 41
113 85 75
51 51 35
62 62 42
68 63 43
255 255 195
56 56 38
101 134 60
57 57 39
57 57 39
102 111 87
88 79 53
53 53 37
95 103 63
98 90 60
101 83 55
50 50 35
80 73 45
70 70 48
255 255 187
59 59 41
52 52 36
57 57 39
73 65 44
114 100 66
138 89 63
71 65 43
102 84 66
54 54 38
90 77 50
73 83 56
89 75 54
76 68 46
52 52 36
49 49 34
82 79 52
68 66 45
55 55 38
240 240 160
52 52 36
63 67 41
53 53 36
105 94 68
82 77 51
86 113 53
43 43 30
72 87 49
42 42 30
41 41 29
62 62 39
42 42 29
45 45 31
81 71 54
79 78 47
47 47 33
59 67 41
37 37 26
46 41 28
38 38 26
135 74 52
56 52 32
37 37 26
35 35 25
47 45 31
38 38 26
120 77 48
40 40 28
100 67 47
2 2 5
2 2 5
2 2 5
2 2 5
2 2 5
2 2 5
2 2 5
2 2 5
2 2 5
2 2 5
2 2 5
2 2 5
2 2 5
2 2 5
2 2 5
2 2 5
2 2 5
2 2 5
2 2 5
2 2 5
2 2 5
2 2 5
2 2 5
2 2 5
2 2 5
2 2 5
2 2 5
2 2 5
2 2 5
2 2 5
2 2 5
2 2 5
2 2 5
2 2 5
2 2 5
2 2 5
2 2 5
2 2 5
2 2 5
2 2 5
2 2 5
2 2 5
2 2 5
2 2 5
2 2 5
2 2 5
2 2 5
2 2 5
2 2 5
2 2 5
2 2 5
2 2 5
2 2 5
2 2 5
2 2 5
2 2 5
2 2 5
2 2 5
2 2 5
2 2 5
2 2 5
2 2 5
2 2 5
2 2 5
2 2 5
2 2 5
2 2 5
2 2 5
2 2 5
2 2 5
2 2 5
2 2 5
2 2 5
2 2 5
2 2 5
2 2 5
2 2 5
2 2 5
2 2 5
2 2 5
2 2 5
2 2 5
2 2 5
2 2 5
2 2 5
2 2 5
2 2 5
2 2 5
2 2 5
2 2 5
2 2 5
2 2 5
2 2 5
2 2 5
2 2 5
2 2 5
2 2 5
2 2 5
2 2 5
2 2 5
2 2 5
2 2 5
2 2 5
2 2 5
2 2 5
2 2 5
2 2 5
2 2 5
2 2 5
2 2 5
2 2 5
2 2 5
2 2 5
2 2 5
2 2 5
2 2 5
2 2 5
2 2 5
2 2 5
2 2 5
2 2 5
26 39 27
2 2 5
41 55 43
2 2 5
2 2 5
48 90 41
21 32 22
25 37 26
26 39 27
24 37 26
23 34 24
29 47 32
54 108 62
58 67 47
30 45 31
52 66 45
22 34 24
49 61 39
25 37 25
34 51 32
43 55 44
24 36 25
25 37 26
28 42 30
22 33 24
43 78 38
25 38 27
26 39 27
33 60 41
26 39 27
38 48 40
63 92 49
28 42 29
47 70 40
27 41 29
46 60 48
21 32 23
58 69 43
27 41 29
22 33 24
180 255 180
25 38 26
24 36 25
48 59 40
24 37 26
27 41 28
26 40 28
36 55 33
151 122 111
49 82 55
22 33 23
26 39 28
150 225 150
24 37 26
50 83 40
21 32 23
26 39 28
21 32 23
43 70 48
23 35 25
19 29 21
22 33 23
55 100 38
75 103 50
66 77 46
23 34 24
65 73 62
20 30 21
21 32 23
27 45 31
20 31 22
21 32 22
20 30 21
65 73 42
22 33 22
21 31 22
19 28 20
19 29 21
71 63 51
19 29 21
43 46 35
41 50 34
27 36 28
18 28 20
23 34 24
19 28 20
29 37 26
63 83 42
32 41 28
49 64 55
18 27 20
18 28 20
45 45 40
18 27 19
31 39 27
17 26 18
29 50 34
47 55 33
36 24 23
45 32 27
24 16 17
54 29 37
24 16 18
28 19 20
29 19 21
60 40 33
27 18 19
29 19 21
73 43 34
29 19 21
41 32 28
32 21 23
57 29 33
31 20 22
70 41 52
240 113 160
31 20 22
54 33 36
37 25 23
255 174 174
33 22 23
116 64 49
28 18 20
96 64 51
31 20 22
50 41 38
47 31 27
62 48 40
43 29 26
52 40 35
44 29 28
32 21 23
35 23 25
37 24 26
34 23 23
39 26 27
50 29 29
106 91 77
253 119 90
49 38 39
255 175 175
35 23 25
59 44 37
83 55 45
35 23 25
57 42 40
33 22 24
35 23 25
37 25 26
37 25 26
77 55 37
60 43 37
51 29 35
36 24 25
37 25 26
63 45 35
37 26 36
61 48 34
97 65 53
99 74 56
52 41 42
34 22 24
37 25 26
99 68 47
37 24 26
81 70 48
35 23 25
47 34 32
51 39 40
41 27 28
46 31 29
90 49 38
34 23 24
34 22 24
35 23 24
60 54 50
62 52 46
33 22 23
69 49 37
38 25 26
36 24 26
40 26 52
62 44 44
39 26 25
32 21 23
40 26 44
93 43 45
74 61 55
36 24 25
120 128 69
57 57 39
64 71 43
118 148 69
79 87 53
56 56 39
62 62 43
56 56 39
148 121 78
97 91 57
58 58 40
53 53 37
56 55 41
82 86 61
65 71 48
69 77 49
160 194 83
84 127 71
119 117 65
72 72 49
78 70 43
83 94 56
114 96 71
58 58 40
61 61 41
61 60 48
62 62 42
57 57 39
83 73 56
73 76 46
60 60 48
63 68 42
77 91 49
57 57 39
54 54 37
63 66 42
58 58 40
51 51 35
65 65 45
57 61 39
52 52 36
54 54 37
55 55 38
53 53 37
85 73 49
72 80 48
55 55 38
51 51 35
61 67 46
87 82 55
92 101 58
64 74 43
255 255 186
55 55 38
59 59 41
94 78 52
65 58 39
54 54 37
57 57 40
53 53 37
52 52 36
51 51 35
117 106 70
55 55 38
54 54 37
81 81 54
78 72 46
48 48 33
59 63 40
102 79 58
65 74 58
69 81 48
45 45 31
44 44 30
59 59 40
84 133 58
50 50 35
51 68 37
76 79 42
78 92 49
48 52 33
35 35 24
37 37 26
37 37 26
46 46 32
75 53 39
52 60 35
41 41 29
53 63 36
31 31 22
45 53 31
2 2 5
2 2 5
2 2 5
2 2 5
2 2 5
2 2 5
2 2 5
2 2 5
2 2 5
2 2 5
2 2 5
2 2 5
2 2 5
2 2 5
2 2 5
2 2 5
2 2 5
2 2 5
2 2 5
2 2 5
2 2 5
2 2 5
2 2 5
2 2 5
2 2 5
2 2 5
2 2 5
2 2 5
2 2 5
2 2 5
2 2 5
2 2 5
2 2 5
2 2 5
2 2 5
2 2 5
2 2 5
2 2 5
2 2 5
2 2 5
2 2 5
2 2 5
2 2 5
2 2 5
2 2 5
2 2 5
2 2 5
2 2 5
2 2 5
2 2 5
2 2 5
2 2 5
2 2 5
2 2 5
2 2 5
2 2 5
2 2 5
2 2 5
2 2 5
2 2 5
2 2 5
2 2 5
2 2 5
2 2 5
2 2 5
2 2 5
2 2 5
2 2 5
2 2 5
2 2 5
2 2 5
2 2 5
2 2 5
2 2 5
2 2 5
2 2 5
2 2 5
2 2 5
2 2 5
2 2 5
2 2 5
2 2 5
2 2 5
2 2 5
2 2 5
2 2 5
2 2 5
2 2 5
2 2 5
2 2 5
2 2 5
2 2 5
2 2 5
2 2 5
2 2 5
2 2 5
2 2 5
2 2 5
2 2 5
2 2 5
2 2 5
2 2 5
2 2 5
2 2 5
2 2 5
2 2 5
2 2 5
2 2 5
2 2 5
2 2 5
2 2 5
2 2 5
2 2 5
2 2 5
47 91 62
2 2 5
2 2 5
35 58 33
39 48 33
24 36 26
40 55 34
46 69 38
24 36 26
23 35 24
42 80 55
64 123 65
26 40 28
44 60 48
50 68 39
30 41 28
46 59 47
24 36 26
23 34 24
23 35 24
24 37 26
28 42 29
29 43 30
152 165 110
25 37 26
83 104 64
22 34 24
25 38 27
26 40 28
88 85 48
27 41 29
26 39 27
26 39 27
61 76 45
30 45 31
28 42 29
178 255 178
50 63 43
50 67 44
64 71 59
53 79 46
28 43 30
61 66 49
23 35 25
39 51 44
23 35 25
69 114 60
33 44 29
41 61 37
79 92 67
30 48 30
56 104 49
68 71 54
43 55 38
34 58 40
56 72 55
23 34 24
55 77 38
22 34 24
24 37 26
62 72 64
64 99 91
36 54 32
23 34 24
74 111 58
23 35 25
24 36 25
23 35 24
58 75 45
63 53 38
20 30 22
34 60 42
27 41 29
40 83 47
36 66 45
46 83 58
23 35 25
73 109 56
34 47 34
20 30 21
84 57 64
20 31 22
22 33 23
43 68 35
73 88 61
34 51 30
34 61 42
23 38 25
20 30 21
39 48 41
22 33 23
18 27 19
19 28 20
74 65 69
19 31 26
18 27 19
138 207 138
18 28 20
54 94 55
32 40 27
31 39 27
19 29 20
47 51 37
33 45 27
29 19 21
26 17 19
24 16 17
56 52 34
75 66 43
66 34 45
44 29 25
29 19 21
56 37 28
43 34 29
26 17 18
29 19 21
70 41 29
47 36 32
47 30 28
60 32 38
55 43 33
26 17 19
127 138 65
31 20 22
77 38 47
72 53 39
46 37 31
34 22 24
67 45 37
84 52 38
31 21 22
54 32 36
76 46 57
39 26 27
58 31 42
32 21 23
34 23 24
85 60 53
65 59 58
80 37 39
84 56 44
39 25 32
52 40 42
156 140 193
42 28 29
39 26 27
219 146 146
38 24 30
33 22 24
32 21 23
37 25 26
126 75 58
36 24 25
32 21 23
33 22 23
104 50 64
39 26 27
46 35 36
64 50 34
86 57 46
34 22 24
134 67 76
58 47 39
44 32 32
35 23 25
38 25 27
51 42 40
182 171 171
79 43 41
34 23 24
74 61 41
49 30 45
67 35 44
74 44 57
38 25 27
121 106 71
64 42 36
35 23 25
55 42 42
85 64 74
56 42 33
34 23 24
34 23 24
40 26 28
68 37 46
35 23 25
57 32 39
65 43 37
103 59 53
67 46 41
74 63 53
54 43 43
46 35 31
32 21 23
84 50 48
83 93 62
51 51 35
103 123 69
92 99 63
54 54 37
54 54 38
54 54 38
55 55 38
58 62 41
57 57 39
60 60 41
51 51 35
70 80 47
116 82 61
111 140 70
86 74 47
89 79 52
56 56 39
76 68 46
58 58 40
97 88 60
57 57 39
87 74 58
65 68 45
96 106 68
100 84 55
110 123 66
61 61 40
88 81 55
82 80 48
89 84 60
85 94 55
70 80 54
95 93 54
59 59 41
103 103 105
54 54 38
51 51 35
54 54 38
106 118 61
62 62 42
90 102 68
60 60 41
71 71 45
57 57 39
74 67 46
79 73 60
255 255 189
53 53 37
84 94 63
255 202 135
52 52 36
55 55 38
54 54 37
69 66 47
67 67 46
54 54 37
76 67 45
69 63 42
71 79 54
48 48 33
78 86 48
49 49 34
82 96 60
61 68 43
49 45 31
91 91 54
124 222 108
92 77 50
67 77 46
55 55 38
47 47 33
42 42 29
46 46 40
62 70 42
52 52 48
41 41 29
44 44 30
42 42 29
59 71 40
31 31 22
61 78 35
34 34 24
34 34 24
43 42 38
36 36 25
188 188 93
30 30 21
69 56 47
32 32 23
59 72 43
2 2 5
2 2 5
2 2 5
2 2 5
2 2 5
2 2 5
2 2 5
2 2 5
2 2 5
2 2 5
2 2 5
2 2 5
2 2 5
2 2 5
2 2 5
2 2 5
2 2 5
2 2 5
2 2 5
2 2 5
2 2 5
2 2 5
2 2 5
2 2 5
2 2 5
2 2 5
2 2 5
2 2 5
2 2 5
2 2 5
2 2 5
2 2 5
2 2 5
2 2 5
2 2 5
2 2 5
2 2 5
2 2 5
2 2 5
2 2 5
2 2 5
2 2 5
2 2 5
2 2 5
2 2 5
2 2 5
2 2 5
2 2 5
2 2 5
2 2 5
2 2 5
2 2 5
2 2 5
2 2 5
2 2 5
2 2 5
2 2 5
2 2 5
2 2 5
2 2 5
2 2 5
2 2 5
2 2 5
2 2 5
2 2 5
2 2 5
2 2 5
2 2 5
2 2 5
2 2 5
2 2 5
2 2 5
2 2 5
2 2 5
2 2 5
2 2 5
2 2 5
2 2 5
2 2 5
2 2 5
2 2 5
2 2 5
2 2 5
2 2 5
2 2 5
2 2 5
2 2 5
2 2 5
2 2 5
2 2 5
2 2 5
2 2 5
2 2 5
2 2 5
2 2 5
2 2 5
2 2 5
2 2 5
2 2 5
2 2 5
2 2 5
2 2 5
2 2 5
2 2 5
2 2 5
2 2 5
2 2 5
2 2 5
2 2 5
2 2 5
98 77 59
23 35 25
22 33 23
27 46 32
39 59 36
24 36 25
59 73 51
50 81 40
26 39 28
29 43 30
23 35 25
29 44 30
42 64 38
29 44 30
60 75 44
29 44 31
25 38 27
24 37 26
56 91 45
52 88 59
44 63 36
22 34 24
19 29 21
52 61 38
30 45 31
31 47 28
24 37 26
23 35 25
22 34 24
39 54 32
53 67 54
51 77 42
59 93 46
31 42 32
60 56 42
36 54 34
24 37 26
40 65 64
28 43 30
33 59 41
70 96 51
26 40 28
29 44 31
27 41 28
64 65 55
38 49 39
28 43 30
25 38 27
25 37 26
56 74 56
23 35 25
25 37 26
29 50 34
23 34 24
51 81 41
27 40 28
21 32 23
41 57 39
25 37 26
38 70 48
45 57 46
78 128 81
27 40 28
59 65 42
57 93 46
27 41 28
58 123 62
23 35 25
21 32 23
23 35 25
33 58 40
22 33 23
22 33 23
23 34 24
34 45 36
22 33 23
22 33 23
22 34 24
22 33 23
22 31 21
20 30 22
21 32 23
18 27 20
20 30 21
58 94 49
44 48 47
20 30 22
52 65 49
19 28 20
19 29 21
51 81 40
18 28 20
40 60 33
41 74 38
24 33 23
40 77 45
38 57 32
18 28 20
61 69 39
16 25 18
18 28 20
16 24 18
18 27 19
27 40 24
41 47 40
19 28 20
26 38 28
58 80 40
150 106 76
216 144 144
101 64 46
27 18 19
39 30 27
53 30 41
46 35 28
29 19 20
70 38 34
52 39 33
29 19 21
29 19 20
33 22 23
66 36 40
55 30 34
47 31 28
63 55 37
59 32 32
28 18 20
37 25 26
84 47 61
36 21 24
33 22 23
64 51 40
48 27 33
80 39 49
29 19 21
74 102 40
54 30 47
35 23 25
180 126 120
33 22 24
31 21 22
31 21 22
72 39 46
32 21 22
35 23 24
89 59 48
53 41 36
33 22 24
217 145 145
43 31 30
70 47 39
33 22 24
55 30 33
36 24 25
65 39 36
61 34 42
90 42 53
82 66 57
95 77 90
72 73 51
32 21 23
63 40 36
107 68 52
84 42 70
35 23 25
53 44 35
34 22 24
99 46 39
51 40 34
58 36 34
31 20 22
81 64 41
85 56 46
46 32 32
33 22 23
53 33 35
71 55 57
77 37 49
64 42 36
77 48 40
95 55 50
61 46 35
58 51 47
70 47 40
64 33 40
66 44 36
34 22 24
96 57 45
64 64 47
87 52 42
33 22 23
34 23 24
42 30 30
69 74 53
55 41 41
50 33 30
169 181 128
52 45 41
59 33 40
51 51 35
53 53 37
53 53 37
67 67 46
56 56 39
51 51 36
57 57 40
85 71 51
85 72 47
65 67 82
81 72 49
92 75 84
53 53 37
63 69 47
55 55 38
69 72 46
79 80 48
58 58 40
73 66 45
57 57 40
67 63 63
74 80 57
100 125 65
49 49 34
83 71 48
57 57 40
53 53 37
90 99 75
152 110 67
85 91 54
89 76 60
54 54 37
57 57 39
85 110 61
105 104 54
59 59 41
118 100 57
105 85 62
67 74 47
52 52 36
85 98 56
99 150 54
110 135 79
59 59 40
49 49 34
46 46 32
100 105 57
83 103 57
83 73 45
77 88 52
111 118 89
59 59 40
177 136 89
61 66 45
64 68 47
59 59 40
52 52 36
65 73 44
58 66 39
132 85 62
50 50 35
51 51 35
78 86 47
49 49 34
72 64 50
52 52 36
77 91 47
68 58 40
81 88 59
49 49 34
142 90 66
51 51 35
218 211 113
62 67 40
45 45 31
55 52 35
37 37 26
71 59 40
39 39 27
255 255 176
66 78 45
45 50 31
39 39 28
53 53 34
68 58 37
39 39 27
77 73 45
38 38 26
72 93 49
35 35 25
32 32 23
2 2 5
2 2 5
2 2 5
2 2 5
2 2 5
2 2 5
2 2 5
2 2 5
2 2 5
2 2 5
2 2 5
2 2 5
2 2 5
2 2 5
2 2 5
2 2 5
2 2 5
2 2 5
2 2 5
2 2 5
2 2 5
2 2 5
2 2 5
2 2 5
2 2 5
2 2 5
2 2 5
2 2 5
2 2 5
2 2 5
2 2 5
2 2 5
2 2 5
2 2 5
2 2 5
2 2 5
2 2 5
2 2 5
2 2 5
2 2 5
2 2 5
2 2 5
2 2 5
2 2 5
2 2 5
2 2 5
2 2 5
2 2 5
2 2 5
2 2 5
2 2 5
2 2 5
2 2 5
2 2 5
2 2 5
2 2 5
2 2 5
2 2 5
2 2 5
2 2 5
2 2 5
2 2 5
2 2 5
2 2 5
2 2 5
2 2 5
2 2 5
2 2 5
2 2 5
2 2 5
2 2 5
2 2 5
2 2 5
2 2 5
2 2 5
2 2 5
2 2 5
2 2 5
2 2 5
2 2 5
2 2 5
2 2 5
2 2 5
2 2 5
2 2 5
2 2 5
2 2 5
2 2 5
2 2 5
2 2 5
2 2 5
2 2 5
2 2 5
2 2 5
2 2 5
2 2 5
2 2 5
2 2 5
2 2 5
2 2 5
2 2 5
2 2 5
2 2 5
2 2 5
2 2 5
2 2 5
2 2 5
2 2 5
2 2 5
22 33 24
18 27 19
31 47 34
22 33 24
41 53 33
48 82 37
156 234 156
49 52 43
20 31 22
32 54 32
26 40 28
46 79 40
22 33 23
45 68 39
72 118 60
21 32 23
77 95 53
102 107 83
51 89 45
75 138 55
53 71 51
26 40 28
37 56 34
28 42 29
45 56 38
25 37 26
51 77 44
45 62 45
47 81 50
23 35 25
57 88 47
27 41 29
25 38 27
26 40 28
32 49 29
58 65 43
28 41 31
26 39 27
25 38 27
65 94 52
54 72 45
25 37 26
44 66 38
31 42 30
68 76 48
47 67 38
72 109 57
39 66 37
45 55 39
78 101 65
25 37 26
22 34 24
25 38 26
26 39 27
24 36 25
42 53 36
23 34 24
23 34 24
24 37 26
38 69 47
27 40 28
34 52 39
36 51 31
27 40 28
34 51 30
24 37 26
23 34 24
56 99 45
21 32 23
63 94 50
20 31 22
21 31 22
22 34 24
22 34 24
21 32 23
60 86 59
33 43 30
34 51 30
45 61 37
22 33 23
27 41 29
32 42 33
23 34 24
20 31 22
20 30 22
22 33 23
20 31 22
37 46 32
94 94 78
21 32 23
25 38 23
18 28 20
46 55 35
20 30 21
23 35 24
18 27 19
32 41 28
20 30 21
83 73 43
37 55 30
53 73 38
21 32 22
25 33 22
37 46 31
37 44 35
22 39 23
32 39 33
68 66 37
42 56 34
23 15 17
27 18 20
41 33 28
26 17 19
126 113 49
49 37 31
25 17 18
26 17 19
52 39 32
80 53 42
46 37 32
31 21 29
29 19 20
51 32 29
81 48 39
66 44 36
34 22 24
43 35 30
55 50 39
61 45 37
109 70 53
64 35 44
61 36 36
135 74 41
73 43 34
32 21 23
99 82 39
31 21 22
32 21 23
33 22 23
33 22 24
51 39 40
33 22 23
49 30 32
36 24 25
76 57 46
36 24 25
179 168 119
59 39 34
72 57 39
41 27 28
115 62 57
49 33 28
34 23 24
37 24 26
63 47 43
102 40 47
47 35 32
36 24 26
50 38 34
38 25 27
37 24 26
52 35 32
112 62 87
255 175 175
81 57 42
246 121 164
58 51 38
36 24 25
37 24 26
94 68 53
38 25 27
39 26 27
58 33 39
37 24 26
65 36 45
100 71 48
73 39 62
34 23 24
99 66 52
63 42 37
41 27 28
71 44 37
47 35 37
110 48 60
45 30 31
90 42 53
34 23 24
54 36 32
36 24 25
72 39 49
81 63 56
255 174 174
46 33 39
45 28 27
36 24 25
91 60 48
53 42 43
35 23 25
36 24 25
102 58 43
65 76 47
53 53 37
50 50 35
89 116 72
51 51 35
69 80 47
57 57 39
53 53 37
57 57 39
154 113 85
68 78 45
50 50 35
60 60 41
93 74 45
72 82 56
58 58 40
81 94 50
53 53 44
124 104 63
53 53 36
52 52 36
57 57 40
55 55 38
66 72 45
58 58 40
55 55 38
89 108 70
97 103 64
56 56 39
51 51 35
70 77 48
69 65 44
90 78 52
66 60 41
72 66 44
91 97 61
122 109 81
67 67 43
98 115 77
70 66 42
53 53 37
164 129 81
54 54 37
55 55 38
56 56 39
65 71 44
77 77 53
255 195 101
121 88 63
54 54 37
77 68 46
92 111 55
161 120 82
69 75 47
47 47 32
80 90 53
55 55 38
44 44 30
60 60 41
79 67 45
47 47 32
73 92 50
70 61 42
49 49 34
68 84 57
38 38 27
80 95 49
57 65 43
198 206 137
50 50 35
78 98 47
50 50 35
75 63 43
42 42 29
47 47 32
45 48 33
76 67 46
41 41 29
48 48 33
42 42 30
46 46 32
34 34 24
41 41 29
124 79 57
64 49 33
51 58 34
58 70 39
65 65 37
73 65 40
50 60 34
2 2 5
2 2 5
2 2 5
2 2 5
2 2 5
2 2 5
2 2 5
2 2 5
2 2 5
2 2 5
2 2 5
2 2 5
2 2 5
2 2 5
2 2 5
2 2 5
2 2 5
2 2 5
2 2 5
2 2 5
2 2 5
2 2 5
2 2 5
2 2 5
2 2 5
2 2 5
2 2 5
2 2 5
2 2 5
2 2 5
2 2 5
2 2 5
2 2 5
2 2 5
2 2 5
2 2 5
2 2 5
2 2 5
2 2 5
2 2 5
2 2 5
2 2 5
2 2 5
2 2 5
2 2 5
2 2 5
2 2 5
2 2 5
2 2 5
2 2 5
2 2 5
2 2 5
2 2 5
2 2 5
2 2 5
2 2 5
2 2 5
2 2 5
2 2 5
2 2 5
2 2 5
2 2 5
2 2 5
2 2 5
2 2 5
2 2 5
2 2 5
2 2 5
2 2 5
2 2 5
2 2 5
2 2 5
2 2 5
2 2 5
2 2 5
2 2 5
2 2 5
2 2 5
2 2 5
2 2 5
2 2 5
2 2 5
2 2 5
2 2 5
2 2 5
2 2 5
2 2 5
2 2 5
2 2 5
2 2 5
2 2 5
2 2 5
2 2 5
2 2 5
2 2 5
2 2 5
2 2 5
2 2 5
2 2 5
2 2 5
2 2 5
2 2 5
2 2 5
2 2 5
2 2 5
2 2 5
2 2 5
2 2 5
2 2 5
2 2 5
23 34 24
58 87 53
24 36 26
22 34 24
20 30 21
28 42 29
27 40 28
50 92 59
23 35 24
34 67 41
37 57 38
82 94 56
69 103 56
40 72 49
27 41 28
23 34 24
22 33 24
39 59 35
21 32 23
84 100 78
60 71 71
84 104 49
23 35 24
70 105 55
47 58 48
27 41 29
59 79 67
49 93 47
31 46 32
41 61 37
29 44 31
45 74 56
27 41 29
27 41 28
47 62 50
33 56 39
50 93 53
27 41 28
43 64 37
61 105 62
32 48 33
23 35 25
27 41 29
23 35 25
24 36 26
52 62 38
26 39 27
23 35 25
23 35 25
26 39 27
64 96 51
59 88 49
51 63 53
26 40 28
71 144 60
27 40 28
28 46 32
22 33 23
57 74 64
60 90 57
53 69 37
27 40 28
50 66 44
22 33 23
44 52 44
50 63 59
24 36 25
65 86 60
51 77 44
29 51 35
39 58 34
25 38 27
22 33 23
60 90 46
20 30 21
71 93 62
22 33 23
49 73 41
26 39 27
19 29 21
24 40 43
45 56 38
57 93 44
20 30 21
20 31 22
87 129 59
62 94 51
121 107 64
20 30 21
19 28 20
17 26 19
45 61 37
56 67 39
29 52 36
18 28 20
65 98 73
103 97 59
18 28 20
30 53 36
39 48 33
27 36 28
16 25 18
38 51 30
35 52 29
60 85 39
175 255 122
17 26 19
16 24 17
32 39 27
39 31 27
85 47 65
59 42 33
28 19 20
24 16 17
26 17 19
69 43 42
255 103 140
121 70 58
113 83 61
28 19 20
60 45 35
29 19 21
57 38 32
74 56 42
29 19 21
206 137 98
31 21 22
31 20 22
31 21 22
30 20 22
65 50 51
58 39 32
45 36 31
43 33 29
52 46 33
51 42 32
255 100 137
43 28 30
47 38 32
78 52 42
118 65 53
57 32 36
89 44 51
59 50 36
42 30 30
76 38 46
69 41 35
58 45 37
55 43 37
32 21 23
38 25 27
40 30 27
35 23 25
247 165 116
36 24 25
88 70 43
34 23 24
35 23 25
35 23 24
35 23 25
56 37 37
40 27 28
36 24 25
37 25 26
57 44 37
33 22 24
32 21 23
38 25 26
79 53 44
79 67 40
187 176 176
55 47 45
35 23 25
53 48 38
41 27 29
81 43 49
51 44 44
56 35 40
104 69 54
70 41 38
55 33 36
48 37 38
108 68 53
106 49 64
108 74 57
71 38 49
45 30 49
34 22 24
34 23 26
34 22 24
40 30 31
61 34 42
50 36 29
79 45 63
34 22 24
133 60 82
35 23 25
37 24 26
37 24 26
154 144 103
152 123 76
52 52 36
100 106 78
45 45 31
56 56 38
65 75 44
80 100 50
255 255 184
255 255 185
51 51 35
83 87 64
106 134 60
54 54 37
51 51 35
118 148 86
52 52 36
65 59 40
73 65 44
87 77 52
52 52 36
56 56 38
76 82 49
73 88 50
105 143 58
52 52 36
52 52 36
130 112 67
54 54 37
67 67 43
50 50 35
49 49 34
94 86 57
57 57 39
55 55 38
66 66 43
52 52 36
66 74 45
151 102 59
77 72 48
54 54 37
85 95 70
71 65 43
81 73 48
88 76 51
46 46 32
54 54 37
115 100 58
79 70 48
53 53 37
55 55 38
246 246 164
147 133 67
165 138 70
101 88 54
60 60 41
90 78 50
46 46 32
47 47 33
41 41 29
72 78 47
74 70 50
51 51 36
46 46 32
44 44 31
50 55 34
49 49 33
71 83 48
47 47 33
84 94 51
52 52 36
45 45 31
42 42 30
141 183 74
40 40 28
67 98 59
46 46 32
53 59 40
52 52 36
81 72 54
68 68 41
37 37 26
159 222 106
54 63 35
79 66 39
46 49 29
84 81 47
34 34 24
36 32 22
31 31 22
255 190 126
32 32 22
2 2 5
2 2 5
2 2 5
2 2 5
2 2 5
2 2 5
2 2 5
2 2 5
2 2 5
2 2 5
2 2 5
2 2 5
2 2 5
2 2 5
2 2 5
2 2 5
2 2 5
2 2 5
2 2 5
2 2 5
2 2 5
2 2 5
2 2 5
2 2 5
2 2 5
2 2 5
2 2 5
2 2 5
2 2 5
2 2 5
2 2 5
2 2 5
2 2 5
2 2 5
2 2 5
2 2 5
2 2 5
2 2 5
2 2 5
2 2 5
2 2 5
2 2 5
2 2 5
2 2 5
2 2 5
2 2 5
2 2 5
2 2 5
2 2 5
2 2 5
2 2 5
2 2 5
2 2 5
2 2 5
2 2 5
2 2 5
2 2 5
2 2 5
2 2 5
2 2 5
2 2 5
2 2 5
2 2 5
2 2 5
2 2 5
2 2 5
2 2 5
2 2 5
2 2 5
2 2 5
2 2 5
2 2 5
2 2 5
2 2 5
2 2 5
2 2 5
2 2 5
2 2 5
2 2 5
2 2 5
2 2 5
2 2 5
2 2 5
2 2 5
2 2 5
2 2 5
2 2 5
2 2 5
2 2 5
2 2 5
2 2 5
2 2 5
2 2 5
2 2 5
2 2 5
2 2 5
2 2 5
2 2 5
2 2 5
2 2 5
2 2 5
2 2 5
2 2 5
2 2 5
2 2 5
2 2 5
2 2 5
2 2 5
2 2 5
22 33 23
28 46 32
20 31 22
20 30 21
20 30 22
41 56 47
63 69 52
22 33 23
114 160 83
40 79 60
22 34 24
48 55 39
71 107 49
30 45 31
30 45 31
32 49 44
45 56 38
24 37 26
43 55 44
26 39 28
23 35 25
27 41 28
24 36 25
27 40 28
24 36 25
32 49 39
51 90 41
24 37 26
26 40 28
35 47 36
29 44 31
39 70 48
26 39 27
56 85 45
59 88 47
49 66 45
37 64 44
43 64 35
22 34 24
23 34 24
180 255 180
27 41 29
40 73 44
23 35 25
25 37 26
24 36 26
24 36 25
27 41 29
31 47 33
27 40 28
26 39 27
57 69 40
30 42 32
29 43 30
29 44 31
70 78 45
66 82 61
21 31 22
23 34 24
25 38 27
25 37 26
35 46 36
24 36 25
38 48 33
36 47 34
24 36 25
36 45 31
57 68 42
23 35 25
57 71 41
40 57 32
21 31 22
183 255 82
20 30 21
55 106 39
38 58 33
21 31 22
22 33 23
118 119 50
22 33 24
38 46 31
30 55 38
20 30 21
20 30 21
19 29 21
143 153 143
38 48 33
36 45 31
35 40 31
20 30 21
67 68 47
56 60 40
115 121 86
19 29 21
19 28 20
32 48 27
54 74 46
17 26 19
18 27 20
74 69 40
21 32 23
18 27 19
17 25 18
19 28 20
21 34 24
18 27 19
24 42 29
18 27 19
18 27 20
39 31 27
114 70 51
72 38 34
46 35 29
41 29 32
75 56 35
23 15 17
25 17 18
23 15 17
56 58 41
43 36 30
27 18 20
47 38 36
92 67 60
98 71 49
187 179 125
30 20 22
85 45 53
29 19 20
67 40 45
62 39 52
34 23 24
44 29 31
32 21 22
85 56 41
107 71 56
36 26 27
45 35 31
65 35 39
31 20 22
32 21 22
55 37 32
61 49 41
31 20 22
79 55 46
79 48 61
32 21 23
48 32 29
53 31 37
86 46 44
97 56 44
41 27 28
32 21 22
52 42 36
35 23 25
33 22 24
54 36 32
54 31 37
34 23 24
80 53 43
55 42 33
78 60 76
35 23 25
83 50 48
39 26 27
36 24 25
32 21 23
67 43 37
57 38 32
60 34 41
33 22 23
35 23 24
36 24 25
85 45 39
35 23 25
63 42 34
53 43 36
77 48 38
78 56 41
143 73 67
85 74 48
35 23 25
35 23 25
37 25 26
78 40 43
52 37 34
34 23 24
35 23 25
62 45 37
36 24 25
46 28 27
85 56 46
51 33 33
35 23 25
80 43 39
61 43 49
77 43 72
36 24 25
40 27 28
156 144 104
139 59 67
52 52 36
70 75 51
52 52 36
84 74 58
46 46 32
50 50 35
67 62 45
89 76 61
106 113 60
53 53 37
85 72 50
143 114 81
101 119 65
104 89 55
52 52 36
84 89 77
99 89 50
62 62 42
89 82 51
96 84 52
57 57 39
58 58 40
61 61 42
56 56 39
179 175 91
50 50 35
75 83 55
83 90 55
71 80 48
51 51 36
120 154 80
52 52 36
64 64 44
55 55 38
53 53 37
63 62 59
81 89 65
66 72 49
51 51 35
255 180 81
58 58 40
55 55 38
48 48 33
75 85 50
47 47 33
255 255 183
63 71 49
58 58 40
62 62 42
50 50 35
42 42 29
77 89 58
84 73 57
94 116 57
52 52 36
103 160 71
53 53 37
73 63 42
56 56 39
57 53 37
59 64 44
49 49 34
74 66 45
125 133 56
94 80 54
58 63 38
63 56 37
90 100 56
65 77 52
71 92 44
38 38 27
60 65 40
41 41 28
115 105 55
48 48 33
42 42 30
111 98 57
41 41 29
71 61 41
39 39 27
83 63 44
43 43 30
39 39 27
84 73 46
35 35 25
40 40 28
53 56 35
33 33 23
34 34 24
30 30 21
30 30 22
2 2 5
2 2 5
2 2 5
2 2 5
2 2 5
2 2 5
2 2 5
2 2 5
2 2 5
2 2 5
2 2 5
2 2 5
2 2 5
2 2 5
2 2 5
2 2 5
2 2 5
2 2 5
2 2 5
2 2 5
2 2 5
2 2 5
2 2 5
2 2 5
2 2 5
2 2 5
2 2 5
2 2 5
2 2 5
2 2 5
2 2 5
2 2 5
2 2 5
2 2 5
2 2 5
2 2 5
2 2 5
2 2 5
2 2 5
2 2 5
2 2 5
2 2 5
2 2 5
2 2 5
2 2 5
2 2 5
2 2 5
2 2 5
2 2 5
2 2 5
2 2 5
2 2 5
2 2 5
2 2 5
2 2 5
2 2 5
2 2 5
2 2 5
2 2 5
2 2 5
2 2 5
2 2 5
2 2 5
2 2 5
2 2 5
2 2 5
2 2 5
2 2 5
2 2 5
2 2 5
2 2 5
2 2 5
2 2 5
2 2 5
2 2 5
2 2 5
2 2 5
2 2 5
2 2 5
2 2 5
2 2 5
2 2 5
2 2 5
2 2 5
2 2 5
2 2 5
2 2 5
2 2 5
2 2 5
2 2 5
2 2 5
2 2 5
2 2 5
2 2 5
2 2 5
2 2 5
2 2 5
2 2 5
2 2 5
2 2 5
2 2 5
2 2 5
2 2 5
2 2 5
2 2 5
2 2 5
2 2 5
2 2 5
2 2 5
23 34 24
22 33 23
48 72 41
23 34 24
24 36 26
28 42 29
23 34 24
23 34 24
22 34 24
39 53 35
53 80 44
23 35 25
22 33 24
67 73 61
26 39 27
33 53 45
23 35 25
57 72 48
23 35 25
80 173 55
24 36 25
26 39 27
27 41 29
32 55 38
33 44 30
23 34 24
22 34 24
100 117 54
24 37 26
74 111 51
49 66 37
25 38 27
85 133 60
36 59 34
175 255 175
47 58 39
27 40 28
26 39 28
45 77 38
34 60 41
24 36 25
22 33 23
24 36 25
26 39 27
25 38 27
43 59 35
41 61 35
45 75 50
44 66 39
50 99 66
53 91 64
46 59 40
35 60 41
25 38 27
90 85 51
21 32 23
82 90 51
40 73 47
28 42 30
54 68 43
45 57 39
74 64 46
26 39 27
31 43 29
27 47 44
26 39 27
38 58 33
40 72 49
68 67 50
45 56 38
24 36 25
21 32 23
23 35 31
23 35 25
19 28 20
38 58 33
23 35 25
60 66 47
20 30 21
34 62 43
33 45 28
39 53 33
51 62 51
21 32 22
27 46 32
67 63 57
21 32 23
20 30 21
30 54 36
19 28 20
55 72 37
48 81 38
18 28 20
35 43 36
49 63 39
18 28 20
17 26 19
23 35 25
17 26 19
51 60 52
22 33 23
31 43 25
38 66 31
19 28 20
52 57 33
46 54 47
94 144 94
92 141 94
169 254 169
25 17 18
76 64 54
57 46 33
82 74 46
37 29 25
45 41 30
88 50 39
56 37 31
28 18 20
58 29 27
101 47 70
63 49 33
27 18 19
66 50 44
26 17 18
52 42 35
46 37 31
82 54 43
27 18 20
57 41 33
88 59 46
67 72 52
51 39 34
73 42 49
45 36 38
36 24 25
52 42 35
115 81 61
48 38 32
49 32 29
34 23 24
47 34 33
67 47 35
34 23 24
85 35 45
35 23 24
34 23 24
36 24 25
32 21 23
78 52 43
255 176 176
76 41 44
70 36 44
50 39 48
66 61 56
37 24 26
67 44 45
52 32 38
31 21 22
74 64 39
35 23 25
36 24 25
86 46 38
160 199 80
119 69 54
54 31 37
37 25 26
62 34 42
36 26 25
58 40 41
36 24 25
93 47 41
41 31 27
37 24 26
74 56 40
57 44 44
34 22 24
64 43 37
34 23 24
36 24 25
99 66 60
36 24 26
37 24 37
34 22 24
49 38 40
75 46 38
32 21 23
36 24 31
44 29 28
33 22 24
78 66 47
70 43 37
104 53 67
34 23 24
34 22 24
36 24 25
41 28 27
69 46 38
33 22 23
44 29 30
255 123 174
75 103 64
46 46 32
103 84 68
80 90 48
91 78 53
99 95 67
255 255 185
74 87 46
55 55 38
255 255 188
77 91 52
52 52 36
76 95 53
54 54 38
81 85 57
96 110 52
69 64 42
52 52 36
143 95 57
80 88 51
255 255 188
49 49 34
127 87 62
64 77 41
58 58 40
115 103 73
123 130 77
68 73 50
53 53 37
54 54 38
164 221 112
110 123 74
65 65 50
54 54 38
80 86 61
73 83 49
73 93 48
55 55 38
92 73 52
54 54 37
55 55 38
50 50 35
79 88 68
63 71 43
77 97 64
85 76 51
97 123 54
75 83 50
50 50 34
50 50 35
56 56 39
107 85 58
57 57 39
84 99 53
45 45 31
44 44 31
47 47 33
255 255 182
54 58 37
83 85 50
103 78 52
86 96 61
70 62 42
78 93 49
117 101 61
83 76 45
105 92 64
43 43 30
79 68 43
52 52 36
67 70 45
106 95 64
49 53 54
115 80 47
92 78 49
45 45 31
61 64 37
67 83 44
32 32 23
41 41 29
73 69 48
33 33 24
79 95 42
182 255 121
33 33 23
99 101 49
61 53 36
73 56 34
29 29 21
54 45 31
46 46 28
2 2 5
2 2 5
2 2 5
2 2 5
2 2 5
2 2 5
2 2 5
2 2 5
2 2 5
2 2 5
2 2 5
2 2 5
2 2 5
2 2 5
2 2 5
2 2 5
2 2 5
2 2 5
2 2 5
2 2 5
2 2 5
2 2 5
2 2 5
2 2 5
2 2 5
2 2 5
2 2 5
2 2 5
2 2 5
2 2 5
2 2 5
2 2 5
2 2 5
2 2 5
2 2 5
2 2 5
2 2 5
2 2 5
2 2 5
2 2 5
2 2 5
2 2 5
2 2 5
2 2 5
2 2 5
2 2 5
2 2 5
2 2 5
2 2 5
2 2 5
2 2 5
2 2 5
2 2 5
2 2 5
2 2 5
2 2 5
2 2 5
2 2 5
2 2 5
2 2 5
2 2 5
2 2 5
2 2 5
2 2 5
2 2 5
2 2 5
2 2 5
2 2 5
2 2 5
2 2 5
2 2 5
2 2 5
2 2 5
2 2 5
2 2 5
2 2 5
2 2 5
2 2 5
2 2 5
2 2 5
2 2 5
2 2 5
2 2 5
2 2 5
2 2 5
2 2 5
2 2 5
2 2 5
2 2 5
2 2 5
2 2 5
2 2 5
2 2 5
2 2 5
2 2 5
2 2 5
2 2 5
2 2 5
2 2 5
2 2 5
2 2 5
2 2 5
2 2 5
2 2 5
2 2 5
2 2 5
2 2 5
2 2 5
2 2 5
22 33 24
67 92 63
19 28 20
35 61 40
41 53 36
25 38 26
78 89 44
24 36 26
58 81 48
25 38 27
35 61 42
22 34 24
38 58 34
65 86 45
28 42 29
21 32 23
24 37 26
52 67 39
24 37 26
26 39 27
29 44 30
109 85 62
21 32 23
28 42 26
22 33 24
177 255 177
29 43 30
27 41 29
26 39 27
63 95 52
52 75 40
27 41 25
40 67 45
169 253 120
26 39 27
32 48 31
29 44 31
37 64 44
38 48 33
25 38 27
47 70 43
43 56 38
28 43 30
54 94 46
27 41 29
26 39 28
61 92 52
35 56 35
38 64 43
23 35 25
32 57 36
26 39 27
21 31 22
45 85 38
45 68 39
23 35 25
25 37 26
37 66 46
21 32 23
32 58 40
28 42 29
25 38 27
23 35 25
81 111 95
49 59 44
24 37 26
21 32 23
173 255 173
29 40 26
137 153 99
54 66 51
19 29 21
22 33 24
159 232 110
59 60 46
30 51 36
49 73 40
25 37 26
21 32 23
25 37 26
53 91 53
52 78 42
19 28 20
20 30 21
45 58 45
19 28 20
57 65 49
37 47 32
25 38 23
78 159 106
20 30 21
26 45 31
18 28 20
19 29 21
50 60 47
64 73 60
18 28 20
33 55 34
18 27 19
19 28 20
62 86 44
20 30 21
17 26 19
17 26 19
30 45 26
31 58 40
78 113 46
28 36 25
33 57 30
23 15 17
203 95 71
23 15 16
53 26 30
23 15 17
61 47 32
25 16 18
91 67 50
36 28 25
30 20 21
86 51 41
43 29 25
62 43 35
26 17 19
29 19 20
30 20 21
60 32 41
68 51 40
31 21 22
90 65 45
55 33 44
29 19 21
85 69 54
42 28 29
32 21 23
29 19 21
30 20 21
66 40 51
28 19 20
255 173 173
36 24 25
30 20 21
82 42 47
74 49 47
50 33 32
47 37 32
85 39 50
40 26 31
255 174 174
34 22 24
103 74 49
55 44 35
97 56 88
61 34 42
108 72 56
34 22 24
37 24 26
62 41 35
35 23 25
36 24 25
36 24 25
42 27 45
44 34 30
39 26 27
51 40 35
109 59 70
42 28 29
34 22 24
73 50 43
54 36 32
64 40 59
100 44 52
60 52 40
50 36 34
65 46 67
51 39 36
91 61 48
56 43 36
98 50 43
70 37 34
35 23 25
32 21 22
63 35 43
64 40 35
61 45 37
65 36 45
33 22 24
93 85 58
53 29 52
38 25 26
60 42 33
59 39 36
76 55 49
36 24 25
68 49 40
33 22 23
54 36 30
75 40 51
31 21 22
32 21 23
45 30 31
53 53 36
48 48 33
99 89 58
98 80 52
51 51 36
98 80 66
255 202 134
95 86 53
53 53 37
62 68 42
53 53 37
65 74 44
60 55 38
69 77 53
62 67 41
89 94 51
95 85 65
89 81 51
47 47 33
51 51 35
86 73 50
55 55 38
66 72 49
91 99 54
55 55 38
54 54 38
47 47 33
87 112 50
88 106 65
255 255 188
107 161 67
55 55 38
75 81 54
56 61 41
50 50 35
84 73 57
50 50 35
86 102 52
48 48 33
45 45 31
54 54 38
104 81 51
83 96 59
56 56 39
73 67 44
54 54 38
71 80 48
66 61 41
110 132 75
89 99 56
51 51 35
50 50 35
56 56 39
52 52 36
55 55 38
113 84 75
116 92 60
51 51 35
96 76 61
63 69 42
55 61 37
98 89 65
67 65 48
91 94 54
84 82 49
59 64 39
64 74 44
59 59 40
98 79 47
61 51 33
37 37 26
88 107 50
46 46 32
43 43 30
33 33 24
37 41 26
52 57 35
43 43 30
42 41 35
78 68 43
36 36 25
43 43 30
29 29 21
33 33 24
33 33 23
71 76 51
31 31 22
32 32 23
65 59 36
37 41 28
29 29 21
2 2 5
2 2 5
2 2 5
2 2 5
2 2 5
2 2 5
2 2 5
2 2 5
2 2 5
2 2 5
2 2 5
2 2 5
2 2 5
2 2 5
2 2 5
2 2 5
2 2 5
2 2 5
2 2 5
2 2 5
2 2 5
2 2 5
2 2 5
2 2 5
2 2 5
2 2 5
2 2 5
2 2 5
2 2 5
2 2 5
2 2 5
2 2 5
2 2 5
2 2 5
2 2 5
2 2 5
2 2 5
2 2 5
2 2 5
2 2 5
2 2 5
2 2 5
2 2 5
2 2 5
2 2 5
2 2 5
2 2 5
2 2 5
2 2 5
2 2 5
2 2 5
2 2 5
2 2 5
2 2 5
2 2 5
2 2 5
2 2 5
2 2 5
2 2 5
2 2 5
2 2 5
2 2 5
2 2 5
2 2 5
2 2 5
2 2 5
2 2 5
2 2 5
2 2 5
2 2 5
2 2 5
2 2 5
2 2 5
2 2 5
2 2 5
2 2 5
2 2 5
2 2 5
2 2 5
2 2 5
2 2 5
2 2 5
2 2 5
2 2 5
2 2 5
2 2 5
2 2 5
2 2 5
2 2 5
2 2 5
2 2 5
2 2 5
2 2 5
2 2 5
2 2 5
2 2 5
2 2 5
2 2 5
2 2 5
2 2 5
2 2 5
2 2 5
2 2 5
2 2 5
2 2 5
2 2 5
2 2 5
2 2 5
2 2 5
33 45 31
32 48 29
23 34 24
21 32 23
20 31 22
23 34 24
21 31 22
74 131 41
36 54 34
56 71 54
42 81 54
29 43 30
25 38 27
71 83 53
49 74 41
181 255 128
25 38 27
25 38 27
26 39 27
70 87 62
30 46 32
27 41 29
31 47 33
40 57 41
64 101 73
23 35 24
56 90 45
61 71 38
35 61 42
52 84 45
29 44 31
26 39 28
25 38 26
40 63 46
41 53 36
24 36 25
57 69 50
93 122 58
47 58 40
62 71 58
23 35 25
51 79 49
27 40 28
45 78 49
26 40 28
65 102 47
26 39 27
27 40 28
200 255 140
55 83 47
71 78 45
26 40 28
25 37 26
50 83 64
25 38 27
25 38 27
46 58 35
51 64 47
24 36 25
41 50 34
52 90 41
44 71 50
44 52 36
57 76 47
53 75 48
31 55 38
22 33 23
32 51 38
24 36 25
47 58 39
20 31 22
41 54 34
22 33 23
172 255 172
20 30 21
19 29 21
22 34 24
19 29 20
19 28 20
25 37 26
45 55 37
21 32 23
27 37 24
39 59 35
35 66 34
50 63 40
94 104 39
20 30 22
21 32 23
40 56 30
36 45 31
20 30 21
39 44 29
65 75 43
76 83 49
26 46 32
18 27 19
60 73 37
17 26 19
17 26 19
19 29 21
18 27 19
18 28 20
18 28 20
39 58 32
59 82 39
47 119 57
38 46 38
24 44 31
74 46 38
23 15 17
49 35 29
74 42 30
38 30 26
24 16 18
180 58 56
91 47 40
28 19 20
66 35 50
47 38 32
60 57 45
25 17 18
35 24 24
64 49 39
30 20 21
26 17 19
32 21 23
30 20 22
49 40 33
60 47 38
61 48 44
44 35 30
41 27 25
57 48 35
31 20 22
76 40 47
31 20 22
255 174 174
36 24 25
31 21 22
66 37 37
82 45 45
80 42 53
58 60 43
132 74 58
112 65 68
69 70 67
72 48 40
84 53 41
33 22 23
54 31 37
51 32 36
34 22 24
59 40 34
65 44 38
36 24 25
67 40 49
83 65 43
32 21 22
34 22 24
46 31 28
33 22 23
36 24 25
51 47 47
63 42 36
76 43 49
56 32 38
74 57 42
108 87 55
65 38 44
65 49 43
34 23 24
51 29 35
66 44 37
47 29 29
58 33 40
94 44 57
35 23 25
60 35 35
40 28 27
33 22 23
59 54 51
255 174 174
68 49 37
34 23 24
57 43 43
71 51 39
61 34 42
33 22 23
40 30 28
56 48 48
62 43 34
56 37 32
255 172 172
59 37 34
35 23 25
44 33 28
32 21 23
32 21 23
71 69 50
78 69 53
52 52 36
82 66 47
61 64 40
61 68 46
76 66 51
70 76 47
47 47 33
82 71 48
94 83 49
90 101 67
53 53 37
64 72 42
130 103 61
65 72 44
73 75 50
98 77 56
83 103 61
62 76 44
68 77 46
99 88 54
54 54 38
54 54 37
54 54 38
82 68 49
65 80 47
101 84 64
44 44 31
97 104 54
89 114 54
52 52 36
45 45 32
74 77 49
63 63 43
122 107 80
91 94 66
158 160 135
147 108 74
94 85 53
74 64 44
50 50 35
96 85 71
50 50 35
71 65 44
65 71 47
51 51 35
46 46 32
52 52 36
58 58 40
103 112 55
198 255 132
42 42 29
64 74 40
64 84 52
70 85 67
112 149 84
49 49 34
49 49 34
90 101 55
64 77 43
72 79 49
86 76 65
67 76 46
65 57 56
54 54 38
57 64 38
42 42 32
55 49 33
68 58 39
42 42 30
84 69 67
50 50 34
42 42 30
57 64 39
84 105 51
34 34 24
79 56 42
36 36 25
90 86 58
60 76 51
36 36 25
42 42 29
73 62 48
64 60 32
63 90 47
46 51 31
61 55 34
31 31 22
28 28 20
70 59 40
58 48 33
2 2 5
2 2 5
2 2 5
2 2 5
2 2 5
2 2 5
2 2 5
2 2 5
2 2 5
2 2 5
2 2 5
2 2 5
2 2 5
2 2 5
2 2 5
2 2 5
2 2 5
2 2 5
2 2 5
2 2 5
2 2 5
2 2 5
2 2 5
2 2 5
2 2 5
2 2 5
2 2 5
2 2 5
2 2 5
2 2 5
2 2 5
2 2 5
2 2 5
2 2 5
2 2 5
2 2 5
2 2 5
2 2 5
2 2 5
2 2 5
2 2 5
2 2 5
2 2 5
2 2 5
2 2 5
2 2 5
2 2 5
2 2 5
2 2 5
2 2 5
2 2 5
2 2 5
2 2 5
2 2 5
2 2 5
2 2 5
2 2 5
2 2 5
2 2 5
2 2 5
2 2 5
2 2 5
2 2 5
2 2 5
2 2 5
2 2 5
2 2 5
2 2 5
2 2 5
2 2 5
2 2 5
2 2 5
2 2 5
2 2 5
2 2 5
2 2 5
2 2 5
2 2 5
2 2 5
2 2 5
2 2 5
2 2 5
2 2 5
2 2 5
2 2 5
2 2 5
2 2 5
2 2 5
2 2 5
2 2 5
2 2 5
2 2 5
2 2 5
2 2 5
2 2 5
2 2 5
2 2 5
2 2 5
2 2 5
2 2 5
2 2 5
2 2 5
2 2 5
2 2 5
2 2 5
2 2 5
2 2 5
2 2 5
2 2 5
64 124 54
21 32 23
40 61 42
30 45 27
27 41 29
60 66 48
72 100 51
33 50 27
25 38 27
150 255 108
50 75 42
41 52 42
43 69 38
43 58 40
21 32 23
51 81 43
50 75 41
27 41 28
23 35 25
33 47 28
53 79 43
32 55 38
54 81 46
34 48 55
26 39 27
155 255 86
65 87 44
22 33 24
26 43 26
28 43 30
122 159 123
44 75 38
96 160 56
24 36 25
27 41 29
67 62 65
22 33 24
45 57 39
24 37 26
40 73 50
25 38 27
60 101 38
39 59 39
24 36 26
44 64 35
25 37 26
73 80 44
41 53 43
60 101 52
25 38 27
60 90 50
28 39 30
65 72 62
26 40 28
22 33 23
49 69 37
25 38 26
69 117 51
23 35 25
63 86 50
26 39 27
21 32 23
25 37 26
25 37 26
22 33 23
31 47 30
25 37 26
22 33 23
44 84 48
31 43 29
22 34 24
45 75 37
22 34 24
38 44 28
49 58 49
38 50 34
19 28 20
23 35 25
20 30 22
56 67 49
44 72 54
36 45 31
17 26 17
22 33 23
20 30 21
60 71 36
36 46 37
32 61 33
20 31 22
51 84 58
81 126 39
19 29 20
18 28 20
32 42 29
34 73 38
19 29 20
20 30 21
18 28 20
169 253 169
39 52 31
31 37 29
32 41 28
32 39 27
40 54 33
31 39 27
17 26 18
16 25 18
83 75 112
29 54 37
67 32 36
42 28 24
48 39 32
44 32 28
55 30 33
73 64 44
58 60 43
113 64 47
83 86 43
27 18 19
27 18 20
26 17 19
104 66 51
54 36 30
34 23 21
67 47 42
27 18 20
43 28 26
40 32 28
29 19 21
31 25 39
41 32 28
28 19 20
95 80 63
53 50 40
67 46 37
49 38 39
37 27 25
31 20 22
63 55 37
34 22 23
102 90 55
34 23 24
33 22 23
92 50 75
66 37 44
90 65 46
33 22 23
35 23 24
61 40 39
58 34 29
128 46 61
83 61 50
30 20 21
34 23 29
29 19 21
68 45 38
118 61 52
36 24 26
100 62 49
34 22 24
37 25 32
35 23 25
81 48 39
40 26 25
52 30 33
33 22 24
37 25 26
53 35 32
32 21 23
33 22 24
37 25 26
36 24 26
33 22 24
34 22 24
73 49 85
35 23 25
255 175 175
71 59 41
58 47 39
49 39 43
54 41 35
75 45 57
57 32 39
33 22 23
53 42 39
86 46 55
35 23 25
255 125 177
63 45 34
32 21 23
42 34 31
34 22 24
77 41 53
73 43 32
34 22 24
33 22 23
33 22 23
233 152 85
70 52 48
33 22 23
79 89 47
103 126 71
53 53 37
144 116 68
50 50 35
66 61 41
76 90 49
103 78 56
69 77 53
79 69 47
66 66 45
88 76 60
53 53 36
49 49 34
72 68 52
84 77 49
83 85 59
69 73 50
94 93 66
56 62 42
57 57 39
177 255 192
52 52 36
50 50 35
100 118 66
53 53 36
79 94 46
73 64 44
76 88 49
52 52 36
85 86 51
166 170 113
50 50 35
65 73 43
50 50 35
51 51 35
52 52 36
52 52 36
93 73 52
71 65 41
52 52 36
100 130 67
49 49 34
47 47 33
70 62 42
49 49 34
66 61 45
56 56 38
132 100 57
66 61 41
62 62 47
56 56 39
49 49 34
52 52 36
70 67 51
41 41 29
72 77 44
45 45 31
45 45 31
61 66 44
64 55 36
44 44 31
137 106 65
66 72 45
48 48 33
69 62 42
49 49 34
185 254 123
44 44 29
66 76 45
45 45 31
55 55 38
81 71 45
61 71 39
93 96 46
49 56 34
38 38 27
71 61 49
51 58 40
81 81 51
54 65 36
62 54 36
34 34 24
147 88 87
30 30 22
117 114 57
57 69 39
55 46 31
34 34 24
32 32 23
52 88 44
2 2 5
2 2 5
2 2 5
2 2 5
2 2 5
2 2 5
2 2 5
2 2 5
2 2 5
2 2 5
2 2 5
2 2 5
2 2 5
2 2 5
2 2 5
2 2 5
2 2 5
2 2 5
2 2 5
2 2 5
2 2 5
2 2 5
2 2 5
2 2 5
2 2 5
2 2 5
2 2 5
2 2 5
2 2 5
2 2 5
2 2 5
2 2 5
2 2 5
2 2 5
2 2 5
2 2 5
2 2 5
2 2 5
2 2 5
2 2 5
2 2 5
2 2 5
2 2 5
2 2 5
2 2 5
2 2 5
2 2 5
2 2 5
2 2 5
2 2 5
2 2 5
2 2 5
2 2 5
2 2 5
2 2 5
2 2 5
2 2 5
2 2 5
2 2 5
2 2 5
2 2 5
2 2 5
2 2 5
2 2 5
2 2 5
2 2 5
2 2 5
2 2 5
2 2 5
2 2 5
2 2 5
2 2 5
2 2 5
2 2 5
2 2 5
2 2 5
2 2 5
2 2 5
2 2 5
2 2 5
2 2 5
2 2 5
2 2 5
2 2 5
2 2 5
2 2 5
2 2 5
2 2 5
2 2 5
2 2 5
2 2 5
2 2 5
2 2 5
2 2 5
2 2 5
2 2 5
2 2 5
2 2 5
2 2 5
2 2 5
2 2 5
2 2 5
2 2 5
2 2 5
2 2 5
2 2 5
2 2 5
2 2 5
2 2 5
19 29 20
26 39 28
49 65 49
19 28 20
40 50 41
56 79 42
52 79 42
35 53 32
108 255 78
20 30 22
26 39 27
51 69 48
37 66 45
44 55 35
24 36 25
25 40 43
21 32 22
46 69 40
49 66 38
55 83 45
24 36 25
43 65 38
21 32 22
57 86 46
57 86 48
23 35 24
26 39 27
24 36 26
41 57 38
29 44 31
21 32 23
24 36 26
28 42 30
23 34 24
28 43 30
93 104 90
24 36 26
21 32 23
41 51 42
31 52 36
30 43 30
24 36 25
35 52 31
51 83 43
53 66 44
48 65 41
44 57 39
28 42 29
73 109 57
55 100 52
47 59 39
40 50 34
45 61 46
25 38 27
26 39 27
38 69 35
27 41 29
22 33 23
44 66 34
70 72 63
24 37 26
22 34 24
74 83 66
29 49 32
38 63 32
72 84 49
22 34 24
39 50 34
42 65 38
58 88 55
36 48 38
55 78 41
34 45 31
48 58 49
34 60 40
37 67 46
22 34 24
53 66 48
19 29 20
30 49 33
34 58 39
22 34 24
20 31 22
33 68 41
22 33 23
21 32 23
20 31 22
35 44 36
38 57 37
18 27 19
60 69 40
60 68 40
27 41 24
32 39 27
48 84 51
18 27 19
31 47 27
16 25 18
33 42 29
29 43 29
19 29 21
20 30 21
35 44 30
28 36 29
41 49 42
16 25 18
17 26 19
49 55 37
15 23 17
61 47 33
40 32 27
24 16 17
56 51 40
27 18 20
44 26 29
32 21 22
61 29 33
25 17 18
85 56 44
24 16 17
43 34 30
90 60 47
29 19 21
29 19 21
32 21 22
43 32 27
49 38 33
75 50 40
29 19 21
30 20 21
46 30 26
29 19 21
54 49 38
32 21 22
43 33 29
85 41 47
32 21 23
52 45 34
43 28 29
111 72 52
74 54 40
32 21 22
99 51 49
68 51 59
36 24 25
125 59 67
27 18 20
66 44 36
69 38 47
44 29 30
31 20 22
31 20 22
255 174 174
48 41 34
37 24 26
32 21 23
73 66 42
73 57 44
33 22 23
31 20 22
46 35 32
47 36 32
89 62 51
76 57 45
34 23 24
57 33 36
55 32 36
61 37 29
106 89 78
38 28 29
79 55 43
43 26 30
95 85 71
58 31 34
60 82 38
87 46 59
33 22 23
33 22 23
34 22 24
35 23 24
81 61 46
95 63 50
57 38 33
46 35 37
40 26 27
46 34 32
255 174 174
97 70 49
57 38 34
52 37 32
82 65 52
33 22 23
79 76 50
36 24 25
34 23 24
49 37 37
88 65 50
35 23 25
33 22 23
108 69 53
63 59 39
52 52 36
80 69 47
63 73 51
76 90 54
73 65 44
61 67 42
53 53 37
51 51 36
94 84 56
55 55 38
73 64 44
82 71 47
85 73 49
78 89 63
95 83 58
127 87 68
82 90 51
54 54 37
255 255 189
90 74 51
98 97 67
52 52 36
92 82 67
72 77 51
79 86 49
55 55 38
160 136 96
60 65 39
47 47 33
75 82 57
106 79 64
47 47 33
188 140 125
52 52 36
54 54 37
56 62 42
49 49 34
83 81 49
49 49 34
74 74 43
76 65 42
81 92 60
49 49 34
53 53 37
52 52 36
255 255 189
78 87 44
126 88 65
52 52 36
93 78 46
62 66 45
103 98 55
48 48 33
54 54 37
94 94 54
44 44 31
147 118 69
48 48 34
44 44 29
47 47 33
94 94 53
91 72 48
52 52 36
44 44 31
94 92 67
37 37 26
85 71 58
40 40 28
65 65 40
39 39 27
40 40 28
58 58 40
42 42 29
38 38 27
37 37 26
34 34 24
61 70 42
46 46 32
42 42 29
36 36 25
51 47 31
35 35 24
39 39 27
64 53 36
37 37 26
60 52 35
34 34 24
58 71 37
37 37 26
28 28 20
2 2 5
2 2 5
2 2 5
2 2 5
2 2 5
2 2 5
2 2 5
2 2 5
2 2 5
2 2 5
2 2 5
2 2 5
2 2 5
2 2 5
2 2 5
2 2 5
2 2 5
2 2 5
2 2 5
2 2 5
2 2 5
2 2 5
2 2 5
2 2 5
2 2 5
2 2 5
2 2 5
2 2 5
2 2 5
2 2 5
2 2 5
2 2 5
2 2 5
2 2 5
2 2 5
2 2 5
2 2 5
2 2 5
2 2 5
2 2 5
2 2 5
2 2 5
2 2 5
2 2 5
2 2 5
2 2 5
2 2 5
2 2 5
2 2 5
2 2 5
2 2 5
2 2 5
2 2 5
2 2 5
2 2 5
2 2 5
2 2 5
2 2 5
2 2 5
2 2 5
2 2 5
2 2 5
2 2 5
2 2 5
2 2 5
2 2 5
2 2 5
2 2 5
2 2 5
2 2 5
2 2 5
2 2 5
2 2 5
2 2 5
2 2 5
2 2 5
2 2 5
2 2 5
2 2 5
2 2 5
2 2 5
2 2 5
2 2 5
2 2 5
2 2 5
2 2 5
2 2 5
2 2 5
2 2 5
2 2 5
2 2 5
2 2 5
2 2 5
2 2 5
2 2 5
2 2 5
2 2 5
2 2 5
2 2 5
2 2 5
2 2 5
2 2 5
2 2 5
2 2 5
2 2 5
2 2 5
2 2 5
2 2 5
2 2 5
22 33 23
101 213 142
54 63 68
20 31 22
178 255 97
27 41 28
42 64 36
122 188 125
23 35 24
23 35 25
25 38 27
26 39 27
21 32 23
27 41 29
24 37 26
23 35 25
34 51 31
21 32 23
34 57 33
37 49 37
22 33 23
27 41 28
41 54 37
49 57 40
25 38 27
26 39 28
25 38 27
25 38 27
46 69 39
43 65 39
24 36 26
47 71 40
50 84 64
40 63 35
59 89 48
24 36 26
38 75 44
23 35 25
26 40 28
106 93 88
22 33 24
26 39 28
31 46 27
66 99 52
39 49 36
24 36 26
68 96 54
53 72 50
22 34 24
40 51 34
24 37 26
24 36 25
35 62 42
26 39 27
38 63 35
45 71 51
181 255 129
65 68 50
23 35 25
22 33 28
57 66 44
72 78 57
50 61 37
23 34 24
40 65 43
47 57 49
31 47 26
33 54 36
31 47 31
35 62 43
43 54 37
23 34 24
20 30 21
22 33 24
59 87 46
21 32 23
25 38 27
66 70 39
27 46 31
20 30 21
44 76 67
63 92 44
21 32 22
41 51 33
24 36 25
25 44 30
20 30 21
145 218 145
25 44 30
18 28 20
48 57 31
41 47 44
128 193 68
34 44 29
77 106 62
48 65 36
25 44 30
19 29 21
32 40 33
17 26 19
30 65 44
20 30 21
41 54 33
45 60 37
17 26 19
18 28 20
37 45 38
28 35 24
17 26 19
58 48 34
22 14 16
28 20 29
30 19 34
74 49 39
52 32 28
25 17 18
27 18 20
33 22 22
27 18 19
31 20 22
27 18 19
45 37 29
69 54 46
75 38 48
29 19 21
47 37 32
47 28 28
52 36 38
126 62 69
76 56 43
255 170 170
24 16 17
35 23 23
45 33 28
43 33 29
46 36 31
59 31 35
58 32 40
47 36 32
60 40 34
37 27 28
34 23 24
64 53 40
31 21 22
56 44 41
108 69 52
33 22 23
32 21 23
48 32 28
31 21 22
34 22 24
99 57 49
34 23 29
98 65 51
100 72 53
49 37 34
74 49 39
140 94 86
33 22 23
56 34 32
103 60 46
97 71 55
31 21 22
38 25 26
92 56 48
34 22 24
54 42 37
51 40 36
36 24 25
38 25 47
58 38 33
35 23 25
255 174 174
68 51 39
35 23 25
36 24 25
87 59 66
35 23 25
47 31 28
62 41 36
69 37 42
34 22 24
76 64 104
50 33 29
100 48 62
46 28 30
66 39 33
85 40 51
69 56 42
88 42 54
82 65 43
255 174 174
47 39 39
33 22 23
85 56 45
77 62 38
70 59 37
55 39 36
70 46 60
50 40 34
65 61 44
55 55 38
45 45 31
112 85 68
58 56 36
59 66 46
49 49 34
129 68 55
59 63 42
63 69 41
82 109 69
52 52 36
72 63 49
74 87 46
50 50 35
83 109 57
255 255 184
49 49 34
88 108 65
52 52 36
50 50 35
74 65 44
49 49 34
67 76 43
61 61 41
255 255 186
50 53 34
53 55 44
89 79 63
67 60 63
50 50 34
77 110 64
63 58 40
50 50 35
72 66 44
94 77 46
79 73 49
104 90 54
54 54 38
74 65 43
56 56 37
48 48 33
78 88 50
73 83 56
108 114 62
66 61 41
75 65 44
67 89 52
59 62 37
76 76 45
77 64 52
44 44 31
59 53 36
49 49 34
132 104 63
109 82 58
94 75 47
50 50 35
44 44 31
207 255 106
53 53 37
69 81 47
48 49 36
59 56 36
92 106 51
57 54 41
70 54 44
60 53 36
52 52 35
65 89 46
42 42 29
64 76 43
73 62 42
41 41 29
74 63 43
52 52 32
40 40 28
77 66 45
41 41 29
103 73 53
55 49 33
41 41 29
34 34 24
43 40 27
40 40 28
30 30 21
53 65 35
29 29 20
72 51 32
133 61 48
74 83 46
2 2 5
2 2 5
2 2 5
2 2 5
2 2 5
2 2 5
2 2 5
2 2 5
2 2 5
2 2 5
2 2 5
2 2 5
2 2 5
2 2 5
2 2 5
2 2 5
2 2 5
2 2 5
2 2 5
2 2 5
2 2 5
2 2 5
2 2 5
2 2 5
2 2 5
2 2 5
2 2 5
2 2 5
2 2 5
2 2 5
2 2 5
2 2 5
2 2 5
2 2 5
2 2 5
2 2 5
2 2 5
2 2 5
2 2 5
2 2 5
2 2 5
2 2 5
255 255 255
2 2 5
255 255 255
255 255 255
2 2 5
255 255 255
2 2 5
2 2 5
2 2 5
2 2 5
2 2 5
2 2 5
2 2 5
2 2 5
2 2 5
2 2 5
2 2 5
2 2 5
2 2 5
2 2 5
2 2 5
2 2 5
2 2 5
2 2 5
2 2 5
2 2 5
2 2 5
2 2 5
2 2 5
2 2 5
2 2 5
2 2 5
2 2 5
2 2 5
2 2 5
2 2 5
2 2 5
2 2 5
2 2 5
2 2 5
2 2 5
2 2 5
2 2 5
2 2 5
2 2 5
2 2 5
2 2 5
2 2 5
2 2 5
2 2 5
2 2 5
2 2 5
2 2 5
2 2 5
2 2 5
2 2 5
2 2 5
2 2 5
2 2 5
2 2 5
2 2 5
2 2 5
2 2 5
2 2 5
2 2 5
2 2 5
2 2 5
36 50 34
32 43 34
28 42 29
26 39 28
23 35 36
24 36 26
21 32 23
23 35 24
23 35 25
25 38 27
52 87 42
41 81 50
24 37 26
40 43 36
179 255 126
29 44 31
49 64 54
59 62 53
40 60 36
20 30 22
47 101 107
98 255 110
81 100 60
22 33 23
26 39 27
42 71 40
55 73 49
174 255 174
40 75 45
35 57 29
27 40 28
59 67 43
24 36 25
23 35 25
130 255 104
25 38 27
143 215 103
50 75 42
47 60 41
49 56 39
38 66 45
26 40 28
27 43 37
31 53 35
55 76 44
46 70 39
27 41 29
48 59 40
92 88 68
65 136 70
47 87 49
30 53 36
24 37 26
46 58 39
26 39 27
51 77 48
51 68 40
22 33 23
53 107 66
66 55 40
23 34 24
68 120 57
20 30 21
23 35 25
68 105 55
51 76 41
48 62 36
144 216 103
24 36 25
41 52 35
40 69 47
22 33 23
22 33 23
19 29 21
20 31 22
93 88 62
50 76 41
40 51 35
30 50 29
66 98 47
20 31 22
29 50 30
41 78 45
19 30 26
63 90 43
82 153 51
37 52 42
35 45 34
18 27 19
17 26 19
25 37 26
19 28 20
20 30 22
22 34 23
52 55 48
37 66 33
17 26 19
40 49 41
56 66 49
68 112 54
17 26 19
95 74 46
94 116 64
20 28 27
17 26 19
36 44 30
14 22 16
52 78 40
26 46 30
34 23 20
27 20 44
22 15 16
92 59 41
37 30 26
25 17 18
68 47 34
61 64 42
29 19 20
36 28 25
56 28 33
40 30 23
28 19 20
46 38 32
29 19 21
44 32 28
26 17 19
28 18 20
29 19 21
31 21 22
126 85 67
50 33 29
48 32 28
222 148 148
30 20 22
74 52 40
32 21 23
37 25 26
99 60 47
255 171 171
70 44 36
29 19 21
40 26 28
59 45 38
255 174 174
46 27 32
33 22 24
40 27 27
50 31 32
32 21 23
65 49 43
79 37 47
47 35 30
38 25 26
41 27 24
31 20 22
81 54 38
35 23 25
56 43 44
52 42 43
78 58 42
44 26 30
103 52 61
57 36 39
56 32 39
84 59 68
35 23 25
34 22 22
43 28 25
62 35 43
71 63 50
55 31 38
107 61 49
64 42 36
32 21 23
34 22 24
38 25 27
32 21 23
46 28 29
33 22 23
47 28 31
55 43 45
34 23 24
33 22 23
67 38 44
34 22 24
33 22 23
34 22 24
52 40 41
60 50 42
65 35 45
255 111 83
54 43 37
36 24 25
65 35 45
31 21 22
33 22 23
79 42 48
33 22 23
40 31 32
50 40 41
99 77 53
49 49 34
87 101 52
72 86 59
88 68 49
77 67 45
68 80 46
47 47 33
81 96 58
107 84 63
48 48 34
50 50 35
53 53 37
47 47 32
49 49 34
51 51 35
76 90 49
130 84 60
48 48 33
79 97 58
50 50 35
87 112 58
83 110 55
115 77 59
89 79 58
60 56 43
89 102 73
81 74 54
49 49 34
79 75 51
64 67 40
86 92 57
99 114 55
255 160 139
61 75 47
45 45 32
50 50 34
46 46 32
129 101 57
43 43 30
94 110 76
255 255 184
56 60 37
46 46 32
255 255 186
80 71 47
79 79 49
47 47 32
49 49 34
48 49 34
72 84 49
196 98 72
66 60 39
45 45 32
61 57 42
58 75 39
43 43 30
89 118 74
57 50 33
45 45 32
41 41 28
119 131 66
45 45 31
46 46 32
38 38 27
255 185 123
72 63 43
48 48 34
55 49 38
33 33 23
47 47 32
55 71 41
50 50 35
116 165 62
105 128 53
41 41 29
36 36 25
61 52 42
255 255 179
36 36 26
36 36 25
107 85 52
43 43 30
45 38 26
34 34 24
50 62 31
51 55 35
98 112 58
214 152 142
85 105 43
61 68 45
2 2 5
2 2 5
2 2 5
2 2 5
2 2 5
2 2 5
2 2 5
2 2 5
2 2 5
2 2 5
2 2 5
2 2 5
2 2 5
2 2 5
2 2 5
2 2 5
2 2 5
2 2 5
2 2 5
2 2 5
2 2 5
2 2 5
2 2 5
2 2 5
2 2 5
2 2 5
2 2 5
2 2 5
2 2 5
2 2 5
2 2 5
2 2 5
2 2 5
2 2 5
2 2 5
2 2 5
2 2 5
2 2 5
255 255 255
255 255 255
255 255 255
255 255 255
255 255 255
255 255 255
255 255 255
255 255 255
255 255 255
255 255 255
255 255 255
255 255 255
255 255 255
2 2 5
255 255 255
2 2 5
2 2 5
2 2 5
2 2 5
2 2 5
2 2 5
2 2 5
2 2 5
2 2 5
2 2 5
2 2 5
2 2 5
2 2 5
2 2 5
2 2 5
2 2 5
2 2 5
2 2 5
2 2 5
2 2 5
2 2 5
2 2 5
2 2 5
2 2 5
2 2 5
2 2 5
2 2 5
2 2 5
2 2 5
2 2 5
2 2 5
2 2 5
2 2 5
2 2 5
2 2 5
2 2 5
2 2 5
2 2 5
2 2 5
2 2 5
2 2 5
2 2 5
2 2 5
2 2 5
2 2 5
2 2 5
2 2 5
2 2 5
2 2 5
2 2 5
2 2 5
2 2 5
2 2 5
2 2 5
2 2 5
2 2 5
48 73 40
50 80 40
60 90 48
20 31 22
25 37 26
27 40 28
32 41 29
18 28 20
23 34 24
25 38 27
34 45 35
23 35 24
44 66 38
23 35 25
32 48 30
27 41 28
31 46 28
88 82 60
25 40 28
21 32 23
44 57 38
40 51 35
34 58 40
30 52 35
30 45 32
80 86 58
74 85 51
26 40 28
48 65 45
26 40 27
23 35 25
142 221 133
23 34 24
54 107 48
28 42 29
98 102 56
23 35 25
61 91 49
23 35 24
26 40 28
26 39 27
45 80 79
48 73 40
85 125 60
28 42 29
26 39 27
25 37 26
21 31 30
24 36 26
42 56 38
174 255 174
74 95 51
41 53 36
23 35 24
26 40 28
63 66 51
30 45 29
23 35 24
21 32 23
39 71 44
24 36 26
41 50 34
51 77 49
23 34 24
35 45 31
21 32 23
24 37 26
30 39 26
52 76 74
57 73 50
55 65 48
31 50 30
43 60 40
43 53 35
31 54 37
77 101 49
43 101 51
28 37 25
20 30 21
31 46 28
20 31 22
51 65 52
25 34 25
19 29 21
22 33 24
70 67 47
18 27 19
170 255 170
21 31 22
27 39 25
51 92 40
42 69 36
29 44 26
18 27 19
88 127 55
82 106 55
32 54 41
17 26 19
19 29 21
37 56 31
54 59 52
46 86 50
18 28 20
16 24 17
15 23 17
21 35 32
76 108 59
17 25 18
45 60 46
65 58 36
106 52 55
28 18 20
87 56 48
36 29 25
55 52 32
61 53 36
68 55 38
34 26 23
65 30 33
69 29 51
103 50 56
26 17 19
252 168 168
52 28 36
28 18 20
120 75 56
45 37 31
69 36 40
31 20 22
28 19 20
103 62 48
54 34 38
60 49 35
32 21 22
46 31 28
30 20 22
62 40 36
72 36 38
69 52 39
40 26 28
74 44 36
39 26 24
65 59 39
50 33 28
30 20 21
114 41 53
50 29 33
80 48 44
45 27 31
90 60 46
32 21 23
80 43 53
95 67 51
33 22 24
91 55 44
30 20 21
84 44 47
62 36 43
32 21 23
114 57 66
37 25 26
75 50 41
61 43 33
72 41 33
31 21 22
58 42 34
42 25 29
50 33 30
50 31 34
101 76 68
34 22 24
42 35 33
66 53 32
31 21 22
36 24 25
33 22 24
75 64 39
30 20 22
52 45 38
60 57 42
68 50 36
33 22 24
44 29 27
52 30 36
31 21 22
63 35 43
70 44 52
32 21 23
67 44 37
33 22 23
63 48 39
32 21 22
61 43 35
37 25 26
33 22 23
31 21 22
31 20 22
255 172 172
213 102 102
62 34 42
72 91 52
85 112 66
64 73 49
76 66 45
50 50 35
152 160 72
76 66 52
52 52 36
76 67 46
96 86 65
90 71 56
65 78 52
81 71 55
57 62 39
50 50 34
97 95 66
69 76 43
53 53 36
52 52 36
255 255 182
48 48 34
62 57 52
79 104 58
84 72 47
255 255 186
77 89 52
50 50 35
48 48 33
57 57 39
78 91 47
92 113 57
114 93 55
47 47 33
52 52 36
59 59 41
47 47 32
255 255 184
63 57 39
52 52 36
67 78 46
79 86 53
58 63 40
83 78 51
45 45 31
48 48 33
46 46 32
52 52 35
58 58 40
58 61 39
68 79 46
114 90 56
50 50 35
97 122 61
50 50 35
51 51 35
58 58 40
44 44 31
58 58 40
183 180 120
42 42 29
104 113 60
83 94 51
48 52 35
45 45 31
64 72 43
69 78 40
57 63 38
88 82 47
46 46 32
105 123 58
67 73 45
74 69 59
67 56 36
39 39 27
43 43 30
85 77 50
66 57 39
39 39 28
33 33 25
34 34 24
28 28 20
34 34 24
186 78 70
53 64 32
35 35 25
31 31 22
40 45 27
33 33 23
51 42 29
33 33 24
2 2 5
2 2 5
2 2 5
2 2 5
2 2 5
2 2 5
2 2 5
2 2 5
2 2 5
2 2 5
2 2 5
2 2 5
2 2 5
2 2 5
2 2 5
2 2 5
2 2 5
2 2 5
2 2 5
2 2 5
2 2 5
2 2 5
2 2 5
2 2 5
2 2 5
2 2 5
2 2 5
2 2 5
2 2 5
2 2 5
2 2 5
2 2 5
2 2 5
2 2 5
2 2 5
255 255 255
255 255 255
255 255 255
255 255 255
255 255 255
255 255 255
255 255 255
255 255 255
255 255 255
255 255 255
255 255 255
255 255 255
255 255 255
255 255 255
255 255 255
255 255 255
255 255 255
255 255 255
255 255 255
255 255 255
2 2 5
255 255 255
255 255 255
255 255 255
2 2 5
2 2 5
2 2 5
2 2 5
2 2 5
2 2 5
2 2 5
2 2 5
2 2 5
2 2 5
2 2 5
2 2 5
2 2 5
2 2 5
2 2 5
2 2 5
2 2 5
2 2 5
2 2 5
2 2 5
2 2 5
2 2 5
2 2 5
2 2 5
2 2 5
2 2 5
2 2 5
2 2 5
2 2 5
2 2 5
2 2 5
2 2 5
2 2 5
2 2 5
2 2 5
2 2 5
2 2 5
2 2 5
2 2 5
2 2 5
2 2 5
2 2 5
2 2 5
2 2 5
2 2 5
2 2 5
2 2 5
2 2 5
2 2 5
2 2 5
2 2 5
21 31 22
46 69 41
40 52 34
20 30 22
48 60 45
71 106 60
21 31 22
71 130 49
26 39 27
21 31 22
24 36 25
23 35 25
22 33 23
21 32 22
25 38 27
50 112 58
20 30 22
37 71 47
32 43 29
45 91 44
21 32 23
78 105 53
22 33 24
51 102 61
26 39 27
45 56 36
71 101 52
145 133 139
24 36 25
47 71 40
38 57 34
35 71 34
24 36 25
27 41 28
22 33 23
168 253 119
63 89 54
40 65 34
24 36 26
26 39 27
27 41 29
22 33 23
24 36 25
45 79 38
37 63 43
22 34 24
78 96 53
24 36 26
22 33 23
27 41 28
72 90 42
36 67 42
25 38 27
22 34 24
24 37 26
53 55 45
59 101 48
39 51 34
48 73 48
20 30 22
22 33 23
25 38 27
26 44 31
60 94 51
61 120 62
47 71 39
20 30 21
55 83 45
23 35 25
22 33 23
21 31 20
33 43 28
32 52 29
21 31 22
170 180 120
44 58 48
43 80 43
29 48 35
22 33 23
18 28 20
35 44 30
41 65 33
51 61 40
22 33 24
19 28 20
18 27 19
27 48 33
59 88 56
37 50 38
22 34 24
40 88 56
19 29 21
46 54 48
19 28 20
54 93 40
18 27 20
132 103 79
18 28 20
17 25 18
47 70 122
31 58 40
45 68 33
31 39 26
86 127 85
18 27 19
48 63 38
69 97 49
17 26 19
34 44 28
37 30 25
26 17 18
22 14 16
65 49 42
45 38 30
79 37 48
25 17 18
249 166 166
46 30 27
51 28 36
25 17 18
69 46 37
53 29 48
26 17 19
26 17 19
45 36 30
29 19 21
49 33 29
47 31 27
42 25 25
29 19 21
104 66 36
29 19 21
42 34 40
60 36 40
29 19 21
33 22 23
41 29 26
30 20 22
90 54 58
33 22 23
63 39 36
68 41 41
42 28 31
25 16 18
131 69 49
32 21 22
94 62 50
30 20 22
33 22 23
31 21 22
40 29 28
56 43 32
33 22 23
35 23 25
28 19 20
77 46 39
34 23 24
75 60 40
83 52 36
53 43 44
34 22 24
81 48 46
35 23 25
41 27 25
51 34 30
31 20 22
64 48 38
81 37 48
33 22 23
37 25 26
38 23 27
37 24 25
43 29 30
37 24 26
81 58 45
76 38 48
117 91 63
33 22 23
75 44 50
56 45 38
49 37 33
31 21 22
89 59 47
160 90 73
76 62 54
79 51 41
225 108 117
32 21 23
77 51 41
79 69 59
54 32 36
31 20 22
79 42 54
108 78 59
35 23 24
55 44 37
71 45 35
33 22 24
60 33 42
51 41 31
49 49 34
46 46 32
52 52 36
50 50 35
73 81 55
70 78 55
49 49 34
98 131 77
185 190 94
255 200 133
62 71 42
104 91 57
43 43 30
64 59 40
84 77 51
88 81 67
110 86 74
82 71 55
53 53 36
255 255 185
96 78 49
108 80 65
77 80 51
56 56 38
50 50 35
49 49 34
68 79 46
121 101 59
255 255 183
44 44 31
141 97 72
74 94 52
77 85 65
45 45 31
116 105 65
77 67 41
82 70 56
92 82 55
62 70 42
49 49 34
72 62 41
53 58 44
78 76 51
110 135 76
48 48 34
52 56 39
70 62 40
60 54 37
54 54 37
124 112 74
42 42 29
74 71 43
48 48 33
53 49 33
97 106 62
68 60 41
72 93 79
54 49 39
84 92 49
86 73 49
61 68 46
42 42 30
77 71 44
101 149 65
48 48 33
52 58 38
39 39 27
46 42 32
40 40 28
41 41 29
37 37 26
76 95 49
48 48 34
44 44 30
41 41 29
63 54 37
57 54 43
39 40 32
38 38 27
48 56 32
101 95 50
30 30 21
87 80 47
255 255 177
33 33 24
37 37 26
110 68 56
29 29 20
57 57 47
31 31 22
75 59 35
2 2 5
2 2 5
2 2 5
2 2 5
2 2 5
2 2 5
2 2 5
2 2 5
2 2 5
2 2 5
2 2 5
2 2 5
2 2 5
2 2 5
2 2 5
2 2 5
2 2 5
2 2 5
2 2 5
2 2 5
2 2 5
2 2 5
2 2 5
2 2 5
2 2 5
2 2 5
2 2 5
2 2 5
255 255 255
2 2 5
2 2 5
255 255 255
255 255 255
255 255 255
255 255 255
255 255 255
255 255 255
255 255 255
255 255 255
255 255 255
255 255 255
255 255 255
255 255 255
255 255 255
255 255 255
255 255 255
255 255 255
255 255 255
255 255 255
255 255 255
255 255 255
255 255 255
255 255 255
255 255 255
255 255 255
255 255 255
255 255 255
255 255 255
255 255 255
2 2 5
255 255 255
2 2 5
2 2 5
2 2 5
2 2 5
2 2 5
2 2 5
2 2 5
2 2 5
2 2 5
2 2 5
2 2 5
2 2 5
2 2 5
2 2 5
2 2 5
2 2 5
2 2 5
2 2 5
2 2 5
2 2 5
2 2 5
2 2 5
2 2 5
2 2 5
2 2 5
2 2 5
2 2 5
2 2 5
2 2 5
2 2 5
2 2 5
2 2 5
2 2 5
2 2 5
2 2 5
2 2 5
2 2 5
2 2 5
2 2 5
2 2 5
2 2 5
2 2 5
2 2 5
2 2 5
2 2 5
2 2 5
2 2 5
2 2 5
41 51 35
24 37 26
23 35 25
18 28 20
99 137 67
47 96 51
24 36 25
44 81 41
69 85 59
58 87 47
24 36 25
36 54 33
24 36 25
50 82 44
29 43 30
25 38 33
57 86 47
25 37 26
43 57 39
23 35 25
29 43 30
39 58 36
25 38 27
24 36 25
37 64 44
176 255 176
23 35 25
52 78 43
54 94 41
26 39 27
22 33 23
65 92 44
127 138 127
67 82 61
23 35 24
26 40 28
23 34 24
24 36 26
28 43 29
26 39 28
22 34 24
37 56 33
53 49 32
20 30 22
23 34 24
32 43 46
71 78 56
21 31 22
58 103 50
33 47 31
21 32 23
47 60 40
53 65 41
27 40 28
39 51 41
23 35 25
44 54 37
34 61 41
43 54 37
37 61 31
23 34 24
21 32 22
22 33 24
36 54 33
46 58 46
46 55 44
36 46 32
44 54 37
39 65 36
24 37 26
22 33 23
21 32 22
22 33 23
24 36 25
39 75 47
22 33 23
22 33 23
34 61 42
18 28 20
62 70 50
49 66 41
26 39 26
19 29 21
74 88 46
20 30 21
32 38 48
18 27 19
38 47 32
24 41 28
18 27 19
18 27 20
17 26 19
19 29 21
29 52 36
49 62 37
73 112 54
39 47 32
41 50 34
17 26 19
34 59 38
25 38 23
18 27 20
24 32 26
60 102 57
16 24 18
55 62 35
34 48 30
16 24 17
102 107 49
17 25 18
24 16 18
24 16 18
25 17 18
56 45 43
24 16 17
23 15 17
59 43 37
26 17 19
23 15 17
42 28 25
48 38 27
74 62 41
81 44 33
29 19 21
26 17 18
27 18 19
59 45 43
201 111 97
60 42 45
31 22 30
30 20 21
43 34 58
67 43 44
100 62 44
67 40 47
73 43 39
31 21 22
42 36 28
83 55 47
60 49 49
54 30 37
30 20 22
67 36 33
77 41 52
34 22 24
52 34 32
39 30 27
60 29 32
46 33 27
32 21 23
97 56 74
98 50 62
35 23 25
45 27 28
40 26 26
65 38 48
71 38 49
81 54 36
30 20 22
84 48 52
87 46 46
221 147 147
38 27 34
84 56 54
32 21 23
32 21 23
52 41 35
49 38 34
33 22 23
100 73 51
71 38 49
82 43 56
81 42 47
49 34 34
31 21 22
87 68 62
32 21 23
172 132 95
32 21 23
30 20 21
255 172 172
48 36 34
34 22 24
56 33 35
49 29 34
33 22 23
131 99 61
35 23 25
77 43 35
220 153 135
71 35 47
58 53 49
31 20 22
110 74 45
53 30 37
84 40 53
32 21 23
52 34 31
65 62 50
57 36 32
78 65 42
67 72 48
44 44 31
87 76 51
46 46 32
55 62 42
255 191 127
47 47 33
49 49 34
48 48 33
70 78 53
87 110 61
48 48 34
62 71 42
76 67 48
47 47 33
77 108 57
51 51 35
162 255 102
75 81 46
117 90 57
49 49 34
85 80 65
46 46 32
51 51 35
42 42 29
89 79 64
48 48 33
102 98 59
75 68 49
50 50 35
65 72 49
50 50 34
82 66 44
255 255 184
176 178 119
55 58 40
65 59 40
60 76 44
48 48 33
55 55 38
51 51 35
49 49 34
75 84 46
47 47 33
48 48 33
66 66 39
47 47 33
83 65 52
43 43 30
77 86 49
44 44 31
255 255 180
72 64 44
43 43 30
97 122 58
47 47 33
44 44 31
99 71 51
82 72 77
45 45 31
71 62 37
48 48 33
58 64 38
50 54 34
42 42 29
73 83 55
110 101 54
106 81 49
41 41 29
70 73 65
45 41 32
81 61 37
34 34 24
37 37 26
40 40 28
44 40 27
83 97 50
71 81 48
32 32 23
57 59 38
31 31 22
53 64 36
45 53 30
31 31 22
49 59 30
255 180 120
51 80 40
32 32 23
66 54 48
32 32 22
2 2 5
2 2 5
2 2 5
2 2 5
2 2 5
2 2 5
2 2 5
2 2 5
2 2 5
2 2 5
2 2 5
2 2 5
2 2 5
2 2 5
2 2 5
2 2 5
2 2 5
2 2 5
2 2 5
2 2 5
2 2 5
2 2 5
2 2 5
2 2 5
255 255 255
255 255 255
2 2 5
255 255 255
255 255 255
255 255 255
255 255 255
255 255 255
255 255 255
255 255 255
255 255 255
255 255 255
255 255 255
255 255 255
255 255 255
255 255 255
255 255 255
255 255 255
255 255 255
255 255 255
255 255 255
255 255 255
255 255 255
255 255 255
255 255 255
255 255 255
255 255 255
255 255 255
255 255 255
255 255 255
255 255 255
255 255 255
255 255 255
255 255 255
255 255 255
255 255 255
2 2 5
2 2 5
255 255 255
2 2 5
2 2 5
2 2 5
2 2 5
2 2 5
2 2 5
2 2 5
2 2 5
2 2 5
2 2 5
2 2 5
2 2 5
2 2 5
2 2 5
2 2 5
2 2 5
2 2 5
2 2 5
2 2 5
2 2 5
2 2 5
2 2 5
2 2 5
2 2 5
2 2 5
2 2 5
2 2 5
2 2 5
2 2 5
2 2 5
2 2 5
2 2 5
2 2 5
2 2 5
2 2 5
2 2 5
2 2 5
2 2 5
2 2 5
2 2 5
2 2 5
2 2 5
2 2 5
2 2 5
2 2 5
2 2 5
51 69 49
62 109 81
22 34 24
32 60 54
77 77 59
34 51 30
23 34 24
19 29 21
69 130 52
23 35 24
43 54 44
41 61 44
49 60 50
81 84 44
72 99 57
21 31 41
26 40 28
26 40 28
34 59 41
25 38 27
39 51 39
25 38 27
34 46 30
52 68 52
26 39 28
22 33 23
35 62 40
22 34 24
54 65 47
26 37 39
54 81 43
35 53 32
97 117 67
66 66 55
25 38 26
29 44 31
22 33 23
71 131 75
20 31 22
25 38 27
23 34 24
24 37 26
30 40 50
22 33 24
55 75 46
81 92 85
26 43 30
51 86 67
37 53 38
48 55 44
82 129 69
73 136 61
67 71 56
54 68 53
22 34 24
23 34 24
22 34 24
43 65 37
25 34 35
58 80 53
28 42 29
22 34 24
27 41 28
35 46 36
23 35 25
46 69 37
22 33 24
21 31 22
55 82 44
51 58 41
20 31 22
42 51 34
21 32 23
38 48 33
30 40 27
47 56 49
24 36 26
27 48 33
19 29 21
31 58 40
112 217 82
56 105 43
57 96 40
21 32 22
20 30 21
20 30 21
46 55 48
39 88 57
46 48 34
37 46 36
30 45 26
18 27 19
167 176 167
42 50 34
19 28 20
18 28 20
62 53 36
22 33 21
35 79 47
17 25 18
16 25 18
63 99 49
38 55 31
16 25 18
19 29 21
74 77 45
34 51 28
15 23 17
37 48 35
180 173 173
56 60 49
23 15 17
100 62 48
25 16 18
24 16 17
39 26 23
51 28 35
92 61 47
78 49 71
121 81 68
69 52 46
26 17 19
25 17 18
61 32 42
117 79 55
32 21 23
27 18 19
29 19 21
30 20 22
27 18 19
33 21 25
95 40 44
30 20 21
53 34 29
29 19 20
31 21 22
40 31 28
30 20 21
32 21 22
30 20 21
81 91 46
34 22 24
31 21 22
140 84 62
55 50 32
52 36 31
61 39 39
42 28 29
47 36 31
30 20 21
69 62 41
41 27 66
93 44 57
74 53 43
255 173 173
48 28 33
32 21 22
57 52 41
61 34 33
32 21 23
178 168 121
88 48 40
39 26 27
45 30 27
227 109 85
32 21 23
45 34 28
32 21 23
33 22 24
68 41 41
155 142 103
53 42 43
33 22 23
66 51 36
41 25 29
56 52 38
99 53 48
60 61 55
250 117 166
33 22 24
91 79 55
32 21 22
30 20 22
31 21 22
249 166 87
89 61 45
84 56 45
56 40 31
32 21 23
81 44 32
33 22 23
31 21 22
41 31 27
146 60 77
63 44 35
42 32 32
33 22 23
83 55 46
33 22 23
52 29 36
48 48 34
58 63 43
46 46 32
49 49 34
61 56 38
61 55 39
45 45 31
51 51 35
58 53 40
47 47 32
98 83 53
130 93 64
50 50 35
83 72 90
111 103 54
68 85 52
49 49 38
46 46 32
57 63 39
49 49 34
68 80 43
255 195 130
91 115 54
47 47 33
65 58 39
69 82 44
73 79 45
72 85 50
53 51 36
68 65 38
200 255 133
66 76 45
57 63 48
46 46 32
88 102 57
51 51 35
50 50 35
61 68 39
54 54 37
68 60 44
63 73 40
52 52 36
46 46 32
40 40 28
62 54 37
74 68 53
54 54 34
57 57 39
68 81 43
79 67 54
77 98 55
87 96 57
46 46 32
46 46 32
44 44 31
77 67 46
39 39 27
92 95 54
38 38 27
38 38 27
46 46 32
69 62 42
45 45 31
75 74 44
43 43 30
36 36 25
40 40 28
77 91 51
43 43 30
44 44 30
37 37 26
75 81 46
53 63 36
39 39 27
29 29 21
53 64 43
69 60 40
51 46 31
47 55 29
39 39 27
41 43 31
75 80 41
74 62 45
31 31 22
32 32 23
32 32 22
33 33 24
45 55 33
29 30 25
28 28 20
30 30 21
2 2 5
2 2 5
2 2 5
2 2 5
2 2 5
2 2 5
2 2 5
2 2 5
2 2 5
2 2 5
2 2 5
2 2 5
2 2 5
2 2 5
2 2 5
2 2 5
2 2 5
2 2 5
2 2 5
2 2 5
255 255 255
255 255 255
255 255 255
255 255 255
255 255 255
255 255 255
255 255 255
255 255 255
255 255 255
255 255 255
255 255 255
255 255 255
255 255 255
255 255 255
255 255 255
255 255 255
255 255 255
255 255 255
255 255 255
255 255 255
255 255 255
255 255 255
255 255 255
255 255 255
255 255 255
255 255 255
255 255 255
255 255 255
255 255 255
255 255 255
255 255 255
255 255 255
255 255 255
2 2 5
2 2 5
2 2 5
255 255 255
2 2 5
2 2 5
2 2 5
2 2 5
2 2 5
2 2 5
2 2 5
2 2 5
2 2 5
2 2 5
2 2 5
2 2 5
2 2 5
2 2 5
2 2 5
2 2 5
2 2 5
2 2 5
2 2 5
2 2 5
2 2 5
2 2 5
2 2 5
2 2 5
2 2 5
2 2 5
2 2 5
2 2 5
2 2 5
2 2 5
2 2 5
2 2 5
2 2 5
2 2 5
2 2 5
2 2 5
2 2 5
2 2 5
2 2 5
2 2 5
2 2 5
2 2 5
2 2 5
2 2 5
2 2 5
2 2 5
2 2 5
2 2 5
2 2 5
2 2 5
2 2 5
2 2 5
50 76 42
76 80 49
55 60 44
36 54 32
48 63 42
37 49 33
21 31 22
164 133 95
44 66 38
29 46 31
44 57 45
72 79 50
22 33 24
22 33 23
141 154 141
38 68 73
22 34 24
66 65 60
92 86 55
43 83 50
33 49 34
55 57 47
43 70 44
76 115 59
36 59 33
25 37 26
21 32 22
23 34 24
27 40 28
21 32 23
40 72 46
31 47 32
40 61 35
31 52 32
184 195 184
29 46 31
35 45 37
23 35 25
56 93 42
22 33 23
44 59 40
24 36 25
75 118 54
28 43 30
22 33 23
24 37 26
32 42 29
24 37 26
23 35 25
58 61 44
174 255 174
34 52 32
23 34 24
45 59 47
32 58 40
31 42 32
29 44 31
19 29 21
20 31 22
23 35 25
40 50 33
42 76 51
21 32 23
54 92 45
39 54 31
63 95 49
21 32 23
167 251 118
20 30 21
20 31 25
26 46 32
37 48 33
48 60 51
25 38 26
37 47 32
20 31 22
18 27 19
27 41 28
30 49 33
62 72 54
63 102 51
28 42 24
37 70 42
37 46 31
42 54 34
20 30 21
49 94 54
19 29 21
166 175 116
17 26 19
34 43 29
46 54 47
162 126 118
70 91 50
37 62 39
38 42 35
33 43 31
58 66 38
49 53 45
31 56 38
34 51 28
52 60 47
25 44 31
31 40 29
23 40 22
17 26 19
24 36 23
24 40 38
18 28 20
46 47 34
35 25 43
24 16 17
66 34 45
23 15 16
31 20 21
26 17 19
94 51 68
25 16 18
71 58 41
42 33 29
85 53 40
25 16 18
63 51 52
46 37 31
95 56 43
51 44 39
28 18 20
30 20 22
56 40 34
61 47 37
30 20 21
112 88 58
71 37 58
73 44 35
96 56 44
57 41 44
101 60 46
29 19 21
174 111 159
30 20 21
64 45 34
43 34 35
76 41 47
49 40 32
30 20 22
34 22 23
92 61 48
46 36 31
32 21 23
48 36 36
31 20 22
53 44 37
33 22 24
84 64 41
39 29 27
32 21 23
60 36 40
44 29 26
255 130 186
31 21 22
111 88 54
92 72 39
65 47 38
32 21 23
34 22 24
31 21 22
49 34 31
70 44 36
65 40 43
255 123 123
29 19 19
34 22 24
52 32 34
60 35 40
32 21 23
84 70 44
50 40 41
191 77 100
67 37 46
49 29 30
50 37 30
89 49 48
47 39 27
82 55 44
69 46 38
31 21 22
76 45 56
33 22 28
93 53 75
60 33 41
106 64 57
69 39 33
39 26 27
34 22 24
35 23 25
181 171 121
30 20 21
55 30 31
53 30 36
99 35 48
48 48 33
48 48 32
70 61 45
83 71 48
44 44 31
168 165 66
151 110 91
86 83 64
47 47 33
94 121 72
50 50 34
88 79 49
109 150 79
131 146 65
48 48 33
64 71 41
86 71 55
115 114 66
80 71 59
50 48 48
103 140 59
80 67 55
48 48 33
48 48 33
46 46 32
47 47 33
82 72 44
120 134 96
74 67 41
47 47 33
59 67 46
73 80 48
44 44 31
52 52 36
49 49 34
106 88 64
51 51 35
90 89 52
50 50 34
48 48 33
44 44 31
63 63 43
87 77 48
65 73 50
52 52 36
63 56 38
46 46 32
255 255 181
48 48 33
61 72 41
55 59 37
41 41 29
115 94 60
150 111 59
58 68 40
104 104 57
77 89 57
65 53 35
129 87 54
168 175 86
90 106 51
40 40 28
44 44 30
50 50 34
40 44 28
36 36 25
82 75 50
51 56 44
83 97 51
37 37 26
79 88 57
61 69 42
49 59 33
64 56 38
50 57 32
67 57 39
209 122 69
34 34 24
56 56 32
65 55 37
40 40 28
37 37 26
74 64 43
33 33 24
39 39 27
83 116 63
43 46 32
58 73 36
30 30 21
48 39 26
72 84 41
2 2 5
2 2 5
2 2 5
2 2 5
2 2 5
2 2 5
2 2 5
2 2 5
2 2 5
2 2 5
2 2 5
2 2 5
2 2 5
2 2 5
2 2 5
2 2 5
2 2 5
2 2 5
2 2 5
2 2 5
2 2 5
255 255 255
2 2 5
255 255 255
255 255 255
2 2 5
255 255 255
255 255 255
255 255 255
255 255 255
255 255 255
255 255 255
255 255 255
255 255 255
255 255 255
255 255 255
255 255 255
255 255 255
255 255 255
255 255 255
255 255 255
255 255 255
255 255 255
255 255 255
255 255 255
255 255 255
255 255 255
255 255 255
255 255 255
255 255 255
2 2 5
2 2 5
2 2 5
2 2 5
2 2 5
2 2 5
2 2 5
2 2 5
2 2 5
2 2 5
2 2 5
2 2 5
2 2 5
2 2 5
2 2 5
2 2 5
2 2 5
2 2 5
2 2 5
2 2 5
2 2 5
2 2 5
2 2 5
2 2 5
2 2 5
2 2 5
2 2 5
2 2 5
2 2 5
2 2 5
2 2 5
2 2 5
2 2 5
2 2 5
2 2 5
2 2 5
2 2 5
2 2 5
2 2 5
2 2 5
2 2 5
2 2 5
2 2 5
2 2 5
2 2 5
2 2 5
2 2 5
2 2 5
2 2 5
2 2 5
2 2 5
2 2 5
2 2 5
2 2 5
2 2 5
2 2 5
2 2 5
2 2 5
2 2 5
22 33 23
23 35 25
23 35 25
73 88 41
39 59 33
57 82 44
56 84 45
41 51 43
36 54 32
25 37 26
88 128 54
31 46 28
25 38 27
54 81 43
25 38 27
37 73 46
25 38 27
24 37 26
58 87 47
46 62 47
22 33 24
20 30 21
26 39 27
23 35 24
36 54 33
23 35 24
55 102 55
26 39 28
57 69 54
26 39 27
23 34 24
22 34 24
23 35 25
28 42 29
80 108 55
57 69 58
23 34 24
21 31 22
35 53 32
22 33 24
48 94 57
37 56 32
27 41 29
24 36 26
104 92 56
59 76 65
26 39 28
38 55 32
26 40 25
50 94 55
70 111 59
48 63 42
33 54 31
31 42 32
56 99 59
23 34 24
23 35 25
99 155 70
25 37 26
58 77 43
40 69 42
62 110 41
24 36 25
43 64 37
41 53 33
20 30 21
51 76 39
173 255 173
39 65 44
23 35 24
20 31 22
19 29 21
20 31 22
19 29 21
85 114 50
17 26 19
51 77 41
37 47 32
43 71 45
19 28 20
33 42 29
16 25 18
18 27 19
55 87 43
17 26 19
52 67 50
47 114 50
48 57 50
19 28 20
48 72 39
39 49 37
89 89 49
46 84 52
32 44 33
17 26 19
29 37 25
28 42 24
18 30 25
18 27 19
56 81 42
17 26 19
18 27 19
17 25 18
47 59 33
16 24 17
64 105 98
57 95 44
61 70 39
38 50 38
61 30 36
39 26 22
37 30 25
55 49 41
62 49 32
25 17 18
27 18 19
62 44 35
25 17 18
43 29 25
65 48 36
61 34 28
49 33 28
56 30 38
120 45 55
140 183 92
73 37 50
29 19 20
30 20 21
41 32 32
29 19 21
30 20 21
73 57 44
65 58 40
30 20 22
81 50 40
96 58 43
86 40 52
45 36 31
28 19 20
81 64 45
75 57 45
70 38 48
87 63 45
55 45 45
30 20 22
30 20 21
136 79 66
77 43 46
75 58 36
31 20 22
67 47 36
91 47 78
75 50 40
94 55 43
103 60 42
135 171 91
35 24 35
32 21 23
37 24 26
33 22 23
30 20 21
60 47 40
52 41 37
44 28 52
53 49 44
72 48 39
85 49 43
96 42 52
32 21 23
54 36 31
34 23 24
31 21 22
32 21 23
43 33 29
46 34 31
30 20 21
32 21 23
43 26 30
32 21 23
32 21 22
31 20 22
38 25 27
31 21 22
33 22 23
30 20 21
82 54 44
32 21 23
28 19 20
87 69 47
64 42 35
47 31 28
47 36 28
43 33 29
32 21 23
39 28 27
56 42 31
105 68 65
100 49 52
74 55 40
30 20 21
44 44 30
58 65 44
46 46 32
44 44 31
57 61 42
83 67 48
70 65 46
88 105 50
78 104 56
70 61 40
53 53 36
45 45 31
56 56 38
47 47 33
61 72 48
53 53 36
45 45 31
47 47 33
48 48 33
101 85 67
65 77 49
63 71 42
46 46 32
80 97 59
44 44 31
60 66 42
71 76 45
46 46 32
44 44 30
70 57 43
46 46 32
85 78 55
44 44 31
71 68 45
109 83 72
86 66 57
47 47 33
44 44 31
70 62 42
64 66 42
89 68 47
50 54 34
46 46 32
63 71 44
56 52 35
63 75 43
95 75 48
70 77 49
63 60 43
80 77 50
46 46 32
74 76 49
86 86 64
48 48 33
82 105 54
51 58 35
71 61 48
95 95 52
66 71 43
75 63 42
47 47 39
78 66 45
62 57 35
49 46 31
56 62 42
70 83 41
91 66 48
73 82 49
45 49 34
40 40 28
63 57 35
255 255 175
200 106 60
39 39 28
35 35 25
58 70 48
38 38 27
41 41 28
102 80 49
73 79 43
53 63 36
60 69 40
87 69 43
33 33 23
52 64 35
49 58 33
82 69 42
66 71 44
50 44 29
45 55 28
48 62 29
2 2 5
2 2 5
2 2 5
2 2 5
2 2 5
2 2 5
2 2 5
2 2 5
2 2 5
2 2 5
2 2 5
2 2 5
2 2 5
2 2 5
2 2 5
2 2 5
2 2 5
2 2 5
2 2 5
2 2 5
2 2 5
2 2 5
2 2 5
2 2 5
2 2 5
2 2 5
2 2 5
2 2 5
2 2 5
255 255 255
2 2 5
255 255 255
2 2 5
255 255 255
255 255 255
255 255 255
255 255 255
255 255 255
255 255 255
255 255 255
255 255 255
255 255 255
255 255 255
2 2 5
2 2 5
2 2 5
2 2 5
2 2 5
2 2 5
2 2 5
2 2 5
2 2 5
2 2 5
2 2 5
2 2 5
2 2 5
2 2 5
2 2 5
2 2 5
2 2 5
2 2 5
2 2 5
2 2 5
2 2 5
2 2 5
2 2 5
2 2 5
2 2 5
2 2 5
2 2 5
2 2 5
2 2 5
2 2 5
2 2 5
2 2 5
2 2 5
2 2 5
2 2 5
2 2 5
2 2 5
2 2 5
2 2 5
2 2 5
2 2 5
2 2 5
2 2 5
2 2 5
2 2 5
2 2 5
2 2 5
2 2 5
2 2 5
2 2 5
2 2 5
2 2 5
2 2 5
2 2 5
2 2 5
2 2 5
2 2 5
2 2 5
2 2 5
2 2 5
2 2 5
2 2 5
2 2 5
2 2 5
2 2 5
2 2 5
20 30 21
44 76 45
21 32 23
20 31 22
42 63 36
23 35 25
23 35 24
54 69 40
22 33 24
22 33 23
20 30 21
22 33 24
54 82 43
25 37 26
20 30 21
48 58 49
61 116 42
21 31 22
25 38 26
39 48 33
22 33 24
89 146 80
22 33 24
21 32 23
24 36 25
20 30 21
23 35 25
23 35 25
30 50 35
25 37 26
106 150 79
21 32 23
54 65 33
42 54 37
35 64 44
26 39 27
55 74 40
64 86 45
41 53 36
59 103 47
28 38 28
50 55 48
25 37 26
59 94 45
47 59 40
57 92 49
64 69 58
25 37 26
22 34 24
26 39 31
38 57 32
33 49 30
43 53 51
173 255 173
26 39 27
21 32 23
85 76 70
167 177 118
45 54 38
68 102 52
46 77 37
26 40 28
22 34 24
39 72 44
37 51 32
20 30 21
52 60 40
40 50 34
76 132 56
19 28 20
21 32 23
20 30 30
19 28 20
22 34 24
19 29 21
34 56 37
18 28 20
60 90 47
18 27 20
51 70 36
55 64 37
17 26 19
50 88 38
17 26 19
17 25 18
21 32 22
17 26 19
42 57 39
36 48 29
26 52 35
39 61 31
67 76 43
18 27 20
32 41 28
18 27 19
60 96 47
17 26 19
17 25 18
41 49 42
83 57 49
18 28 20
22 29 23
17 25 18
43 100 53
50 51 39
17 26 19
16 25 18
40 40 33
16 24 17
55 37 25
35 23 25
65 39 52
49 37 37
39 31 27
26 17 19
23 15 17
25 18 24
22 14 16
27 18 20
32 21 33
42 28 25
26 17 18
28 18 20
29 19 20
23 15 17
42 34 29
26 17 19
26 17 19
25 17 18
25 17 18
48 31 34
26 17 19
49 43 35
66 54 37
32 21 23
63 49 36
31 21 22
57 38 32
43 31 28
27 18 20
255 170 170
35 26 36
45 30 27
41 31 28
33 22 24
40 29 26
42 37 49
49 30 30
53 36 66
30 20 22
30 20 21
255 172 172
32 21 23
31 21 22
160 113 82
63 28 33
255 172 172
255 172 172
57 32 39
32 21 23
53 43 44
44 34 30
101 67 51
31 20 22
30 20 21
92 61 85
48 36 40
32 21 23
156 93 65
61 41 38
55 30 38
31 21 22
34 23 23
68 45 37
59 49 40
255 172 172
31 20 22
85 62 49
48 38 33
72 44 40
30 20 21
79 61 45
35 23 25
46 36 37
32 21 23
59 43 42
32 21 23
57 30 34
48 36 34
68 47 38
32 21 23
84 36 40
31 20 22
46 35 37
44 33 34
65 49 48
32 21 23
137 72 62
56 34 34
30 20 22
88 77 49
51 51 35
47 47 33
69 97 58
62 71 42
46 46 32
70 79 52
88 96 49
46 46 32
102 77 64
47 47 33
43 43 30
45 45 31
96 80 55
63 72 41
50 50 34
246 236 123
46 46 32
46 46 32
46 46 32
48 48 33
57 57 39
106 117 57
48 48 34
72 63 43
47 47 33
49 49 34
56 62 43
42 42 29
255 153 80
47 47 33
62 70 48
48 48 33
61 54 37
195 255 180
75 67 45
113 82 59
55 60 37
41 41 29
81 88 46
47 47 33
58 68 45
44 44 31
49 49 34
48 48 33
44 44 31
55 55 38
45 45 31
49 49 34
43 43 30
218 158 105
65 77 44
57 66 45
60 70 41
80 65 46
60 64 38
52 55 45
42 42 30
54 48 38
45 45 31
120 98 50
70 61 41
68 75 50
42 42 29
39 39 28
44 44 36
107 84 51
54 51 33
48 53 33
42 42 29
41 41 29
38 38 27
69 62 44
85 75 40
36 36 26
39 39 27
80 61 40
53 62 34
85 70 58
59 72 34
34 34 24
33 33 24
49 61 41
67 56 38
54 49 33
32 32 23
49 58 40
57 74 43
58 48 33
40 50 34
25 25 18
2 2 5
2 2 5
2 2 5
2 2 5
2 2 5
2 2 5
2 2 5
2 2 5
2 2 5
2 2 5
2 2 5
2 2 5
2 2 5
2 2 5
2 2 5
2 2 5
2 2 5
2 2 5
2 2 5
2 2 5
2 2 5
2 2 5
2 2 5
2 2 5
2 2 5
2 2 5
2 2 5
2 2 5
2 2 5
2 2 5
2 2 5
2 2 5
2 2 5
2 2 5
2 2 5
2 2 5
2 2 5
255 255 255
255 255 255
2 2 5
2 2 5
2 2 5
2 2 5
2 2 5
2 2 5
2 2 5
2 2 5
2 2 5
2 2 5
2 2 5
2 2 5
2 2 5
2 2 5
2 2 5
2 2 5
2 2 5
2 2 5
2 2 5
2 2 5
2 2 5
2 2 5
2 2 5
2 2 5
2 2 5
2 2 5
2 2 5
2 2 5
2 2 5
2 2 5
2 2 5
2 2 5
2 2 5
2 2 5
2 2 5
2 2 5
2 2 5
2 2 5
2 2 5
2 2 5
2 2 5
2 2 5
2 2 5
2 2 5
2 2 5
2 2 5
2 2 5
2 2 5
2 2 5
2 2 5
2 2 5
2 2 5
2 2 5
2 2 5
2 2 5
2 2 5
2 2 5
2 2 5
2 2 5
2 2 5
2 2 5
2 2 5
2 2 5
2 2 5
2 2 5
2 2 5
2 2 5
2 2 5
2 2 5
2 2 5
25 38 27
21 32 23
23 35 25
22 33 23
52 54 40
38 67 42
19 29 20
22 33 23
50 56 35
24 36 25
26 39 27
28 49 43
20 30 21
30 44 29
56 91 45
20 30 21
26 39 27
22 33 24
45 57 39
30 45 27
164 103 89
22 34 24
30 40 27
173 255 173
24 36 25
54 98 74
60 61 44
54 108 63
19 29 21
31 63 33
21 32 23
31 47 28
39 76 39
23 34 24
58 78 40
22 33 24
21 31 22
38 50 50
22 33 23
23 35 25
24 36 25
45 55 37
48 75 44
45 65 36
40 52 41
24 36 25
34 60 41
28 49 29
49 81 39
19 29 21
25 37 26
22 33 23
21 32 23
22 33 24
44 85 51
18 28 20
57 77 42
23 35 25
21 32 22
23 35 25
22 33 23
61 102 73
74 61 63
40 50 34
21 32 23
31 55 38
36 51 36
22 33 23
20 31 22
31 42 29
19 29 21
26 42 30
19 28 20
19 28 20
20 31 22
21 32 23
44 67 37
33 40 28
20 31 22
64 74 58
57 81 47
30 37 23
40 82 36
24 39 21
41 68 61
17 26 19
35 44 37
32 59 31
36 52 33
44 56 34
31 61 38
40 52 38
20 30 21
17 26 19
35 43 36
17 25 18
17 26 19
15 23 17
51 57 41
40 52 31
32 39 31
30 38 26
95 132 64
24 43 30
15 23 17
37 45 31
45 69 36
15 22 16
63 56 39
20 13 15
37 24 20
21 14 16
97 72 54
209 139 139
28 18 20
25 16 18
38 28 24
60 44 41
127 59 38
48 39 41
139 97 69
42 28 25
26 17 19
30 21 26
28 19 20
85 54 44
56 37 30
82 45 36
28 19 20
46 27 36
28 19 20
62 41 35
40 25 25
255 174 174
26 17 19
27 18 18
41 32 28
30 20 22
36 27 29
32 21 23
27 18 20
91 60 40
79 51 41
30 20 21
67 41 36
83 45 57
32 21 23
30 20 21
70 48 44
32 21 22
28 19 20
255 172 172
80 60 46
89 57 44
54 31 37
80 53 43
76 51 41
57 48 36
47 31 28
33 22 23
43 34 35
49 30 32
34 22 24
44 35 37
101 67 52
82 55 86
255 185 129
31 21 22
32 21 23
57 46 33
76 56 41
32 21 23
51 39 32
61 33 42
33 22 24
33 22 24
93 62 49
34 22 24
43 25 41
123 72 47
31 20 22
120 75 56
69 44 34
42 28 26
225 106 150
62 33 42
49 39 40
31 21 22
32 21 23
42 25 28
40 30 27
54 36 31
33 22 23
31 21 22
29 19 21
32 21 22
93 47 51
92 70 65
30 20 21
63 42 34
79 67 45
53 53 36
62 55 37
64 84 51
57 65 38
73 66 44
140 90 55
73 64 50
108 98 58
115 84 61
56 56 38
49 51 33
61 78 52
71 63 42
61 61 42
73 73 43
53 50 34
46 46 32
46 46 32
255 217 83
51 51 35
112 131 82
46 46 32
48 48 34
42 42 29
65 88 44
96 71 53
72 63 46
121 90 61
120 98 53
86 66 50
107 161 79
52 55 38
44 44 31
122 85 74
133 206 83
75 92 46
79 71 54
108 171 68
45 45 31
43 43 30
107 86 59
46 46 32
48 48 34
74 65 44
47 47 33
84 85 54
63 72 49
43 43 30
255 191 127
62 71 42
47 47 33
42 42 30
255 216 110
40 40 28
73 68 40
42 42 30
45 45 31
91 70 47
88 85 54
85 63 46
84 68 40
104 89 46
98 105 64
64 56 38
90 64 49
59 49 35
56 67 35
122 211 81
38 38 26
45 45 31
48 55 33
57 77 41
69 57 39
39 39 27
43 41 27
38 38 26
73 65 58
31 31 22
38 38 26
29 29 23
79 53 40
68 55 37
31 31 22
83 124 39
32 32 23
59 49 33
49 59 30
64 53 44
30 31 25
42 57 50
2 2 5
2 2 5
2 2 5
2 2 5
2 2 5
2 2 5
2 2 5
2 2 5
2 2 5
2 2 5
2 2 5
2 2 5
2 2 5
2 2 5
2 2 5
2 2 5
2 2 5
2 2 5
2 2 5
2 2 5
2 2 5
2 2 5
2 2 5
2 2 5
2 2 5
2 2 5
2 2 5
2 2 5
2 2 5
2 2 5
2 2 5
2 2 5
2 2 5
2 2 5
2 2 5
2 2 5
2 2 5
2 2 5
2 2 5
2 2 5
2 2 5
2 2 5
2 2 5
2 2 5
2 2 5
2 2 5
2 2 5
2 2 5
2 2 5
2 2 5
2 2 5
2 2 5
2 2 5
2 2 5
2 2 5
2 2 5
2 2 5
2 2 5
2 2 5
2 2 5
2 2 5
2 2 5
2 2 5
2 2 5
2 2 5
2 2 5
2 2 5
2 2 5
2 2 5
2 2 5
2 2 5
2 2 5
2 2 5
2 2 5
2 2 5
2 2 5
2 2 5
2 2 5
2 2 5
2 2 5
2 2 5
2 2 5
2 2 5
2 2 5
2 2 5
2 2 5
2 2 5
2 2 5
2 2 5
2 2 5
2 2 5
2 2 5
2 2 5
2 2 5
2 2 5
2 2 5
2 2 5
2 2 5
2 2 5
2 2 5
2 2 5
2 2 5
2 2 5
2 2 5
2 2 5
2 2 5
2 2 5
2 2 5
32 21 23
17 26 19
25 38 27
46 54 38
19 29 21
29 44 30
22 33 23
175 255 175
52 55 46
22 33 23
22 33 23
20 30 21
19 28 20
175 255 175
30 45 31
34 52 30
124 255 177
24 36 25
38 69 47
40 65 44
24 37 26
35 48 36
31 44 29
37 48 32
19 29 21
22 33 23
23 35 25
23 35 25
22 34 24
36 51 32
30 40 27
31 43 29
67 67 53
51 77 41
25 37 26
29 40 30
25 38 27
25 38 26
97 69 62
63 82 55
72 69 46
31 50 33
23 35 25
148 223 148
24 36 26
145 158 105
75 100 60
21 32 23
37 54 45
44 66 37
93 95 48
56 73 47
190 255 133
71 79 39
183 193 128
21 31 22
148 223 148
22 33 23
27 36 46
40 61 35
24 37 23
22 33 23
20 31 22
173 255 173
21 31 22
32 45 35
23 39 28
54 75 44
19 28 20
34 57 39
53 53 48
21 31 22
18 27 19
23 34 24
42 64 35
19 29 21
22 34 24
28 38 25
19 28 20
18 26 29
18 27 19
19 29 21
38 45 31
87 75 50
33 40 27
30 39 26
30 60 40
36 45 29
19 29 20
72 65 42
18 27 20
17 25 18
17 25 18
73 60 58
21 32 22
29 50 31
18 27 19
18 27 19
38 41 30
25 45 31
42 66 50
24 33 26
37 50 31
17 25 18
17 25 18
30 38 25
27 31 35
58 87 44
57 67 57
16 24 18
93 39 45
46 31 26
21 14 15
57 56 36
35 30 34
39 31 27
60 45 32
40 29 25
32 21 19
34 25 25
23 15 17
26 17 19
63 54 49
25 17 18
25 16 18
92 50 67
26 17 19
61 35 41
119 66 52
85 47 80
61 51 56
34 22 24
43 34 29
139 79 53
56 33 42
28 18 20
59 49 36
28 18 19
29 19 21
28 18 20
30 20 21
78 59 46
42 33 29
104 56 51
31 20 22
73 35 44
61 48 48
122 36 54
46 37 31
31 20 22
60 36 34
97 83 56
57 32 35
116 67 57
33 22 24
63 34 31
255 171 171
29 19 21
58 43 48
130 130 83
255 171 171
102 54 40
64 35 31
255 172 172
34 22 24
47 37 39
62 39 44
29 19 21
31 20 22
38 30 26
69 41 38
90 55 43
32 21 23
75 52 44
29 19 21
33 22 23
31 20 22
67 41 33
93 84 49
32 21 23
170 52 41
31 20 22
31 19 19
109 92 52
97 65 50
83 40 46
34 23 24
244 86 119
73 63 41
66 45 37
31 21 22
75 57 45
32 21 23
73 35 43
33 23 30
32 21 22
33 22 23
33 22 23
80 78 69
122 54 46
57 33 29
46 46 42
58 68 43
65 68 38
101 119 74
71 79 45
113 80 51
91 76 62
41 41 29
50 50 33
255 197 131
93 74 50
57 65 45
135 115 65
69 69 42
74 70 54
123 118 59
131 135 76
55 51 34
66 61 41
47 47 32
68 83 48
45 45 31
48 48 34
46 46 32
63 72 49
46 46 32
95 96 49
50 50 33
41 41 29
89 86 55
109 98 53
71 73 44
46 46 32
48 48 33
101 110 47
73 92 58
88 73 45
43 43 30
50 50 35
44 44 30
61 69 42
58 67 39
110 81 48
48 48 34
90 74 40
62 66 45
67 77 57
68 70 40
74 82 55
61 57 57
76 64 41
45 45 31
193 255 128
39 39 27
56 61 45
90 75 61
56 70 44
123 176 70
40 40 28
81 61 40
40 40 28
38 38 27
80 73 47
49 55 34
39 39 27
36 36 26
69 91 46
43 43 30
36 36 26
71 67 41
44 44 31
74 78 42
115 101 60
52 62 35
32 32 22
38 38 27
89 77 51
64 102 52
55 59 39
78 120 44
42 39 26
71 117 46
69 69 122
58 48 33
33 33 23
49 57 33
33 33 23
29 29 21
28 28 20
85 73 37
74 58 95
2 2 5
2 2 5
2 2 5
2 2 5
2 2 5
2 2 5
2 2 5
2 2 5
2 2 5
2 2 5
2 2 5
2 2 5
2 2 5
2 2 5
2 2 5
2 2 5
2 2 5
2 2 5
2 2 5
2 2 5
2 2 5
2 2 5
2 2 5
2 2 5
2 2 5
2 2 5
2 2 5
2 2 5
2 2 5
2 2 5
2 2 5
2 2 5
2 2 5
2 2 5
2 2 5
2 2 5
2 2 5
2 2 5
2 2 5
2 2 5
2 2 5
2 2 5
2 2 5
2 2 5
2 2 5
2 2 5
2 2 5
2 2 5
2 2 5
2 2 5
2 2 5
2 2 5
2 2 5
2 2 5
2 2 5
2 2 5
2 2 5
2 2 5
2 2 5
2 2 5
2 2 5
2 2 5
2 2 5
2 2 5
2 2 5
2 2 5
2 2 5
2 2 5
2 2 5
2 2 5
2 2 5
2 2 5
2 2 5
2 2 5
2 2 5
2 2 5
2 2 5
2 2 5
2 2 5
2 2 5
2 2 5
2 2 5
2 2 5
2 2 5
2 2 5
2 2 5
2 2 5
2 2 5
2 2 5
2 2 5
2 2 5
2 2 5
2 2 5
2 2 5
2 2 5
2 2 5
98 82 49
79 48 51
56 37 33
2 2 5
84 45 67
45 33 30
41 27 28
83 49 58
36 24 25
34 22 24
34 23 24
33 22 24
35 23 25
20 31 22
37 51 37
22 34 24
19 29 21
25 37 26
17 26 19
33 50 31
24 36 25
50 68 56
21 32 23
23 34 24
21 31 22
24 37 26
22 33 23
148 223 107
57 96 42
22 33 23
58 88 42
44 54 36
56 72 48
24 36 25
40 51 42
29 44 27
34 63 38
26 40 28
24 37 26
23 34 24
23 34 24
36 48 31
33 56 33
21 31 22
40 52 41
32 48 31
43 62 35
40 57 31
57 85 45
21 32 23
32 46 30
120 254 169
24 37 26
27 41 29
24 37 26
77 86 67
21 31 22
71 110 65
21 32 24
37 69 44
30 45 31
102 88 61
88 101 52
26 39 28
22 33 23
52 68 37
41 50 42
25 38 26
32 48 29
36 55 32
45 49 33
24 35 31
22 34 24
38 75 51
23 34 24
53 105 116
29 40 30
34 62 42
23 35 25
21 32 23
20 31 22
19 29 21
33 59 40
19 28 20
26 52 34
18 27 20
72 188 95
27 41 25
18 27 20
40 54 33
22 36 25
19 28 20
49 80 54
30 38 26
67 94 66
17 26 19
30 56 42
61 75 40
25 44 31
31 40 28
71 68 59
19 28 20
46 78 40
65 84 38
43 50 31
41 89 29
34 43 29
17 26 19
33 42 29
17 25 18
15 23 17
33 41 28
43 75 31
48 72 37
67 85 47
15 23 16
46 79 44
32 38 33
37 44 38
16 24 17
35 47 28
55 61 37
22 14 16
25 16 18
20 13 14
30 20 19
66 55 34
22 15 16
38 25 23
50 30 27
40 32 27
110 83 44
45 29 24
78 56 40
49 38 28
28 18 20
27 18 20
26 17 19
255 187 130
41 33 28
42 26 25
70 53 47
56 37 31
93 86 53
47 38 35
77 71 46
28 19 20
28 19 20
28 19 20
27 18 19
29 19 21
30 20 21
43 25 25
40 27 29
91 40 43
72 38 49
36 24 29
69 41 34
29 19 21
78 43 42
49 39 33
61 43 32
255 171 171
29 19 21
42 28 26
115 83 55
255 170 170
74 58 41
58 32 40
137 106 63
125 73 52
68 49 40
36 27 25
109 67 50
53 44 36
35 23 24
39 26 27
107 71 55
57 62 51
35 23 24
42 32 28
90 65 50
68 49 35
44 33 34
31 20 22
35 23 24
77 59 56
64 37 32
32 21 23
47 27 32
31 21 22
246 164 87
33 22 23
85 41 52
88 41 53
30 20 21
48 41 41
31 21 22
121 76 56
35 23 24
63 36 42
33 22 29
66 44 36
27 18 19
73 35 40
255 172 172
31 21 22
48 38 33
255 173 173
245 85 118
46 30 27
255 172 172
31 20 22
107 154 63
232 232 154
125 85 69
86 83 49
62 86 45
66 65 45
82 96 49
72 63 47
48 48 33
43 43 30
54 59 37
41 41 29
86 67 46
82 69 43
50 50 35
45 45 31
85 71 43
72 92 43
44 44 31
89 71 47
54 54 37
99 73 54
42 42 29
68 59 40
233 233 155
63 67 42
53 59 40
73 88 59
61 70 39
90 75 61
42 42 29
56 64 37
77 82 49
50 50 35
61 71 49
75 64 45
42 42 30
97 78 56
82 84 44
48 48 33
83 92 55
54 60 41
86 71 58
61 53 36
62 66 45
43 43 30
137 118 68
42 42 29
42 42 29
44 47 29
56 56 46
77 97 47
60 66 38
44 44 31
45 45 35
71 71 39
56 63 35
101 87 50
36 36 26
89 89 50
63 76 49
70 56 41
44 44 31
50 47 35
255 255 176
53 62 36
141 255 123
33 33 24
39 39 28
41 41 29
43 43 30
44 44 31
61 53 36
34 34 24
36 36 26
38 38 27
255 255 176
31 31 22
31 31 22
36 36 26
53 64 43
26 26 19
63 78 49
84 102 75
29 29 21
84 131 61
33 33 23
46 57 38
24 24 18
28 28 20
29 29 21
2 2 5
2 2 5
2 2 5
2 2 5
2 2 5
2 2 5
2 2 5
2 2 5
2 2 5
2 2 5
2 2 5
2 2 5
2 2 5
2 2 5
2 2 5
2 2 5
2 2 5
2 2 5
2 2 5
2 2 5
2 2 5
2 2 5
2 2 5
2 2 5
2 2 5
2 2 5
2 2 5
2 2 5
2 2 5
2 2 5
2 2 5
2 2 5
2 2 5
2 2 5
2 2 5
2 2 5
2 2 5
2 2 5
2 2 5
2 2 5
2 2 5
2 2 5
2 2 5
2 2 5
2 2 5
2 2 5
2 2 5
2 2 5
2 2 5
2 2 5
2 2 5
2 2 5
2 2 5
2 2 5
2 2 5
2 2 5
2 2 5
2 2 5
2 2 5
2 2 5
2 2 5
2 2 5
2 2 5
2 2 5
2 2 5
2 2 5
2 2 5
2 2 5
2 2 5
2 2 5
2 2 5
2 2 5
2 2 5
2 2 5
2 2 5
2 2 5
2 2 5
2 2 5
2 2 5
2 2 5
2 2 5
2 2 5
2 2 5
2 2 5
2 2 5
2 2 5
2 2 5
2 2 5
2 2 5
42 28 29
2 2 5
38 25 25
39 26 28
60 46 47
43 29 30
37 25 26
39 26 28
43 28 30
35 23 25
58 37 38
48 37 33
40 26 28
40 27 28
36 24 25
87 43 53
137 74 59
32 21 23
80 36 44
54 42 37
64 96 50
162 171 84
30 50 30
24 36 25
22 33 23
41 62 35
21 32 23
43 65 45
27 41 29
119 130 68
22 33 23
38 52 39
23 35 25
121 128 118
31 50 35
20 30 21
23 35 25
53 66 51
40 48 36
57 86 45
22 33 24
23 34 24
44 57 45
35 53 32
34 60 41
28 46 32
37 47 32
42 51 37
41 75 51
68 116 59
25 37 31
32 48 30
22 33 24
28 51 45
43 65 38
28 42 29
173 255 173
63 94 50
37 76 51
105 221 147
25 38 26
24 37 26
22 33 22
43 65 37
27 44 31
47 77 47
22 33 23
25 38 27
28 42 29
46 52 46
20 30 21
20 31 22
34 58 39
19 29 21
25 38 27
77 120 60
33 50 29
21 32 23
20 30 21
21 31 22
46 59 37
19 28 20
53 70 45
29 49 33
20 30 21
39 68 45
20 30 21
19 29 21
21 32 23
61 59 44
20 30 22
20 30 21
19 29 21
20 30 22
37 46 30
120 126 54
21 31 22
35 67 58
84 85 63
33 41 28
18 27 19
60 62 51
19 29 21
54 70 77
42 51 34
19 29 21
18 27 25
16 24 17
24 34 22
43 56 35
17 25 18
31 57 39
36 55 31
38 53 42
40 72 51
33 56 38
15 23 17
16 24 18
18 28 20
16 24 18
49 57 32
22 32 23
46 55 43
47 55 33
15 23 16
21 35 26
15 23 17
16 24 17
15 22 16
43 36 26
20 13 15
42 28 20
79 46 35
20 13 15
174 167 116
44 36 29
54 32 32
75 41 59
41 23 34
38 22 39
57 30 39
54 40 34
25 17 18
32 21 22
41 33 28
254 169 169
42 33 28
27 18 19
64 46 34
239 159 111
73 48 38
37 22 23
98 60 49
28 19 20
27 18 19
28 19 20
42 27 24
54 46 46
37 28 25
73 49 44
32 21 22
255 171 120
29 19 21
29 19 20
57 46 47
29 19 21
91 53 42
47 37 37
185 124 90
93 68 48
28 18 20
39 26 27
51 38 31
31 20 22
34 23 24
29 19 25
102 61 77
30 20 21
32 21 23
101 38 35
30 20 21
255 171 171
67 32 38
50 30 49
92 61 48
86 67 74
32 21 23
30 20 21
62 34 31
54 49 43
30 20 22
142 53 68
35 23 24
255 173 122
33 22 23
30 20 21
33 22 23
32 21 22
48 29 34
32 21 23
30 20 21
30 20 21
255 199 139
32 21 22
31 21 22
64 55 40
65 35 45
47 37 32
63 38 35
64 55 118
32 21 23
36 24 25
255 172 172
32 21 22
32 21 23
39 29 30
120 99 72
30 20 21
72 40 40
152 103 61
54 60 41
61 69 43
78 67 45
58 52 40
45 45 31
50 54 34
78 66 45
59 67 40
67 56 37
52 56 37
56 64 38
91 94 46
43 43 30
45 45 31
40 40 28
58 55 39
45 45 31
43 43 30
46 46 31
51 51 34
41 41 29
85 66 47
85 80 44
255 255 183
84 94 56
49 53 33
67 76 52
42 42 29
47 47 33
67 64 47
46 46 32
59 62 162
46 46 32
61 67 36
55 62 37
54 61 42
45 45 31
48 47 45
43 43 30
47 47 33
69 69 42
78 81 41
45 45 31
61 65 37
77 66 45
45 46 34
198 150 132
255 255 181
230 133 118
68 81 45
50 50 35
46 46 32
52 49 33
83 67 47
110 168 62
36 36 25
40 40 28
64 50 36
93 103 70
70 92 51
92 74 45
101 79 46
96 74 45
70 125 58
81 73 42
36 36 26
85 113 59
38 38 27
98 92 54
255 255 178
71 56 41
41 41 29
59 70 40
41 46 30
32 32 23
33 33 24
33 33 23
40 40 28
28 28 20
32 32 22
70 85 51
39 39 32
64 87 41
94 69 47
48 58 33
84 63 46
61 82 38
30 30 22
56 50 32
49 41 28
29 29 21
65 36 62
2 2 5
28 56 43
38 71 59
2 2 5
24 37 39
2 2 5
2 2 5
23 35 37
73 90 73
2 2 5
2 2 5
2 2 5
2 2 5
2 2 5
2 2 5
2 2 5
2 2 5
2 2 5
2 2 5
2 2 5
2 2 5
2 2 5
2 2 5
2 2 5
2 2 5
2 2 5
2 2 5
2 2 5
2 2 5
2 2 5
2 2 5
2 2 5
2 2 5
2 2 5
2 2 5
2 2 5
2 2 5
2 2 5
2 2 5
2 2 5
2 2 5
2 2 5
2 2 5
2 2 5
2 2 5
2 2 5
2 2 5
2 2 5
2 2 5
2 2 5
2 2 5
2 2 5
2 2 5
2 2 5
2 2 5
2 2 5
2 2 5
2 2 5
2 2 5
2 2 5
2 2 5
2 2 5
2 2 5
2 2 5
2 2 5
2 2 5
2 2 5
2 2 5
2 2 5
2 2 5
2 2 5
2 2 5
2 2 5
2 2 5
2 2 5
2 2 5
2 2 5
2 2 5
2 2 5
91 60 75
2 2 5
42 28 29
44 29 31
2 2 5
53 35 32
41 27 29
40 26 28
105 83 79
44 29 31
61 45 39
88 53 48
44 29 31
44 29 31
42 28 29
41 27 27
105 70 56
80 53 44
38 25 27
36 24 26
34 22 24
41 27 29
48 32 27
38 25 27
122 83 72
89 85 54
78 61 57
36 24 25
33 22 23
51 87 36
22 33 23
47 70 39
57 76 40
17 26 19
23 34 24
21 32 23
24 36 25
53 64 54
44 80 53
25 37 26
49 80 43
22 34 24
73 110 57
175 255 175
63 87 44
21 32 23
68 101 65
21 31 22
23 34 24
26 39 27
25 38 27
90 101 53
54 72 57
20 31 22
27 41 29
34 51 27
75 107 62
44 54 45
43 66 53
49 65 35
36 48 37
22 34 24
21 32 23
21 32 21
84 144 81
22 34 24
37 54 41
49 58 40
142 213 102
51 63 53
21 32 22
19 29 21
35 64 44
71 100 62
177 255 177
24 37 26
36 49 34
23 35 25
38 72 45
21 32 23
55 83 44
21 31 22
31 41 32
21 31 22
28 52 35
53 52 38
24 37 26
19 29 21
57 91 50
42 58 35
41 50 31
74 72 58
30 46 27
23 35 25
19 29 20
171 255 171
20 30 21
36 45 37
20 30 21
45 67 34
20 30 21
18 27 19
20 31 22
21 31 28
47 55 40
19 28 20
43 67 43
147 156 147
18 28 20
47 84 36
37 46 31
47 54 45
42 53 42
36 43 31
54 62 41
17 26 19
141 203 146
45 80 42
49 106 53
33 50 29
38 68 43
17 26 18
17 26 19
16 25 18
16 24 17
53 56 40
29 44 26
45 77 32
36 48 30
81 109 60
74 100 32
34 46 28
38 61 44
35 43 36
15 23 17
37 64 48
28 35 24
16 25 18
15 23 17
22 14 16
44 25 25
21 14 15
25 16 18
21 14 15
60 48 45
54 28 28
96 79 43
47 46 36
57 38 30
26 17 19
24 16 18
26 17 19
24 16 17
27 18 19
90 48 43
32 21 22
25 17 18
27 18 19
28 18 20
44 35 30
253 168 168
62 40 31
31 20 22
44 35 30
99 66 50
79 52 42
27 18 19
46 37 31
56 48 50
26 17 17
36 24 25
55 37 33
75 50 146
32 21 22
29 19 21
34 23 24
255 180 127
104 62 45
28 19 20
96 59 46
92 40 53
30 20 21
44 29 27
36 26 26
56 47 44
32 21 22
52 42 43
87 52 41
53 44 32
40 24 28
42 32 29
29 19 21
71 51 37
62 36 34
30 20 21
104 52 62
95 63 49
37 23 23
101 42 38
49 40 33
55 47 39
30 20 21
62 47 39
139 161 48
225 166 69
91 49 37
192 122 174
53 35 30
67 50 51
42 29 27
44 25 26
46 36 31
83 55 44
71 46 41
29 19 21
48 28 38
27 18 18
33 21 32
32 21 22
255 171 171
32 21 26
29 19 20
31 20 22
255 171 171
46 31 40
29 19 21
181 131 91
49 27 30
32 21 22
40 40 28
49 49 34
255 255 180
43 43 30
70 60 41
46 46 32
47 52 31
58 62 42
105 72 54
55 61 42
46 46 32
77 72 46
43 43 30
51 56 35
41 41 29
65 58 42
61 71 41
64 79 54
45 45 31
53 53 36
52 58 40
80 83 52
255 255 181
77 79 60
60 60 38
61 71 40
97 80 50
86 81 48
57 55 39
54 58 39
45 45 31
63 54 37
66 55 39
49 49 34
118 86 68
46 50 34
92 63 43
41 41 29
45 45 31
51 46 31
43 43 30
41 41 29
43 43 30
43 43 30
85 66 44
90 73 61
44 44 30
51 56 35
72 78 43
52 52 36
42 42 29
40 40 28
45 45 31
63 51 33
59 71 40
42 42 29
39 39 27
46 53 31
41 41 29
52 49 33
87 78 49
39 39 27
45 45 31
38 38 26
255 187 125
39 39 27
36 36 25
255 255 178
178 105 67
54 48 37
103 123 55
88 63 42
119 141 58
57 50 31
35 35 24
63 51 35
33 33 23
40 44 37
184 255 173
35 35 34
31 31 22
90 186 67
137 106 60
69 76 42
80 89 43
26 26 19
38 34 26
21 21 15
43 49 32
33 37 22
44 42 24
92 103 97
22 34 36
56 62 76
30 45 47
26 45 40
21 31 34
41 54 61
26 39 41
29 44 39
26 40 42
25 37 40
78 88 78
53 80 66
62 76 90
50 93 70
39 49 60
2 2 5
25 38 40
2 2 5
156 235 235
28 42 44
24 37 39
2 2 5
27 46 41
2 2 5
2 2 5
2 2 5
2 2 5
2 2 5
2 2 5
2 2 5
2 2 5
2 2 5
2 2 5
2 2 5
2 2 5
2 2 5
2 2 5
2 2 5
2 2 5
2 2 5
2 2 5
2 2 5
2 2 5
2 2 5
2 2 5
2 2 5
2 2 5
2 2 5
2 2 5
2 2 5
2 2 5
2 2 5
2 2 5
2 2 5
2 2 5
2 2 5
2 2 5
2 2 5
2 2 5
2 2 5
2 2 5
2 2 5
2 2 5
2 2 5
2 2 5
2 2 5
2 2 5
2 2 5
2 2 5
2 2 5
2 2 5
2 2 5
2 2 5
55 36 33
2 2 5
39 26 28
47 30 44
78 48 51
40 27 28
44 29 31
40 27 28
86 61 63
60 46 60
63 50 50
41 27 29
51 34 32
62 48 49
42 28 29
46 30 32
75 53 44
57 52 42
45 30 31
135 76 65
56 43 38
107 52 67
62 46 49
56 43 38
91 61 48
60 49 41
38 25 26
47 34 32
102 58 49
45 31 30
32 21 23
63 36 43
35 23 25
31 20 22
172 117 85
18 28 20
18 27 19
44 66 37
20 30 21
62 63 52
22 34 24
183 255 128
45 51 49
22 33 23
22 34 24
20 31 22
48 68 47
57 86 47
48 65 38
22 33 23
58 74 50
46 51 45
30 39 45
20 31 21
176 255 176
37 49 43
36 54 32
48 59 40
45 65 41
22 34 24
43 65 36
26 40 28
50 82 39
24 36 25
25 38 27
29 44 30
50 65 57
48 72 41
38 64 45
21 31 22
84 79 61
22 33 24
22 34 24
35 48 32
74 95 45
42 72 48
22 33 24
47 73 39
37 49 33
43 93 59
21 31 22
76 112 54
57 62 52
20 30 22
38 49 33
21 32 23
30 41 31
22 33 23
39 55 42
43 59 45
33 61 42
35 53 32
20 30 21
25 38 24
39 58 33
21 32 23
48 51 38
89 119 66
137 147 137
51 53 34
96 122 47
43 57 43
40 54 36
28 37 26
68 58 55
38 47 32
38 58 38
54 61 38
33 43 33
21 32 23
20 31 22
36 45 31
41 50 34
19 29 20
30 56 39
28 52 36
17 26 19
54 85 61
68 72 41
41 61 33
33 40 28
29 43 26
18 28 20
17 26 19
37 77 47
75 82 52
21 36 25
54 71 46
45 49 35
19 29 21
51 66 45
32 43 36
35 47 29
16 24 17
46 74 39
37 42 28
32 43 27
31 59 36
36 55 32
16 24 18
28 35 24
14 21 16
68 70 41
39 50 28
61 51 33
21 14 15
45 34 24
22 15 16
54 36 29
23 15 17
32 21 22
24 16 17
73 38 32
39 31 27
65 37 49
76 55 41
53 33 30
27 18 19
26 17 19
27 18 18
23 15 17
34 25 24
95 63 48
84 69 36
81 50 44
117 41 59
29 19 21
26 17 19
48 33 31
32 21 22
100 62 47
29 19 21
34 23 24
28 19 20
31 20 22
28 18 20
30 20 21
49 54 51
53 44 33
59 49 38
255 71 96
66 44 36
57 31 39
255 170 170
43 34 29
31 20 22
29 19 21
255 170 170
78 52 42
50 40 42
30 20 22
35 23 24
73 50 39
31 20 22
44 34 30
58 35 30
29 19 21
129 76 57
28 18 20
41 31 28
126 116 84
101 67 52
32 21 23
33 22 24
53 43 44
32 21 23
29 19 21
89 62 46
88 58 46
28 19 20
50 37 40
31 21 22
47 33 31
34 22 33
31 21 22
39 26 27
67 39 37
255 172 172
54 32 30
30 20 21
50 29 35
29 19 21
69 38 35
40 24 28
31 20 22
113 85 59
58 36 30
31 21 22
29 19 21
30 20 21
152 137 82
77 41 53
30 20 22
213 142 101
46 25 31
50 57 41
68 85 48
41 41 28
39 39 28
72 107 53
59 59 46
65 76 50
81 89 53
60 69 41
53 60 36
42 42 30
82 95 63
45 45 31
190 255 176
72 60 40
83 101 49
69 85 56
53 57 40
67 58 39
63 55 38
41 41 29
46 50 35
94 77 64
48 48 33
67 74 44
87 79 47
101 105 69
44 44 31
44 44 31
42 42 30
68 57 42
47 51 35
60 69 41
61 52 34
94 82 57
43 43 30
56 52 35
82 69 46
42 42 29
62 72 42
70 64 47
68 59 56
88 73 56
77 86 57
40 40 28
42 42 29
79 63 38
59 73 43
108 90 62
81 100 50
64 50 39
86 95 55
46 46 32
119 68 51
53 55 37
60 56 40
41 41 29
68 95 44
40 40 35
56 70 39
36 36 26
64 64 38
43 43 30
44 44 31
41 41 27
40 40 28
61 72 41
73 81 42
72 72 45
31 31 26
75 92 52
32 32 23
44 50 35
58 69 48
35 35 25
52 44 36
36 36 25
39 48 34
53 39 28
39 39 27
33 33 23
31 31 22
30 30 21
53 43 29
28 28 20
53 45 31
60 48 33
255 255 171
42 51 28
30 30 22
24 24 17
43 35 55
35 48 52
82 143 100
68 124 82
27 41 44
37 55 73
27 41 43
30 45 43
39 68 72
29 40 40
20 30 35
64 88 91
23 35 37
26 40 42
33 58 51
31 43 46
63 72 89
33 44 46
31 51 48
38 69 59
56 68 86
69 88 74
23 35 37
66 87 89
30 45 47
49 65 73
29 43 46
60 73 65
43 55 57
50 60 62
28 43 45
38 53 57
153 230 230
2 2 5
2 2 5
2 2 5
43 54 55
2 2 5
24 37 39
2 2 5
2 2 5
2 2 5
2 2 5
2 2 5
2 2 5
2 2 5
2 2 5
2 2 5
2 2 5
2 2 5
2 2 5
2 2 5
2 2 5
2 2 5
2 2 5
2 2 5
2 2 5
2 2 5
2 2 5
2 2 5
2 2 5
2 2 5
2 2 5
2 2 5
2 2 5
2 2 5
2 2 5
57 34 32
39 26 28
69 53 59
34 22 24
62 38 41
49 37 37
40 27 28
38 25 27
92 48 59
40 26 28
39 26 27
41 27 29
39 26 27
44 29 30
44 29 31
44 29 30
100 77 61
51 34 32
95 73 58
73 44 44
42 28 30
50 36 48
42 28 29
114 123 66
42 28 29
45 30 31
71 54 47
43 29 30
36 24 25
41 27 29
40 27 28
36 24 25
94 59 55
38 25 26
72 43 48
37 24 26
33 22 24
37 25 26
34 22 24
32 21 23
60 35 50
81 48 39
17 25 18
33 49 29
31 47 29
34 56 39
20 30 22
57 85 44
57 97 44
23 34 24
19 29 21
81 70 48
36 46 28
48 72 41
24 36 25
22 33 24
60 123 93
39 56 37
25 37 26
25 38 27
36 54 31
75 113 69
29 44 26
43 65 38
26 39 27
32 54 28
23 35 24
20 30 22
172 255 172
63 59 44
28 40 39
25 38 26
24 37 26
71 72 53
32 53 27
33 48 30
22 33 23
28 42 29
21 32 23
58 71 44
37 49 33
42 105 65
25 37 26
84 100 72
46 69 33
21 32 23
69 93 56
31 41 30
54 90 41
22 33 23
34 43 35
47 65 37
34 45 31
21 32 22
24 37 26
20 30 21
34 63 38
22 34 24
58 59 46
25 34 23
36 50 34
21 32 23
40 52 35
40 56 30
20 31 22
19 29 21
39 45 36
21 32 22
71 119 54
20 31 22
19 29 20
55 86 45
19 29 21
37 52 35
39 49 30
25 38 25
19 28 20
19 29 21
17 26 19
29 53 37
18 27 20
19 29 21
19 28 20
64 84 48
31 48 27
33 41 28
32 40 27
33 41 28
17 26 18
54 62 38
43 56 50
17 25 18
56 73 50
59 81 41
45 90 48
19 31 28
25 43 28
16 25 18
39 77 43
59 137 46
48 55 32
25 44 31
29 36 27
39 49 30
22 38 26
38 62 33
76 70 53
36 59 43
29 62 41
52 79 38
28 35 24
56 35 27
34 28 23
23 15 17
78 36 47
72 34 30
22 14 16
24 16 18
26 17 18
50 49 44
25 17 18
124 90 53
75 44 39
23 15 17
32 21 22
28 19 26
26 17 19
92 76 58
50 30 31
26 17 19
68 31 39
39 29 26
40 23 27
65 45 34
70 46 59
28 19 20
95 58 45
100 52 35
47 38 32
27 18 19
73 45 38
177 115 164
29 19 21
28 19 20
67 44 37
26 17 19
33 24 22
209 139 99
88 58 46
51 25 25
53 50 47
28 19 20
30 20 21
93 68 51
52 29 31
38 25 24
70 35 41
63 88 54
38 27 25
79 68 61
30 20 21
31 20 22
30 20 21
37 24 26
32 21 23
43 27 27
35 23 25
255 172 172
30 20 21
117 62 49
255 171 171
71 38 45
46 37 38
48 32 28
31 20 22
70 37 48
47 39 32
55 31 38
77 51 41
91 44 56
76 56 40
110 71 60
48 32 28
39 23 42
51 45 42
30 20 22
40 26 25
140 105 68
60 34 35
113 46 69
63 31 38
45 31 29
33 22 23
78 51 41
53 37 30
32 21 23
30 20 21
49 32 45
31 20 22
79 39 43
31 20 22
46 36 31
98 76 71
79 93 64
61 54 36
38 38 27
68 59 40
65 61 40
56 61 41
41 41 29
117 80 53
56 69 37
81 88 71
77 95 48
255 255 182
43 43 30
52 55 37
45 45 31
66 72 49
68 61 41
73 106 59
46 46 32
41 41 29
41 41 28
70 93 54
43 43 30
42 42 29
100 61 42
53 51 72
43 44 51
89 68 55
42 42 29
51 51 35
41 41 29
79 72 45
44 44 31
60 54 37
40 40 28
40 40 28
78 89 48
84 68 52
67 76 52
53 61 35
44 44 30
41 41 29
72 58 45
82 70 46
41 41 29
82 93 44
38 38 27
70 85 57
43 43 30
162 225 108
37 37 26
39 39 28
45 49 30
119 98 60
80 80 44
73 62 39
51 55 37
44 44 30
63 53 33
43 43 30
70 59 40
81 81 47
77 80 48
40 40 28
47 43 28
111 164 58
40 40 28
39 39 27
39 39 27
98 111 39
33 33 23
68 54 39
38 38 27
36 36 26
85 85 47
32 32 23
80 110 61
32 32 23
60 68 33
35 35 25
68 57 38
29 29 21
28 28 20
65 53 36
59 48 41
30 30 22
49 64 47
23 23 17
55 50 28
61 73 55
21 32 34
48 74 68
44 55 69
60 73 87
28 39 39
22 34 36
42 59 52
42 61 55
72 102 70
27 40 43
39 50 58
25 37 40
26 39 42
52 87 63
23 34 37
85 143 87
25 37 40
55 64 138
34 47 47
38 66 66
29 43 45
27 41 43
26 40 42
21 32 35
30 45 48
28 43 45
60 75 93
45 57 57
43 55 66
38 49 54
24 36 38
32 42 42
37 65 59
55 123 91
66 124 77
25 38 40
26 36 67
27 41 43
39 52 53
23 34 37
21 32 35
24 36 38
44 49 49
24 36 41
22 33 36
26 39 41
22 33 35
22 33 36
22 34 36
54 100 70
19 29 31
160 182 178
2 2 5
19 29 32
52 59 69
18 27 29
2 2 5
2 2 5
40 26 23
2 2 5
75 51 59
34 23 24
34 22 22
34 23 24
27 18 20
29 19 21
51 39 39
35 23 25
77 43 51
33 22 23
32 21 23
36 24 26
39 26 27
74 43 49
43 28 30
93 62 50
41 27 29
39 26 27
48 32 33
74 49 43
68 39 47
44 29 30
44 29 31
47 31 33
43 28 30
68 58 54
40 27 28
108 57 51
44 29 31
41 27 27
41 27 28
87 70 47
41 27 29
40 27 28
59 52 49
64 36 39
49 33 34
46 30 32
255 175 175
38 25 27
67 37 44
34 23 24
50 40 34
41 27 34
36 24 26
49 31 29
31 21 22
27 18 19
33 22 23
27 48 33
21 32 23
16 25 18
101 209 139
20 31 22
43 76 37
44 66 36
20 30 22
30 46 28
23 35 25
69 78 41
85 94 43
43 46 37
23 34 24
19 28 20
24 36 25
34 45 31
21 31 22
123 255 174
46 69 47
55 60 44
21 31 21
32 49 29
26 40 25
24 39 35
135 146 97
47 71 39
39 57 51
26 37 34
19 28 20
32 43 38
53 80 45
21 32 23
79 84 49
46 81 38
23 34 24
52 116 60
29 52 36
22 34 24
21 31 22
24 36 25
51 66 41
22 34 24
39 51 52
25 37 26
44 69 36
23 35 25
21 32 23
70 94 48
53 75 49
26 40 25
108 221 108
22 33 24
68 73 41
83 125 62
34 51 31
35 59 36
84 112 62
19 29 21
21 33 25
22 34 24
36 56 29
19 29 21
20 31 22
82 142 56
20 31 22
20 30 21
20 30 21
31 40 32
21 31 22
20 31 22
20 30 21
31 47 28
36 45 31
64 88 44
25 38 26
42 58 34
49 80 53
37 44 30
23 34 24
56 84 43
36 44 30
52 61 37
36 59 35
27 48 26
46 57 33
24 42 35
31 39 27
17 26 19
66 92 42
31 47 27
64 65 37
44 57 32
35 47 28
22 33 22
16 24 18
17 26 19
54 50 39
49 51 31
21 37 26
51 62 38
16 24 17
38 45 29
27 34 23
29 40 26
16 24 17
26 44 26
36 62 27
35 42 36
33 27 23
58 39 31
23 15 17
27 18 19
23 15 37
84 57 44
29 19 18
64 45 38
40 26 27
35 28 24
27 18 19
23 15 17
83 55 43
26 17 19
75 48 38
23 15 15
53 35 35
80 45 43
66 37 30
28 18 20
25 17 19
34 20 20
35 23 24
26 17 19
26 17 19
49 36 36
25 16 18
52 37 33
31 21 22
52 45 33
29 19 21
48 36 32
27 18 19
56 37 31
55 29 26
29 19 21
41 27 25
95 43 42
51 29 35
49 36 27
29 19 21
71 42 51
57 32 39
61 34 28
93 62 47
32 21 22
41 24 27
33 22 23
32 21 22
41 27 25
41 25 29
28 19 20
65 42 37
30 20 21
63 32 40
255 173 173
29 19 21
27 18 19
31 20 22
67 45 37
31 21 22
102 63 48
33 22 23
30 20 21
29 19 21
33 22 23
56 37 30
44 29 26
214 195 79
129 72 57
55 42 42
30 20 21
30 20 21
53 31 29
57 34 31
70 47 32
52 34 29
28 19 20
28 19 20
31 20 22
67 36 46
59 40 40
30 20 22
46 26 32
30 20 21
44 29 26
57 37 44
30 20 21
118 98 53
38 29 30
225 140 129
51 57 39
116 86 48
43 43 30
40 40 28
58 57 36
67 61 39
117 110 68
52 58 40
40 40 28
46 46 32
64 52 39
45 44 42
43 43 30
60 71 48
87 67 54
90 97 59
42 42 30
84 84 48
73 64 43
57 67 39
87 71 53
66 57 44
41 41 29
41 41 29
255 255 178
57 62 36
41 41 29
67 74 54
88 136 67
141 117 69
41 41 29
59 52 35
56 50 33
87 71 53
115 88 67
68 59 40
42 42 29
97 136 78
45 45 31
40 40 28
42 42 29
77 54 44
255 255 127
46 46 32
64 55 37
53 57 40
88 97 45
42 42 30
54 66 37
40 40 28
102 84 59
65 86 47
37 37 31
74 64 39
46 50 34
81 67 39
69 54 39
33 33 26
35 35 25
35 35 25
255 255 173
66 56 38
38 38 26
84 89 47
95 79 47
34 34 24
98 106 57
63 55 37
60 55 37
36 36 25
53 60 34
34 34 24
33 33 23
129 102 56
55 72 38
57 61 35
32 32 22
46 43 27
36 36 26
34 34 24
70 83 36
33 33 23
58 68 39
39 34 23
47 65 43
27 27 19
102 113 59
79 55 40
30 30 21
26 26 19
69 73 42
36 43 45
95 135 130
35 53 49
30 45 42
45 55 57
24 36 38
27 40 43
28 42 44
49 57 61
29 49 44
28 42 44
72 108 85
24 36 39
54 68 82
28 42 44
40 63 52
22 33 35
36 64 56
45 62 60
27 40 43
29 44 46
25 37 39
43 78 64
54 104 72
57 70 80
56 63 63
86 107 84
26 39 42
27 41 41
102 121 101
26 39 42
21 32 34
24 36 39
21 31 33
26 39 42
25 37 40
22 34 36
28 42 45
22 34 36
41 62 54
27 45 49
95 99 81
31 51 51
38 71 66
39 49 49
89 96 86
44 53 66
24 37 39
47 57 51
17 25 28
39 44 46
21 31 34
35 43 45
28 49 43
18 28 30
19 29 31
28 39 39
88 60 62
27 18 19
29 19 20
32 21 22
28 19 20
29 19 21
70 51 41
56 44 46
33 22 24
30 20 21
57 42 42
36 24 26
98 62 53
39 26 27
102 67 51
78 52 43
35 23 25
38 25 27
41 27 28
148 87 59
42 28 29
82 65 60
42 28 30
39 26 28
138 85 64
102 62 52
40 26 28
65 59 50
41 27 29
54 36 34
144 176 126
43 29 30
44 29 31
40 26 28
45 30 31
37 25 26
97 72 52
116 59 73
39 26 28
64 45 34
90 60 47
40 27 28
108 63 54
38 25 27
34 23 24
55 42 37
98 58 46
38 25 27
49 29 32
28 18 20
35 23 23
217 145 145
62 88 44
35 44 30
30 39 32
24 37 27
19 29 21
139 150 100
51 64 48
21 31 22
22 33 24
19 29 21
23 35 25
35 53 30
43 59 33
67 134 55
21 32 23
23 35 23
22 34 24
41 51 31
49 68 43
21 31 22
54 82 38
47 88 50
22 33 23
24 36 25
35 52 35
64 75 57
22 33 24
39 50 33
66 175 94
39 49 40
27 41 25
48 78 38
38 51 39
22 33 23
47 83 43
34 51 31
22 33 23
32 45 30
42 77 46
54 75 43
43 59 36
21 31 22
38 46 36
22 33 23
52 101 48
59 104 43
44 53 36
27 41 26
73 81 50
21 32 23
174 255 174
41 55 35
29 43 30
55 57 50
36 55 31
75 104 54
41 52 33
44 68 48
45 97 56
41 51 35
21 32 22
22 33 23
39 49 34
20 31 22
51 63 39
23 34 24
53 48 35
38 51 34
85 173 115
52 72 57
19 29 21
74 117 58
18 28 20
46 79 35
60 63 41
36 45 31
18 27 19
22 33 22
48 52 47
58 76 77
45 62 33
17 25 18
27 42 25
32 46 25
33 56 32
35 44 30
19 29 21
18 28 20
19 28 20
16 24 18
65 56 41
36 44 27
71 106 53
16 24 17
73 84 46
42 56 34
17 26 19
25 38 22
17 25 18
22 38 27
50 73 50
35 54 38
55 74 35
80 87 68
16 24 17
22 36 25
47 55 32
16 24 17
14 21 15
64 37 29
105 51 61
52 44 40
23 15 17
28 18 17
22 14 16
23 15 17
52 42 29
22 15 16
87 58 45
26 17 18
52 38 35
68 46 39
22 15 16
66 34 45
78 52 42
90 68 79
23 15 17
28 18 20
95 63 48
25 17 18
28 18 20
56 37 31
84 59 42
41 33 28
65 54 32
71 32 37
61 58 42
33 22 23
29 19 21
37 29 25
41 24 29
252 168 117
55 47 38
27 18 20
108 97 61
29 19 21
81 46 55
32 21 23
122 61 59
31 21 22
45 34 31
120 106 77
54 45 45
29 19 21
51 28 32
55 32 37
89 45 38
40 47 27
29 19 20
66 37 44
78 49 39
33 22 23
75 77 42
79 48 57
49 38 28
45 30 27
60 46 40
29 19 21
87 45 37
52 48 41
30 20 22
57 31 29
82 38 43
44 25 25
45 38 35
56 31 38
60 33 51
45 36 34
73 47 37
81 54 44
106 49 41
30 20 21
255 171 171
46 28 31
28 18 20
31 20 22
30 20 22
29 19 21
61 31 33
52 40 41
95 45 58
70 43 51
93 62 48
29 19 21
42 28 25
255 171 171
37 25 28
31 20 22
83 37 43
255 172 172
255 255 180
100 88 56
50 55 34
41 41 29
39 39 27
41 41 29
54 61 37
41 41 29
74 60 37
101 79 60
80 73 60
40 40 28
77 90 49
39 39 27
82 68 41
43 43 30
69 75 42
76 60 43
43 43 30
53 47 32
255 255 180
69 59 47
43 43 30
47 47 32
63 54 37
62 74 42
229 229 152
42 42 29
42 42 29
43 43 30
55 55 34
57 63 39
41 41 29
41 41 29
91 64 59
67 64 40
42 42 29
42 42 29
255 255 179
42 42 30
80 75 44
89 86 46
52 49 34
111 93 54
68 69 48
39 39 27
49 55 33
72 82 44
49 45 31
255 255 177
104 91 48
144 88 65
255 184 122
57 49 33
53 50 46
49 49 33
84 102 43
35 35 31
94 87 53
41 41 29
78 77 102
42 39 46
106 85 49
55 67 39
34 34 24
94 125 54
30 30 22
85 67 51
89 67 46
68 72 59
34 34 24
36 36 25
32 32 23
42 40 47
33 33 23
66 72 37
50 52 33
82 105 57
54 68 38
29 29 21
30 30 21
71 58 38
77 135 64
107 205 96
27 27 20
43 58 27
54 43 37
26 26 19
41 59 34
55 74 34
77 53 34
21 32 34
19 28 31
35 53 46
22 33 35
34 61 53
80 85 68
22 33 36
23 35 37
25 37 40
27 40 42
38 71 59
44 72 69
44 57 68
47 57 59
34 44 44
41 62 50
25 37 37
28 42 44
24 37 39
40 54 54
24 37 39
55 94 72
26 39 41
23 34 37
24 36 39
32 53 53
28 42 45
23 35 37
29 47 43
63 94 88
25 37 40
23 35 37
22 33 35
27 40 42
25 38 40
31 47 49
28 47 44
25 37 39
37 48 50
26 40 38
24 39 37
19 29 31
44 62 56
41 52 64
55 64 57
75 115 75
23 34 48
54 64 60
19 28 30
47 65 53
20 30 32
67 61 70
37 50 50
19 29 31
18 28 30
18 27 29
96 104 83
77 36 47
29 19 21
32 21 23
82 70 67
25 17 18
29 19 21
255 123 176
42 30 27
32 21 23
61 32 40
52 43 41
69 38 48
37 25 26
42 28 29
39 26 27
45 30 27
148 58 68
255 178 178
255 179 179
58 38 56
58 35 59
39 26 27
125 80 93
119 79 63
69 49 42
111 74 60
44 29 27
40 26 28
42 28 29
55 36 33
43 28 30
42 28 30
39 26 27
78 52 52
73 45 38
83 35 43
57 44 39
40 26 28
255 122 173
67 48 38
75 42 50
35 23 25
76 39 45
104 69 55
83 63 47
33 22 24
42 28 26
81 62 46
33 22 23
66 45 36
61 43 34
56 37 31
42 83 35
60 67 38
34 51 29
19 28 20
54 60 50
34 60 34
20 31 22
34 65 41
20 30 21
53 65 41
36 53 28
34 71 41
56 64 40
21 32 23
70 96 51
25 37 26
21 31 22
70 116 55
61 89 47
85 94 69
21 31 22
21 31 22
23 34 24
21 32 23
64 87 49
79 88 69
73 112 70
30 41 30
17 26 19
22 33 23
21 32 23
45 81 40
20 31 21
20 31 22
41 53 42
49 77 37
21 32 23
32 59 40
36 46 31
38 46 30
55 100 57
22 34 23
22 34 24
23 34 24
81 84 47
40 66 45
45 68 38
172 255 172
25 41 25
21 31 22
54 64 48
27 41 28
30 45 27
53 70 40
42 51 43
31 47 30
21 32 22
22 33 24
36 48 36
36 45 31
21 32 22
21 31 22
20 30 22
24 36 25
19 29 20
18 27 19
24 37 39
35 56 35
33 50 27
20 30 21
20 30 21
24 42 29
37 63 43
18 28 20
45 54 45
17 25 19
45 49 41
46 53 41
44 49 33
19 28 20
18 27 23
55 66 48
18 27 20
23 35 22
55 77 45
19 28 20
19 28 20
16 25 18
47 60 35
164 246 114
49 74 40
16 24 18
34 42 36
168 253 168
26 48 26
17 25 18
22 40 27
64 75 39
168 252 168
23 34 24
65 122 52
42 63 33
38 62 30
55 76 35
28 35 24
65 113 61
63 94 48
26 47 33
55 61 34
96 50 60
21 14 15
19 13 19
22 15 16
38 23 22
30 20 21
46 32 24
44 37 39
21 14 15
30 20 21
39 33 27
42 35 36
55 35 31
23 15 17
50 59 40
88 53 65
62 32 37
34 21 31
26 17 19
24 16 17
38 32 27
47 32 30
43 40 32
27 18 19
25 17 18
25 17 18
29 19 21
27 18 20
41 30 25
29 19 21
28 19 20
38 23 23
39 23 50
28 19 20
99 56 43
29 19 21
255 170 170
42 37 37
33 22 23
36 24 25
255 170 170
28 18 20
29 19 20
33 22 23
70 46 37
30 20 21
29 19 21
52 38 28
29 19 21
61 26 33
29 19 21
80 37 48
34 23 34
111 72 58
46 31 27
52 34 34
181 64 54
47 30 26
255 172 172
43 34 34
96 60 40
29 19 21
32 22 33
31 20 22
87 58 45
29 19 21
255 170 170
82 38 48
113 56 65
69 46 38
46 37 32
90 53 65
30 20 21
255 121 121
33 22 23
42 29 26
30 20 22
30 20 21
61 46 46
54 36 31
50 31 29
66 57 40
29 19 21
40 32 43
73 38 50
59 39 33
255 171 171
45 27 26
38 29 32
99 62 49
79 58 46
189 255 176
63 65 38
58 55 42
72 60 41
60 54 36
86 100 79
55 49 33
53 56 48
79 91 52
255 255 178
42 42 29
68 71 57
66 95 44
39 39 28
70 71 44
42 42 29
43 43 30
82 73 45
66 69 40
255 255 177
42 42 30
66 60 37
43 43 30
42 42 29
39 39 27
71 122 71
51 52 52
39 39 28
84 89 52
71 62 41
37 37 26
77 60 45
255 255 177
89 72 46
39 39 28
105 120 60
127 87 52
91 102 87
61 53 36
67 90 52
50 47 35
63 68 49
41 41 28
49 54 32
102 85 57
69 81 46
39 39 27
47 52 57
44 44 30
63 70 47
57 50 34
63 104 62
67 58 39
37 37 26
67 71 54
79 74 44
77 66 44
42 42 29
59 65 36
33 33 23
39 39 28
37 37 26
59 68 45
31 31 21
55 55 34
57 88 34
80 99 54
60 75 36
33 33 24
52 71 38
62 85 47
127 96 56
58 66 37
39 44 26
38 38 27
32 32 23
32 32 23
63 53 43
107 80 115
33 33 23
41 43 24
34 38 24
54 46 30
49 41 34
82 101 43
54 38 29
52 46 32
26 26 18
43 53 29
36 36 34
25 25 18
17 26 29
19 29 32
66 90 76
42 54 64
45 59 52
58 59 65
22 33 36
24 36 38
77 68 116
62 71 83
26 39 41
26 39 41
29 44 46
70 127 91
63 95 77
45 54 55
25 38 41
108 142 136
23 34 37
27 41 44
45 68 59
24 36 38
23 35 37
32 45 48
47 71 61
28 42 44
26 40 42
25 38 41
68 95 90
46 59 72
50 63 78
26 39 41
45 80 66
43 53 66
40 51 53
26 40 42
25 38 41
24 36 39
23 35 37
22 34 36
25 37 40
24 36 38
56 100 72
79 74 84
24 36 38
21 31 34
27 46 43
32 41 42
21 32 34
30 53 47
18 28 30
19 29 31
34 70 46
19 28 30
35 49 49
18 27 29
35 73 45
16 25 27
24 16 18
26 17 19
103 61 42
54 55 45
48 39 51
45 36 37
48 32 29
113 80 58
34 23 24
36 24 25
43 27 25
94 57 49
34 23 24
70 39 49
59 34 40
40 26 28
71 47 41
41 27 29
48 33 32
68 39 42
38 25 27
52 39 41
42 28 29
50 38 34
128 81 62
59 46 48
81 72 59
70 40 48
109 51 54
41 27 29
42 28 29
42 28 29
39 26 27
41 27 29
53 32 37
37 24 26
40 27 28
255 126 177
82 48 40
76 56 45
38 26 34
62 35 41
46 32 34
72 37 42
35 23 25
65 44 40
33 22 23
53 31 35
140 130 50
65 36 43
51 41 35
37 61 31
46 69 37
61 97 38
42 66 39
35 55 30
46 62 53
32 41 28
61 70 60
20 31 22
19 29 21
33 61 42
49 57 40
65 84 50
20 30 22
40 74 42
52 62 37
39 51 31
33 61 42
48 62 48
20 31 22
21 31 22
19 29 21
19 29 21
45 68 38
23 35 25
28 42 29
23 35 24
20 31 22
27 40 28
59 89 48
26 39 31
41 50 42
34 47 30
23 34 24
32 42 29
21 32 22
21 32 23
27 46 27
22 33 23
47 58 35
21 31 22
31 42 29
41 62 34
19 29 21
52 79 42
24 37 26
27 41 28
25 37 26
24 37 23
22 33 23
46 56 47
91 107 85
83 99 64
59 96 57
22 33 23
21 31 22
21 31 22
18 28 20
53 79 43
35 54 38
18 27 19
20 30 22
62 75 37
17 26 19
52 61 49
19 28 20
19 28 20
17 26 18
27 44 29
21 31 22
46 59 43
19 29 21
20 30 21
35 47 36
36 66 34
24 42 25
17 25 18
39 47 32
47 55 48
18 28 20
29 44 25
19 29 21
74 54 42
16 24 17
50 94 62
17 26 19
68 69 37
17 26 18
32 38 30
96 146 56
168 252 168
16 24 17
17 26 19
37 52 28
17 25 18
16 25 18
31 51 28
54 53 46
35 48 28
25 29 21
32 48 26
25 32 22
38 46 31
14 21 15
30 37 25
26 34 27
28 35 24
21 28 23
18 27 27
20 13 14
57 47 32
58 42 29
40 22 22
36 24 22
59 43 34
49 48 37
168 117 65
37 24 38
92 55 35
84 65 73
43 24 30
44 35 30
39 31 27
25 17 18
27 18 19
24 16 17
51 40 34
44 33 28
28 18 20
51 41 31
45 23 31
24 16 17
39 26 24
142 49 46
72 40 48
41 30 37
30 20 21
28 18 20
58 45 36
46 33 33
26 17 19
67 44 118
30 20 21
179 171 119
66 64 39
78 37 47
40 26 25
44 29 26
45 36 31
56 30 39
27 18 20
28 18 20
27 18 19
92 56 47
59 34 27
32 21 22
69 58 37
70 35 38
51 34 31
29 19 21
61 33 42
37 25 26
28 19 20
29 19 21
65 48 34
33 22 23
58 39 33
30 20 22
97 64 42
28 19 20
255 173 173
83 37 40
47 26 27
70 62 45
30 20 22
38 29 26
78 44 38
31 21 22
74 43 49
42 32 29
56 30 39
66 60 41
47 31 28
29 19 20
42 30 30
40 30 26
51 32 35
28 19 20
27 18 20
74 55 39
94 62 48
28 18 20
48 39 41
30 20 22
31 20 22
28 19 20
255 170 170
69 40 33
55 37 31
51 29 35
255 255 178
40 40 28
64 55 44
38 38 27
40 40 28
49 55 34
59 68 45
43 43 30
42 42 29
41 41 29
86 82 63
49 49 34
53 57 36
186 186 93
82 72 46
75 62 41
41 41 29
68 89 53
75 62 42
40 40 28
59 69 39
43 43 30
59 53 34
66 62 45
87 129 47
70 84 43
67 57 39
42 42 29
64 64 41
255 255 177
67 89 49
38 38 27
61 64 37
47 51 42
56 49 34
63 65 41
37 37 26
78 86 52
43 43 30
50 50 35
60 72 41
59 70 40
38 38 27
46 46 31
39 39 28
41 41 29
58 52 34
60 66 44
37 37 26
40 40 28
47 52 31
61 53 36
49 57 32
40 40 28
103 98 51
38 38 27
43 43 29
39 39 27
44 40 27
65 50 31
62 97 46
50 57 39
39 39 27
43 43 30
81 105 48
35 35 25
57 80 38
37 37 26
30 30 21
54 48 32
64 72 40
35 35 24
69 56 38
82 102 42
30 30 21
194 204 129
218 218 104
66 66 44
30 30 21
154 156 60
34 34 24
85 111 54
48 67 28
35 40 24
255 255 172
29 29 19
27 27 20
74 59 41
37 44 31
23 23 17
25 24 22
25 38 40
44 51 62
19 29 32
23 35 37
22 34 36
21 31 34
25 37 40
22 33 35
39 49 49
26 39 41
26 39 41
23 34 36
20 30 32
26 39 41
85 158 107
36 54 47
70 112 80
36 55 50
30 46 47
47 55 60
24 36 38
27 41 43
51 80 65
24 36 39
32 48 51
22 34 36
81 113 81
30 51 47
25 38 40
22 33 35
22 33 35
25 38 40
48 62 89
26 39 41
24 37 39
21 32 35
73 103 91
39 58 46
23 35 38
23 34 36
63 136 65
87 81 95
22 33 35
31 50 50
23 34 37
33 42 49
21 31 34
20 30 32
28 37 37
34 62 53
43 55 55
73 85 66
17 25 28
19 28 30
18 28 30
47 62 62
47 54 72
20 30 32
59 44 44
50 48 42
28 19 20
30 20 22
25 17 18
33 22 24
27 18 20
32 21 23
35 23 25
113 61 57
36 24 25
35 23 25
70 54 51
58 38 35
56 33 39
79 48 80
40 26 28
50 37 39
79 52 44
97 55 53
44 29 31
43 29 30
72 68 47
43 28 30
61 54 66
41 27 29
103 68 56
40 27 28
43 28 30
156 86 69
40 26 26
44 29 30
67 64 48
43 28 30
55 39 38
39 26 27
56 42 38
59 46 39
34 23 24
89 55 45
38 25 26
33 22 23
78 62 45
71 44 37
32 21 22
106 77 54
35 23 25
32 21 23
32 21 23
84 74 53
68 37 47
22 34 25
18 27 19
20 30 21
21 31 22
30 38 31
33 40 33
42 63 36
81 76 53
20 30 21
23 34 24
75 92 51
49 52 44
60 124 47
37 56 49
23 35 24
46 79 62
53 69 38
172 255 172
27 38 30
32 58 40
41 70 37
18 27 19
21 31 22
87 91 52
72 102 51
19 29 21
21 32 23
27 36 29
40 61 35
77 103 57
43 50 37
20 30 22
21 31 22
21 32 23
32 48 33
28 42 25
21 32 23
46 73 44
21 31 22
87 128 50
20 31 26
46 53 37
47 59 49
72 99 55
55 55 42
38 47 32
18 27 19
21 32 23
40 49 41
21 32 23
27 37 39
21 31 22
20 31 22
28 39 26
36 46 31
19 28 20
31 61 35
35 60 29
65 80 58
20 31 22
35 45 31
60 110 49
64 64 49
23 35 25
20 31 22
42 51 39
75 76 60
54 61 55
19 29 25
18 27 20
24 42 29
18 27 20
36 44 37
38 47 39
34 43 30
35 43 29
29 42 26
31 51 30
18 27 19
163 133 86
28 37 25
39 44 32
45 48 41
58 73 40
46 65 34
40 47 38
41 53 29
29 37 26
29 56 35
52 78 42
38 55 50
17 25 18
32 40 27
167 251 167
24 33 23
15 23 17
40 48 42
15 23 16
57 91 45
44 61 50
43 51 29
27 41 24
29 39 24
69 103 47
16 25 18
26 34 23
22 38 22
34 41 27
26 33 23
72 55 37
35 28 24
99 64 64
59 46 30
65 50 33
39 32 27
49 38 30
54 33 38
75 39 47
63 36 28
65 43 34
29 18 29
22 15 16
21 14 16
23 15 17
26 17 19
24 16 18
51 28 35
214 142 142
25 17 18
29 21 19
125 77 47
27 18 20
29 19 21
93 47 49
30 20 22
108 62 53
82 58 40
29 19 20
28 18 20
141 101 79
70 56 39
69 46 36
28 18 20
51 39 30
135 64 55
48 39 40
27 18 19
42 34 28
27 18 20
49 40 42
43 34 29
56 39 37
107 68 51
27 18 19
46 34 29
29 19 21
58 53 41
85 42 64
30 20 21
210 100 140
29 19 21
87 59 44
81 36 35
81 54 40
49 40 34
28 18 20
38 23 26
58 39 33
70 43 39
66 58 52
61 52 42
78 55 67
98 44 57
28 19 20
119 87 72
255 171 171
47 31 27
56 37 32
42 35 28
60 45 53
78 39 72
66 38 38
29 19 21
65 69 52
57 40 34
90 60 47
29 19 21
36 22 22
30 20 21
29 19 20
29 19 20
47 38 32
68 33 39
29 19 21
93 43 55
58 40 46
48 39 32
39 30 31
105 70 54
44 25 30
50 46 32
38 38 27
91 93 52
83 69 49
61 56 38
73 73 41
59 70 48
54 48 36
40 40 28
93 78 86
66 56 45
41 41 29
255 255 178
49 56 33
59 74 37
69 69 42
39 39 27
67 75 38
64 76 52
49 45 30
60 70 41
53 61 35
66 75 38
61 62 38
49 49 33
41 41 28
49 52 36
61 54 37
81 67 52
138 109 55
40 40 28
74 74 43
49 52 33
65 70 43
173 143 71
39 39 27
61 71 41
62 82 49
40 40 28
42 42 28
39 39 27
65 63 43
48 48 33
37 37 28
51 48 32
82 85 47
40 40 28
85 67 44
52 58 36
55 65 38
49 46 37
48 54 32
48 54 37
220 220 146
77 102 45
52 48 35
69 53 41
46 46 31
35 35 25
39 39 27
43 48 29
51 47 29
247 175 116
84 93 43
55 66 45
155 215 103
36 36 25
33 33 24
70 54 40
34 34 24
34 34 24
58 48 32
48 60 39
68 82 53
33 33 23
92 96 46
41 47 28
39 44 26
78 75 46
32 32 23
40 36 28
30 31 25
28 28 20
45 54 37
81 61 34
73 73 68
65 50 38
28 28 20
58 62 30
32 37 22
27 27 20
33 22 35
62 83 71
81 106 89
22 33 35
25 37 40
28 42 44
43 66 55
64 65 80
53 80 64
23 34 37
21 32 34
28 42 44
24 37 39
27 40 42
23 34 36
57 95 63
25 37 39
28 42 44
60 103 69
27 41 43
27 41 41
177 255 255
59 104 76
27 41 43
36 58 59
70 114 98
42 64 57
28 43 45
24 36 39
47 58 76
22 34 36
33 65 55
24 36 38
47 70 61
48 81 63
22 33 35
34 46 44
49 59 69
22 34 36
31 52 45
74 121 84
24 36 38
21 32 34
29 50 50
30 50 51
19 29 31
22 33 35
19 29 31
19 29 31
17 26 28
27 36 42
18 27 30
19 28 31
46 63 50
32 48 38
18 28 30
62 91 68
22 14 16
52 39 39
25 16 18
26 17 19
65 29 36
130 79 54
29 19 20
29 19 21
29 19 20
77 38 45
32 21 23
66 54 42
255 176 176
39 26 27
39 26 27
125 50 88
67 45 38
38 25 27
43 28 30
91 79 63
54 36 33
40 26 28
43 28 30
128 71 80
40 27 28
41 27 29
37 25 26
165 72 58
175 49 76
39 26 27
42 28 29
184 128 171
57 45 45
40 27 33
51 30 34
93 48 50
71 47 40
51 34 34
255 176 176
40 27 28
43 28 28
70 61 57
31 21 22
64 38 45
41 25 27
36 24 25
51 41 43
29 19 21
34 24 22
29 19 21
71 43 38
31 21 22
22 33 23
37 45 38
24 36 22
34 57 27
95 98 37
31 40 32
20 30 21
63 108 66
20 31 22
22 34 24
37 55 31
37 54 34
20 31 22
19 28 20
72 73 56
39 75 48
42 63 41
20 30 22
29 43 30
21 31 22
37 70 43
18 27 20
21 32 22
36 62 34
19 29 21
21 31 22
22 33 24
22 33 23
22 33 23
53 62 36
62 83 46
38 62 32
171 255 171
68 94 39
19 28 20
49 84 39
146 219 146
89 125 60
21 31 22
59 73 53
22 33 23
91 90 45
20 30 21
58 75 58
21 32 23
42 73 45
42 63 36
158 237 111
29 49 34
54 82 42
42 60 39
61 92 48
22 33 24
19 29 21
24 36 25
40 61 34
28 50 34
35 44 36
21 32 23
36 61 30
18 28 20
20 31 22
17 26 19
27 47 26
17 26 19
23 34 24
18 27 19
17 26 19
19 29 21
40 55 37
31 58 39
41 92 48
80 88 49
60 90 47
31 38 25
57 93 43
24 40 24
39 45 30
43 63 39
19 29 20
23 36 32
38 51 31
37 69 42
29 37 31
16 25 18
43 57 46
25 38 23
24 36 21
37 45 38
39 46 40
53 61 48
57 75 38
58 92 54
15 23 17
49 90 39
16 25 18
23 40 27
33 40 27
22 39 27
15 23 17
33 41 28
34 45 28
59 53 42
21 36 25
34 41 28
26 33 23
37 42 27
30 36 25
53 50 52
68 46 38
22 14 16
21 14 15
62 30 41
35 26 24
22 14 17
21 14 15
29 19 20
76 53 37
73 43 30
48 35 28
104 48 62
26 17 19
68 61 38
31 24 21
43 35 37
35 21 20
54 42 29
69 35 47
50 33 27
23 15 17
41 32 33
37 22 22
27 18 19
43 35 30
176 121 86
34 22 24
56 37 27
26 17 18
26 17 19
50 38 28
37 25 26
43 34 36
25 17 18
62 41 36
51 28 35
50 28 29
37 27 25
60 47 55
43 33 32
27 18 19
47 42 37
91 68 40
37 28 29
68 45 36
78 75 47
100 52 35
131 66 96
29 19 21
98 51 65
85 53 66
61 33 33
55 41 34
30 20 21
52 36 31
94 63 48
73 37 32
74 73 40
75 50 40
253 122 69
28 18 20
29 19 20
255 180 126
43 32 30
72 43 36
27 18 20
118 54 56
40 26 24
67 43 34
106 67 58
59 62 53
99 70 50
32 23 31
88 49 37
86 39 43
28 19 20
49 31 26
48 27 32
75 39 43
55 50 36
77 48 40
52 47 40
28 18 20
30 20 21
29 19 21
109 62 42
47 35 29
80 45 54
30 20 21
119 50 56
60 32 41
40 40 28
39 39 27
37 37 26
51 54 34
37 37 26
39 39 28
46 48 50
65 59 39
188 255 125
44 44 30
42 42 33
92 118 49
60 79 40
38 38 26
39 39 27
65 66 50
88 113 50
48 47 31
76 61 42
65 54 36
82 96 60
85 75 42
53 57 38
45 49 54
45 50 30
76 66 44
71 79 44
41 41 29
48 48 33
255 255 177
68 68 57
46 50 32
38 38 27
76 76 45
70 86 61
60 71 41
97 77 46
42 42 29
37 37 26
40 40 28
73 114 60
39 39 27
37 37 26
60 66 49
109 74 46
255 255 178
57 69 39
43 43 30
61 62 41
36 36 31
75 63 48
40 40 28
51 60 34
51 45 34
93 97 68
35 35 25
39 39 27
35 35 23
69 77 52
51 55 34
49 56 31
35 35 25
33 33 23
44 49 33
42 42 29
36 36 25
45 54 31
37 37 26
60 50 34
78 94 46
80 120 78
78 91 44
76 73 44
29 29 21
243 171 85
32 32 25
27 27 19
36 36 26
60 50 34
38 36 36
34 34 23
27 27 21
68 58 35
66 54 33
41 39 24
29 29 21
46 58 32
82 105 66
69 86 50
65 39 26
54 71 32
105 53 69
30 46 33
26 39 41
37 56 49
55 87 65
23 35 37
31 54 48
26 39 41
175 255 255
53 85 65
46 89 76
50 96 68
57 68 88
51 63 78
27 40 42
22 34 36
44 56 66
29 43 46
24 37 39
24 37 39
28 42 44
43 54 55
65 106 80
48 60 53
23 35 38
27 41 43
29 44 46
71 173 82
28 42 40
22 33 35
24 36 38
24 36 38
25 38 40
53 99 72
35 63 55
24 36 38
52 65 69
25 37 40
25 37 40
35 58 63
58 87 82
20 31 33
61 85 68
58 70 91
52 64 64
20 30 32
117 184 133
69 85 88
31 45 40
20 31 33
36 54 48
31 38 47
80 53 78
47 57 71
19 29 31
41 90 71
18 27 29
47 49 55
54 29 36
58 31 40
28 18 20
30 20 22
28 18 20
31 21 22
28 19 20
35 23 24
126 56 58
31 20 22
88 44 48
69 43 50
73 48 40
62 43 61
53 42 43
32 21 23
75 50 42
41 27 29
117 60 68
38 25 27
37 25 26
89 50 70
65 43 36
39 26 27
58 42 34
107 70 64
98 46 50
73 48 40
82 48 40
41 27 29
43 28 30
235 156 156
62 52 49
52 39 33
44 29 31
79 55 41
46 30 31
69 51 42
125 52 58
41 27 29
56 44 44
91 60 49
38 25 26
31 21 22
93 82 53
116 62 49
49 37 33
70 48 39
77 56 43
29 19 21
103 81 53
19 29 21
58 72 38
44 93 53
41 69 37
43 57 34
44 67 31
44 48 35
43 69 35
170 255 170
42 65 32
21 32 23
66 70 37
31 49 27
22 34 23
32 63 39
20 30 21
31 54 32
40 72 59
44 76 36
18 27 19
34 43 35
175 183 122
25 42 51
29 43 28
36 44 34
50 66 39
47 71 38
33 50 30
24 36 25
21 32 23
55 99 46
34 51 29
19 29 21
37 56 32
37 50 32
39 52 37
170 143 89
48 57 42
38 44 29
59 88 46
22 31 29
22 34 24
54 78 62
26 36 25
34 62 31
93 140 61
47 81 42
18 28 20
22 33 23
21 31 22
148 222 148
20 30 21
171 255 171
70 97 48
54 59 37
58 77 41
20 31 22
50 67 36
21 31 22
23 35 25
30 42 43
29 38 26
22 34 24
36 54 31
35 44 36
19 28 20
31 62 36
31 40 28
29 38 25
45 60 35
17 26 19
18 28 20
18 27 20
140 141 133
46 66 35
18 28 20
31 40 32
39 65 32
38 63 34
37 45 31
49 81 41
53 63 36
21 37 26
73 69 40
50 86 39
28 57 38
61 68 41
19 29 20
51 89 69
18 27 19
22 30 21
69 86 50
24 39 22
47 100 63
20 35 25
34 54 32
46 46 34
15 23 17
14 21 15
36 64 34
31 38 26
48 48 36
14 22 16
15 22 16
56 105 58
31 37 23
49 54 40
14 21 16
27 33 28
21 14 15
21 14 15
56 42 37
26 23 22
75 46 32
22 14 16
237 110 158
39 26 23
55 44 32
76 69 41
22 14 16
58 30 40
59 27 39
50 24 29
88 50 36
82 65 43
30 20 21
54 41 29
88 54 40
102 43 60
59 56 45
26 17 18
58 43 34
42 34 29
26 17 20
24 16 16
42 28 25
89 65 50
63 47 42
27 18 19
28 19 20
251 167 167
26 17 19
57 30 40
26 17 19
40 31 26
38 29 30
45 34 30
59 39 33
27 18 19
248 116 165
47 36 26
34 27 28
57 43 38
27 18 19
37 27 27
39 30 27
59 43 31
31 21 30
27 18 20
88 42 45
60 54 36
29 19 21
29 19 21
163 88 69
46 37 38
30 20 22
60 32 41
255 172 172
43 25 28
67 41 33
59 39 32
27 18 20
71 37 48
28 18 20
28 19 20
254 169 169
29 19 20
61 33 42
29 19 20
28 19 20
30 20 22
255 172 172
97 58 58
37 28 26
110 96 50
27 18 20
29 19 21
44 29 26
57 28 38
46 31 27
77 38 49
255 170 170
99 66 51
29 19 20
56 37 31
28 19 20
79 59 42
33 22 23
75 58 51
29 19 21
38 38 27
92 80 47
233 233 155
37 37 25
39 39 27
50 54 33
66 73 44
52 57 33
93 81 50
110 79 76
39 39 27
39 39 28
54 57 35
37 37 26
39 39 27
39 39 27
40 40 28
39 39 27
72 64 40
78 87 49
39 39 27
76 69 47
77 68 45
56 66 45
97 70 52
94 79 47
39 39 28
47 52 36
86 90 52
38 38 27
86 85 61
39 39 27
64 73 62
147 199 183
54 58 36
83 87 52
45 45 31
36 36 25
56 53 40
41 42 41
93 74 52
38 38 27
38 38 27
58 67 46
41 41 29
60 70 40
35 35 25
35 35 25
31 31 23
37 37 26
107 91 54
62 91 51
39 39 27
36 36 25
50 53 33
255 255 174
48 45 46
65 60 37
54 64 37
62 77 44
100 114 50
51 45 31
57 57 35
31 31 22
67 83 40
35 35 25
32 32 23
34 34 24
77 91 40
55 52 28
76 79 48
110 79 48
35 35 48
37 42 25
38 38 26
52 69 49
32 32 23
175 185 92
124 93 49
31 35 21
34 34 23
178 184 119
55 44 35
57 93 48
33 33 23
55 45 31
38 32 21
220 155 103
48 66 35
26 26 19
26 26 19
47 59 59
61 76 63
21 32 34
50 76 63
21 32 34
25 37 39
26 39 42
43 57 50
18 28 30
38 71 56
23 34 37
34 51 51
26 41 39
47 95 95
26 39 42
28 48 48
31 44 47
30 45 47
37 56 50
47 74 59
36 44 43
86 123 88
27 40 42
36 71 58
23 35 38
79 113 88
52 64 69
26 39 41
24 36 38
35 48 46
29 49 49
54 92 60
26 40 42
24 36 38
26 39 72
31 46 42
63 71 68
23 35 37
21 31 34
24 36 38
26 43 43
21 32 33
30 42 42
31 55 48
29 52 43
69 104 81
33 52 44
34 42 42
34 52 44
22 33 35
18 27 30
161 127 170
66 62 81
24 32 33
18 28 30
16 25 30
26 46 41
45 83 56
28 18 20
58 37 29
49 25 33
32 21 21
47 29 27
32 21 23
120 66 67
52 42 43
34 23 24
83 49 40
30 20 21
36 24 26
37 25 26
77 61 40
37 25 26
58 39 33
79 53 43
255 175 175
106 60 74
39 26 27
86 57 48
43 29 30
38 25 25
41 27 32
42 28 29
77 51 44
81 43 47
42 28 29
38 25 27
39 26 28
40 26 28
48 36 33
70 40 47
58 46 48
104 69 55
71 44 37
34 23 24
34 22 24
38 25 27
63 35 43
33 22 29
38 25 26
100 67 51
35 23 25
36 24 25
60 38 32
52 41 35
34 23 24
28 18 20
30 20 22
81 57 43
25 38 26
35 50 27
19 29 21
16 24 18
19 28 20
32 45 25
28 42 25
19 29 21
24 37 23
78 72 42
30 45 28
52 78 42
57 69 51
20 30 22
56 92 42
52 113 42
42 50 43
18 27 19
17 26 19
17 26 18
30 53 36
23 34 21
92 183 122
24 36 22
22 33 23
96 202 134
66 81 60
21 32 23
41 69 38
45 54 37
33 46 31
34 51 29
21 32 23
35 61 40
61 92 47
47 67 35
99 128 56
49 52 37
43 76 58
20 30 21
43 53 43
19 29 20
48 66 37
19 29 21
28 50 33
53 54 36
18 27 19
41 61 116
22 34 24
19 29 21
45 67 36
39 58 34
21 32 23
27 45 30
38 55 30
35 63 30
171 255 171
18 28 20
30 54 37
18 27 20
21 31 22
51 80 38
21 32 23
23 35 25
55 62 50
19 29 21
19 28 20
130 103 68
19 29 21
117 252 168
42 56 31
52 133 54
17 26 19
16 25 18
21 31 22
32 40 33
15 23 17
75 65 33
30 52 36
19 28 20
18 27 19
15 23 17
169 253 169
51 85 54
17 26 19
33 48 34
16 24 17
16 24 17
53 61 54
47 51 37
27 34 24
20 28 19
39 77 45
15 23 17
16 24 17
19 32 23
15 23 17
14 22 16
24 46 32
31 56 47
14 22 16
14 22 16
38 44 27
13 20 15
20 27 19
50 51 46
29 57 36
32 42 26
15 22 16
14 21 16
31 25 22
51 44 33
75 57 52
21 14 15
35 21 22
58 39 118
20 13 15
56 30 39
45 44 35
33 26 23
39 32 27
21 14 15
60 41 34
82 54 101
131 72 65
40 25 21
24 16 17
85 57 44
24 16 17
30 20 21
33 25 22
254 169 169
22 15 16
45 30 26
58 31 40
61 51 34
26 17 19
26 17 19
27 18 21
27 18 19
28 19 20
72 55 35
26 17 19
54 39 33
44 36 37
23 15 15
64 36 50
62 32 35
253 169 169
27 18 19
28 18 20
105 61 70
99 48 40
29 19 20
27 18 20
76 72 40
36 24 22
255 171 120
64 60 47
33 22 23
45 31 53
29 19 21
37 24 26
255 171 171
255 170 170
255 70 128
30 20 21
46 26 32
32 24 25
166 51 79
100 67 51
146 59 70
75 41 45
28 18 20
30 20 22
32 21 23
33 22 23
241 112 160
66 35 31
29 19 20
106 44 56
29 19 21
37 24 39
51 34 28
67 35 46
29 19 21
78 42 60
53 48 44
35 26 23
29 19 21
28 19 20
29 19 21
83 58 43
27 18 19
56 41 47
71 59 49
84 60 46
144 100 73
47 31 27
30 20 21
85 68 48
58 69 44
76 68 44
66 52 35
61 68 41
68 86 53
40 40 28
77 55 39
60 55 36
75 66 54
49 49 33
73 104 64
45 45 31
39 39 27
74 61 50
62 54 43
45 48 30
37 37 26
63 53 36
36 36 25
46 46 32
94 106 60
71 71 40
87 64 47
255 255 178
38 38 27
36 36 26
105 100 66
79 85 53
37 37 26
39 39 28
37 37 26
46 50 34
159 228 106
72 82 48
63 56 37
43 47 29
53 47 32
71 102 51
37 37 26
38 38 30
52 49 34
54 47 31
40 40 28
147 255 129
35 35 25
65 60 40
39 39 27
37 37 26
76 65 36
67 82 148
56 50 33
47 47 32
96 82 44
35 35 24
43 43 30
84 110 62
51 61 34
88 75 38
34 34 24
36 36 26
148 151 97
61 71 47
89 64 45
74 55 44
103 194 59
66 78 52
56 47 33
51 62 35
33 33 23
86 86 45
83 98 47
46 54 28
67 56 34
34 34 24
73 73 42
43 54 29
76 80 41
181 255 72
48 46 27
72 92 58
28 28 20
50 56 29
28 28 20
46 38 35
23 23 17
44 54 30
41 52 28
25 25 18
77 53 37
25 25 18
62 77 112
20 31 33
35 59 43
40 49 60
21 31 33
38 67 67
68 73 87
21 31 34
59 76 94
177 255 255
25 38 38
29 44 44
67 101 79
33 43 50
23 35 37
145 218 218
56 84 78
46 62 62
69 116 73
27 41 44
59 88 79
29 43 45
24 36 38
27 45 42
31 58 58
37 56 50
27 40 43
49 75 84
34 44 51
36 55 47
25 37 40
49 65 57
24 36 38
65 84 106
32 45 48
23 34 36
170 252 182
28 46 43
22 34 36
69 104 80
21 32 34
23 35 37
59 78 106
134 196 255
28 42 44
20 30 32
34 51 41
82 70 93
28 43 45
19 28 30
20 31 33
51 59 56
19 29 31
35 46 53
52 54 63
60 77 64
46 57 63
51 25 30
58 50 44
105 64 48
119 64 49
23 15 17
29 19 21
65 51 50
30 20 21
29 19 29
30 20 21
37 24 26
93 48 36
39 26 27
68 74 51
75 40 51
65 50 49
33 22 23
39 26 27
68 38 45
42 28 33
86 54 39
61 54 44
92 61 50
39 26 28
102 57 53
52 30 33
100 63 48
55 33 36
48 35 37
49 32 32
54 41 42
36 24 25
128 78 58
41 27 29
91 63 50
37 25 26
115 79 56
39 26 28
78 57 45
36 24 26
50 34 61
107 60 53
31 21 22
34 23 24
88 79 51
67 56 40
30 20 21
47 37 32
54 45 45
60 32 41
91 52 71
64 48 38
61 75 40
65 107 49
18 27 19
47 66 40
45 86 38
18 27 20
44 52 45
25 37 26
56 61 59
50 59 55
22 34 23
42 63 35
33 52 26
18 28 20
82 137 67
32 42 32
42 48 34
37 51 35
33 56 34
90 84 74
19 28 20
45 71 38
55 116 60
172 255 172
106 124 66
41 62 36
142 213 142
22 34 24
62 94 61
30 39 27
45 77 41
64 72 55
45 45 31
28 38 29
29 48 32
19 28 20
23 34 24
54 63 46
23 34 24
18 27 20
49 59 51
22 35 36
46 63 34
21 31 22
72 75 46
31 55 38
41 52 43
34 44 30
20 30 21
22 33 23
20 30 22
27 40 25
44 53 45
17 26 19
19 29 20
17 26 19
19 28 20
45 68 37
42 100 41
43 52 44
49 114 59
32 41 33
37 85 49
23 35 25
18 27 20
21 31 22
67 82 44
25 43 25
20 30 21
75 123 66
17 26 19
20 30 21
17 26 19
38 48 30
18 27 19
31 56 32
39 57 30
43 57 35
17 26 18
51 76 42
32 40 27
17 26 18
73 77 52
62 116 54
31 59 41
42 49 40
16 25 18
17 25 18
73 98 47
80 128 51
48 79 35
51 52 32
58 85 43
37 55 30
15 23 16
62 73 38
25 45 31
62 93 46
23 34 20
26 39 22
15 22 16
15 23 17
158 238 110
28 52 36
19 28 20
50 80 35
14 21 19
15 22 16
28 34 29
50 48 30
22 14 16
22 15 16
40 29 24
57 45 32
21 14 15
48 32 26
61 38 29
22 14 16
22 15 16
42 36 28
53 35 30
57 31 39
38 30 29
95 48 40
38 31 32
44 29 24
46 30 26
22 15 16
252 168 168
58 38 32
25 17 18
52 44 35
24 16 17
45 30 26
42 36 30
33 22 20
61 40 33
56 32 37
243 113 117
24 16 17
27 18 19
26 17 19
40 27 24
28 19 20
63 34 31
26 17 19
82 49 38
69 33 36
57 57 40
44 29 26
28 18 20
31 21 22
81 54 43
42 33 29
44 26 26
82 63 55
29 19 20
58 35 32
27 18 19
42 28 25
30 20 21
30 20 22
44 32 27
29 19 21
27 18 19
59 27 32
41 33 28
61 33 41
51 28 35
28 19 20
51 37 31
28 18 20
68 42 29
39 22 23
41 31 31
28 19 20
61 42 34
47 39 32
211 113 140
71 42 35
80 38 46
29 19 21
101 51 50
58 49 47
61 40 34
82 52 49
68 65 40
54 29 35
64 37 49
38 22 44
27 18 20
89 42 54
46 37 31
72 37 49
28 19 20
164 89 80
28 18 20
67 50 40
60 32 37
27 18 19
60 52 41
65 56 45
43 43 30
79 69 53
43 50 35
37 37 26
37 37 26
70 75 44
45 50 34
38 38 27
39 39 27
54 64 36
38 39 31
49 57 39
36 36 26
73 61 37
70 77 55
98 86 71
39 39 28
56 66 38
46 46 32
55 72 36
44 44 30
78 82 47
64 55 39
61 58 36
109 73 52
61 54 37
52 62 35
40 40 28
47 47 32
79 63 43
36 36 26
87 74 58
107 113 51
49 56 39
38 38 27
40 40 28
63 54 37
37 37 26
113 109 60
64 56 37
104 126 46
35 35 25
75 87 43
36 36 25
34 34 24
41 41 38
188 255 125
65 74 38
36 36 25
35 35 25
33 33 23
36 36 25
59 50 34
69 58 39
59 68 38
50 59 31
50 56 32
42 42 29
50 64 42
50 61 33
50 46 30
58 72 48
39 52 50
62 55 32
53 48 36
36 36 25
34 34 24
34 34 24
46 51 30
37 37 26
49 59 33
36 40 25
50 60 34
46 41 32
93 124 53
38 38 23
26 26 19
34 37 23
48 53 28
27 27 19
58 47 32
31 31 21
45 55 30
29 29 20
251 251 167
24 24 18
24 24 17
26 26 18
21 21 15
27 18 30
34 44 54
115 147 97
67 108 88
20 30 32
37 45 48
32 45 40
42 59 70
49 70 57
86 98 98
76 104 93
33 58 47
27 41 43
31 56 48
55 120 61
23 34 37
24 36 39
21 32 35
26 39 41
25 38 40
26 40 42
31 41 41
29 49 44
34 52 47
22 33 36
26 39 41
63 95 76
50 76 63
27 41 42
23 34 37
19 29 31
44 75 57
33 44 52
31 53 45
22 34 36
111 101 102
70 76 93
36 48 49
21 32 34
41 51 52
25 38 40
37 56 61
29 41 43
38 66 68
39 55 47
21 31 33
46 55 69
36 45 45
58 74 98
44 70 53
19 29 32
63 89 85
39 53 64
16 24 26
59 72 87
19 29 31
68 88 76
23 15 16
88 51 38
21 14 15
46 27 32
58 39 32
27 18 19
28 19 20
66 35 45
83 43 56
30 20 22
48 39 51
44 34 36
65 37 48
32 21 23
37 24 26
40 27 28
62 50 53
37 24 26
80 67 49
37 25 26
83 67 57
36 24 25
34 23 24
80 62 42
39 26 27
36 24 25
41 27 29
68 38 46
53 41 41
74 45 49
112 78 58
81 49 54
90 60 49
37 25 26
48 37 33
52 36 32
83 57 75
78 46 50
37 24 26
58 50 39
67 48 36
108 60 45
75 41 37
109 68 47
34 22 24
42 26 53
35 23 25
33 22 23
38 22 26
56 52 41
28 19 20
29 19 21
42 70 39
29 55 38
49 71 39
42 49 43
169 254 169
53 86 51
19 29 21
32 42 29
63 83 39
58 88 46
16 24 18
19 28 20
24 36 25
67 103 48
21 31 22
36 47 32
43 71 34
17 26 19
28 46 29
181 203 127
21 32 22
69 127 61
26 42 38
21 31 22
44 75 50
19 28 20
69 81 58
37 56 32
37 55 32
136 146 97
21 32 23
55 84 45
27 41 32
20 30 21
19 29 21
90 93 52
46 55 47
33 43 29
49 73 41
110 121 79
26 40 24
20 30 22
35 66 33
80 90 50
32 61 48
25 40 25
137 148 99
66 75 42
22 34 24
46 50 47
17 25 18
37 68 41
26 37 25
21 32 22
27 36 24
41 61 34
18 27 20
18 28 20
49 77 38
19 29 21
19 29 21
169 254 169
78 82 51
23 35 21
108 134 73
32 60 41
40 50 40
17 26 18
25 35 24
24 32 22
29 52 36
44 74 55
17 25 18
27 37 24
17 25 18
53 80 37
23 35 21
17 25 18
49 57 36
32 43 27
30 50 26
52 65 39
81 74 54
45 54 33
30 51 29
25 42 26
56 61 43
30 57 39
44 60 33
15 23 16
70 100 37
28 35 24
15 23 17
29 56 34
15 22 16
25 32 27
28 35 24
14 21 16
129 137 91
16 24 17
45 56 34
22 34 20
15 23 17
50 47 27
26 50 31
23 29 24
58 87 44
14 21 15
27 58 32
67 51 33
26 17 19
27 18 19
59 47 41
23 15 17
80 43 48
41 20 22
42 34 36
27 18 18
51 26 24
53 55 37
80 58 40
248 115 115
28 21 21
60 40 35
92 45 46
24 16 17
20 13 15
33 23 21
72 48 37
24 16 17
31 20 22
37 21 26
27 18 20
130 97 57
92 74 58
85 56 44
29 19 20
78 37 52
46 25 45
47 25 23
28 19 20
27 18 19
27 18 20
42 34 29
47 31 26
56 46 42
107 45 68
25 16 18
66 31 30
25 17 18
41 24 24
66 40 47
28 19 20
26 17 19
95 59 44
71 56 34
27 18 20
38 25 26
34 24 40
26 17 19
27 18 19
44 35 29
48 39 41
58 37 30
59 27 32
43 28 25
47 31 43
56 31 35
56 43 43
27 18 19
82 39 50
29 19 21
42 38 33
28 19 20
42 33 29
35 22 22
34 25 23
27 18 19
28 19 20
26 17 19
29 19 21
71 37 48
68 41 38
28 19 20
28 18 20
45 36 38
27 18 20
28 18 20
80 57 42
28 18 20
93 44 50
28 18 20
88 79 87
95 50 44
28 19 20
85 62 43
57 31 39
30 20 21
35 26 24
72 53 76
76 65 58
38 38 27
71 87 44
153 109 59
37 37 26
44 44 30
50 60 33
70 63 42
109 62 52
38 38 27
74 100 46
41 41 28
40 40 28
36 36 26
53 59 40
39 39 27
43 46 42
38 38 27
59 63 50
101 68 45
38 38 27
38 38 26
39 39 27
53 53 33
38 38 27
33 33 25
57 50 34
104 69 62
62 54 37
57 48 32
40 38 26
77 84 52
78 84 63
36 36 25
66 81 44
116 72 64
61 81 44
105 73 61
41 44 27
37 37 26
36 36 25
186 141 90
34 34 24
73 64 40
49 58 35
77 59 39
40 40 28
35 35 25
40 40 28
32 32 22
54 51 34
39 39 27
80 122 50
36 36 25
77 76 48
77 85 50
36 36 25
99 148 56
46 49 32
51 53 53
255 255 175
33 33 23
32 32 22
81 91 54
47 56 32
41 49 56
34 34 24
65 51 34
61 84 51
37 37 28
49 55 31
49 45 30
30 30 21
77 74 33
42 42 29
130 251 117
25 25 18
72 51 38
26 26 18
67 78 58
26 26 19
98 62 44
60 47 32
23 23 16
45 56 31
64 89 43
26 26 19
28 28 20
24 24 17
39 48 27
24 24 17
29 36 47
22 34 36
36 46 57
34 44 54
19 29 31
116 247 174
33 55 47
50 69 56
27 41 43
28 42 44
177 255 255
22 33 36
85 80 95
25 37 39
49 74 59
62 69 86
29 44 45
44 77 82
35 46 50
33 60 60
21 32 34
23 34 36
64 83 96
31 46 46
26 39 41
24 37 39
46 61 59
26 40 42
22 34 36
32 59 59
84 72 80
96 132 101
57 85 69
75 93 67
24 37 39
34 60 50
38 49 50
22 33 36
22 33 36
45 60 55
32 56 56
35 53 46
20 31 33
22 33 35
23 34 36
20 30 33
52 76 54
20 30 32
19 29 32
16 25 27
18 28 30
38 63 63
62 93 72
30 51 42
57 65 55
17 26 28
16 24 26
18 27 29
72 52 40
29 20 19
27 18 19
48 40 42
28 18 20
27 18 19
48 39 41
28 19 20
29 19 21
31 20 22
50 40 42
34 23 24
89 48 57
33 22 23
36 24 25
44 33 33
36 24 26
37 24 26
47 36 32
40 26 28
37 24 26
52 38 36
54 42 44
57 44 38
39 26 27
106 64 51
40 26 28
38 25 26
36 24 25
74 60 41
45 30 31
45 34 34
89 52 52
36 24 25
41 29 31
36 24 25
105 75 64
37 24 26
32 21 23
38 25 27
41 30 32
49 39 33
60 43 32
34 22 22
58 30 35
34 22 24
31 20 22
29 19 20
52 39 42
40 26 27
123 76 56
18 28 24
38 44 29
60 69 55
55 110 54
45 72 34
38 43 33
41 71 39
51 77 40
62 64 57
58 78 40
15 23 17
33 42 26
16 24 17
29 43 23
77 81 62
20 30 22
39 61 32
46 69 36
41 52 35
27 40 24
67 90 46
32 40 33
32 42 29
170 255 170
46 79 37
48 94 36
71 115 54
40 67 36
28 42 26
20 30 21
16 25 18
28 43 27
171 255 171
18 27 19
20 30 21
40 60 34
19 29 20
62 74 50
19 29 21
17 25 19
21 32 23
46 56 48
21 32 23
20 30 21
19 29 21
46 55 37
20 31 23
39 48 37
19 28 20
19 29 21
23 38 23
20 31 22
29 51 34
24 36 25
41 62 35
33 49 29
19 29 21
170 255 170
20 30 21
20 31 21
22 34 24
20 30 21
74 80 61
29 44 26
31 53 29
26 39 24
57 76 43
34 59 40
18 28 20
18 27 19
162 170 113
16 24 17
19 29 21
27 35 24
39 58 32
168 253 168
17 25 18
44 57 34
54 58 35
28 52 28
16 25 18
18 28 20
41 71 31
63 89 44
16 25 18
49 47 69
35 42 28
63 79 48
22 38 25
17 26 19
16 24 18
14 22 16
38 63 45
42 62 33
15 23 17
39 54 32
31 66 40
54 61 98
36 43 30
29 36 25
159 160 115
165 248 165
27 51 35
33 44 30
53 81 40
51 88 47
31 47 26
43 72 36
25 32 22
49 33 27
108 90 62
56 62 33
77 32 48
81 54 41
52 25 28
27 20 30
21 14 15
80 46 40
48 40 27
73 40 46
57 36 28
66 50 37
29 19 21
24 16 17
71 33 43
34 27 24
35 28 24
25 16 18
52 28 36
25 16 18
25 16 18
23 15 17
83 53 49
24 16 18
26 17 18
76 44 59
57 38 31
38 24 23
120 111 80
53 29 36
37 21 26
140 92 92
37 28 25
110 66 48
27 18 19
105 51 37
52 40 27
61 43 38
93 49 34
51 28 35
88 49 52
61 32 42
27 18 20
96 60 59
26 17 19
76 46 36
68 53 48
53 37 29
35 23 24
27 18 19
27 18 19
28 19 20
29 19 21
39 24 27
51 36 31
28 18 20
64 61 41
27 18 19
82 58 46
33 21 30
45 36 32
47 39 32
49 40 39
66 37 32
55 31 37
117 109 60
30 20 21
42 28 25
28 19 20
25 17 18
55 30 38
99 44 59
70 36 42
34 22 23
28 18 20
253 118 168
65 31 39
108 73 51
53 50 32
42 33 34
52 34 29
28 18 20
47 34 30
66 44 36
106 63 47
28 18 20
75 40 50
71 82 57
61 40 31
31 20 22
54 65 45
83 104 58
70 81 57
66 66 40
44 48 33
44 49 30
67 56 46
37 37 26
62 70 43
92 83 43
36 36 25
255 255 175
38 38 26
37 37 26
39 38 48
124 127 82
67 74 58
45 45 31
45 45 31
37 37 26
68 56 37
74 74 49
38 38 27
81 91 39
108 89 56
73 93 56
51 54 31
44 50 34
77 68 40
255 255 177
100 105 48
35 35 24
108 79 44
52 45 31
35 35 23
64 56 35
73 69 76
46 51 35
36 36 25
43 47 29
38 38 26
37 37 26
37 37 26
37 37 26
255 255 175
68 86 52
72 84 42
32 32 23
38 38 26
41 41 29
36 36 25
36 36 25
90 126 62
61 54 39
63 54 37
109 138 59
32 32 23
72 59 40
83 109 47
149 208 133
255 184 122
77 59 42
37 37 26
46 54 32
55 47 32
31 31 22
72 70 43
30 30 21
95 94 55
33 37 22
61 50 34
148 115 59
54 86 41
58 48 32
180 165 123
30 30 21
28 28 20
51 58 30
96 77 55
24 24 17
41 48 28
43 65 30
39 49 27
60 48 33
49 56 33
64 61 35
47 59 32
27 27 19
167 173 160
53 63 39
59 46 27
18 27 29
64 96 74
22 33 35
53 101 68
99 93 73
161 176 128
30 55 51
77 94 120
36 46 56
48 90 77
43 64 56
33 58 51
59 78 64
197 215 159
45 73 60
23 34 37
24 36 38
23 34 37
23 35 38
24 36 38
45 57 70
38 47 48
36 63 55
35 62 73
25 38 40
21 32 34
101 213 152
23 35 37
23 35 37
20 30 32
24 37 39
54 81 64
42 54 55
23 35 37
23 34 36
33 45 45
51 62 79
20 30 33
40 65 53
44 58 58
37 46 57
40 50 51
31 40 46
21 31 34
21 32 34
18 27 30
41 52 52
42 51 63
42 73 59
19 28 31
32 48 41
26 46 41
53 80 62
38 51 51
19 29 30
37 70 149
123 139 190
16 24 27
83 50 39
71 48 44
56 42 46
50 33 27
27 18 19
71 47 38
30 20 21
46 35 36
49 45 41
33 22 23
64 32 38
35 23 24
43 34 57
34 23 24
36 24 25
56 43 35
42 28 29
77 41 50
35 23 24
108 59 57
74 49 41
41 27 28
39 26 28
56 33 39
53 32 37
67 44 38
37 24 26
46 34 34
36 24 26
38 25 26
50 33 31
74 38 44
37 24 26
45 35 30
37 25 26
107 71 56
33 22 23
54 41 41
63 42 35
38 25 26
34 23 24
34 23 24
36 24 25
34 22 24
182 175 93
30 20 21
36 24 23
33 22 43
29 19 21
27 18 20
59 46 37
19 28 20
18 28 20
16 24 17
174 255 122
20 31 21
46 69 36
40 68 45
29 54 37
24 44 31
20 30 21
41 56 31
23 35 24
23 34 23
27 41 24
26 47 33
19 28 20
40 49 33
18 28 20
22 33 23
32 44 29
146 119 111
34 51 29
19 29 21
21 32 23
39 48 50
20 30 22
39 43 32
95 133 53
24 31 22
45 58 45
66 79 48
51 62 34
20 30 22
28 53 28
26 38 44
26 47 27
35 53 31
41 56 34
42 54 34
41 56 33
23 35 22
171 180 120
19 29 21
48 69 62
23 32 21
205 119 145
17 25 18
38 50 38
92 94 51
55 65 40
20 31 28
20 30 21
173 182 173
18 27 20
44 59 35
17 26 19
24 41 28
18 27 19
43 58 33
170 255 170
23 40 28
43 52 40
35 40 26
41 47 33
62 88 47
29 38 30
59 88 45
55 68 55
168 252 168
54 84 58
17 26 19
195 255 136
16 25 18
34 42 29
18 27 19
18 27 20
41 52 31
53 57 49
33 41 28
17 26 19
41 56 34
17 25 18
50 59 46
16 24 17
40 60 39
30 46 26
35 57 26
15 23 17
35 52 34
54 69 37
70 101 50
65 93 46
15 23 17
42 79 53
15 22 16
52 90 44
20 31 19
62 82 58
27 33 23
15 23 17
29 41 25
14 21 15
14 21 15
101 217 145
26 32 22
15 22 16
22 40 28
39 65 30
166 249 166
42 35 25
62 60 37
31 25 26
54 28 37
64 42 33
43 23 30
18 12 12
47 23 29
53 39 31
38 32 33
23 15 17
170 163 113
106 103 48
21 14 15
52 34 25
35 28 24
23 15 16
60 47 29
31 24 25
24 16 18
33 22 23
44 26 31
31 20 20
32 21 22
60 40 29
27 18 19
28 19 20
24 16 16
117 81 46
34 23 24
99 55 55
60 29 37
32 25 22
63 42 34
27 18 19
26 17 19
26 17 19
51 33 31
59 32 40
82 59 43
27 18 19
52 43 32
63 41 36
24 16 18
54 28 28
56 44 39
38 30 26
54 47 54
44 25 31
36 24 26
70 37 32
27 18 19
87 54 60
77 38 35
28 18 20
27 18 19
55 33 28
90 60 46
45 30 40
30 20 21
64 38 30
38 29 31
28 19 28
28 19 20
25 17 18
45 38 38
61 52 42
29 19 21
28 19 20
27 18 19
46 26 32
254 118 169
105 51 37
28 19 20
111 72 59
27 18 19
247 134 77
86 57 44
29 19 20
63 34 29
27 18 20
40 32 28
27 18 23
28 18 25
46 37 38
37 22 22
65 34 45
27 18 19
27 18 20
27 18 20
27 18 20
62 67 41
66 86 42
136 98 58
74 69 52
50 45 31
36 36 25
78 100 59
62 53 36
33 33 25
37 37 26
58 68 38
40 40 28
69 66 40
53 47 31
36 36 25
54 50 33
80 75 58
73 94 44
37 37 26
38 38 26
103 73 57
35 35 25
52 55 35
36 36 26
96 87 51
46 43 63
35 35 25
51 51 31
36 36 25
35 35 24
255 255 176
35 35 25
39 41 35
35 35 25
35 35 25
80 64 40
45 49 32
175 246 120
50 59 34
56 72 40
36 36 25
90 94 43
35 35 25
42 46 32
33 33 23
75 86 70
68 60 46
60 50 34
70 75 43
80 106 42
37 37 26
141 117 73
98 79 59
70 57 39
48 55 33
72 62 34
45 49 33
71 64 40
32 32 23
31 31 22
41 44 28
44 56 45
30 30 22
63 61 38
255 255 176
92 73 54
125 90 48
51 54 30
76 118 52
29 29 20
42 49 28
28 28 20
32 32 23
25 25 18
50 41 28
28 28 20
42 51 28
29 30 27
27 27 19
77 61 39
26 26 19
26 26 25
79 109 44
32 37 22
24 24 17
66 52 30
77 64 43
56 44 30
25 25 18
51 42 28
25 25 18
47 64 87
19 29 31
45 54 67
41 50 47
20 30 42
27 44 38
21 32 34
163 173 245
56 82 65
22 33 35
50 112 69
48 75 60
30 45 41
53 102 68
25 38 40
26 40 42
64 76 76
28 45 43
50 66 84
25 34 34
35 60 60
27 40 42
24 36 38
21 31 33
31 47 43
34 51 48
43 76 64
22 34 36
98 109 126
50 61 77
91 91 91
50 55 61
27 40 42
24 36 39
20 30 32
24 36 38
22 33 35
53 64 56
41 51 51
22 33 36
37 45 48
19 29 31
170 255 255
43 47 51
32 39 41
20 30 32
17 26 26
64 82 66
75 62 69
19 29 31
17 26 29
25 43 38
42 50 47
162 169 169
32 48 41
21 32 32
30 46 40
89 110 76
33 26 28
26 17 19
51 40 40
60 28 31
45 36 43
29 19 21
50 30 33
44 35 35
31 22 22
27 18 20
57 33 38
32 21 23
35 23 25
36 24 26
33 22 23
36 24 25
38 25 26
53 42 42
36 24 25
91 62 67
70 36 43
69 50 41
37 25 26
55 43 44
36 24 25
104 92 76
255 123 173
91 46 57
43 27 27
37 25 26
36 24 26
35 23 25
48 36 32
90 63 49
38 25 27
34 23 24
51 34 31
59 36 33
33 22 24
38 25 26
35 23 25
29 19 19
68 37 47
81 105 46
56 46 46
29 19 21
36 24 24
29 19 21
26 17 19
28 18 20
62 38 32
17 26 19
17 26 18
17 26 19
19 29 21
33 43 29
59 88 45
43 57 49
27 50 36
36 55 31
20 30 21
49 73 37
36 41 27
17 26 19
21 31 22
18 28 20
160 241 112
31 43 31
18 27 19
18 28 20
17 26 19
20 30 21
18 27 19
18 27 20
59 110 48
40 48 41
80 84 61
31 48 33
42 51 43
18 27 19
17 26 19
18 27 19
18 28 20
41 63 37
38 55 31
44 57 30
38 46 31
26 39 27
20 31 22
26 40 23
22 33 23
34 51 29
64 86 48
86 133 88
18 28 20
69 56 52
22 34 23
45 67 36
57 69 40
19 28 20
38 54 29
48 68 36
37 74 42
170 255 170
17 26 19
53 68 40
18 27 19
44 50 35
21 36 25
51 77 44
35 41 30
32 48 28
25 37 26
167 251 167
17 26 18
16 25 18
33 50 45
168 252 168
32 54 39
39 47 28
24 35 35
57 104 47
32 40 28
38 47 32
17 25 18
40 49 31
17 26 19
20 30 21
34 60 41
42 55 41
27 47 27
23 30 21
17 25 18
48 61 52
44 105 49
16 25 18
17 25 18
40 60 29
77 97 50
16 24 17
21 38 22
40 41 30
41 45 32
15 23 17
33 50 27
185 206 96
32 35 28
54 68 54
43 64 35
24 33 21
42 49 33
14 21 16
50 73 66
17 26 21
33 44 30
34 51 28
51 88 55
20 36 25
39 79 44
14 21 15
46 33 26
20 13 14
20 13 14
59 52 35
37 21 21
30 20 17
22 14 16
84 56 43
40 29 24
241 156 68
55 41 32
37 22 22
69 35 53
139 82 74
41 34 28
68 52 61
22 15 16
114 67 43
21 14 19
26 17 18
23 15 17
65 34 29
77 43 44
75 50 39
149 85 58
24 16 17
62 46 42
94 42 36
26 17 19
64 38 33
24 16 18
26 17 19
54 34 41
24 16 17
56 35 39
52 34 30
110 79 50
43 32 27
45 36 38
39 25 25
28 19 20
36 24 24
27 18 20
28 19 20
25 17 18
30 20 32
28 18 20
252 168 168
93 65 41
90 60 47
39 26 24
36 24 25
111 46 48
26 17 18
78 35 45
49 38 30
39 26 23
65 36 43
27 18 19
45 25 31
40 23 24
36 24 25
253 169 169
28 18 21
29 19 21
28 19 20
47 38 32
41 33 30
42 38 35
254 169 169
81 31 44
27 18 20
37 28 25
85 36 41
65 39 51
47 26 33
74 49 41
37 26 26
45 30 26
59 39 31
64 36 43
27 18 19
54 39 33
56 41 33
63 42 33
51 34 29
41 24 24
43 26 29
27 18 20
101 37 51
91 38 54
92 92 52
67 92 48
33 33 23
44 54 36
47 56 38
69 76 41
37 37 26
66 71 56
39 39 27
61 62 50
35 35 25
37 37 26
37 37 26
79 61 49
80 65 49
81 67 40
157 121 59
76 71 46
57 69 39
37 37 26
64 58 34
40 38 39
74 82 44
44 47 29
91 66 37
56 66 38
39 39 27
181 255 170
35 35 27
86 62 51
130 113 53
84 65 40
35 35 24
70 57 35
34 34 24
255 255 176
50 45 30
36 36 25
84 108 65
35 35 25
96 82 43
78 69 46
33 33 24
46 49 34
45 52 31
34 34 24
255 255 176
36 36 26
33 33 24
61 61 37
181 255 90
35 35 25
32 32 23
35 35 24
63 127 72
52 46 35
51 60 60
35 35 33
59 66 45
56 74 35
84 66 56
48 56 39
30 30 21
73 86 47
36 36 25
42 48 28
67 61 38
36 36 25
27 27 20
59 64 40
98 79 43
54 49 29
57 101 41
53 42 25
45 42 28
77 73 38
45 55 31
71 79 42
30 30 21
24 24 18
40 45 25
26 26 19
27 27 19
60 47 40
29 29 20
53 71 37
25 25 18
76 79 41
55 44 30
22 22 16
66 34 44
61 104 77
54 69 107
57 80 59
51 61 66
46 56 50
33 50 45
169 254 254
59 64 81
33 42 52
40 58 50
72 76 85
38 68 62
67 84 64
30 46 42
20 31 33
56 87 60
28 43 45
27 41 44
40 46 50
30 40 40
71 92 98
62 64 77
31 40 47
41 52 53
109 90 115
23 35 37
22 33 35
23 34 37
22 34 36
21 32 34
29 47 39
22 33 35
35 53 50
23 35 37
37 56 47
21 31 33
28 51 43
29 50 45
42 60 72
22 33 35
17 26 29
45 56 70
59 84 69
36 52 65
64 102 86
17 26 29
20 30 33
20 30 32
50 73 65
49 71 72
29 37 39
28 52 52
77 69 76
56 51 58
28 42 42
36 43 41
39 64 48
47 37 29
61 31 42
64 52 38
65 38 33
66 53 63
26 17 19
66 52 52
55 44 44
152 68 80
40 29 29
105 63 59
31 20 22
100 62 46
33 22 23
34 22 24
62 43 36
29 19 21
33 22 24
43 28 29
104 53 47
110 62 67
37 24 26
74 55 42
56 32 39
65 43 37
43 30 50
227 151 151
95 49 61
36 24 26
38 25 26
34 22 24
56 37 32
35 23 24
86 74 49
36 24 26
72 68 50
35 23 25
85 45 74
33 22 23
32 21 22
51 41 35
31 21 22
31 21 22
84 55 38
38 25 25
56 44 34
255 171 171
30 20 20
31 20 22
31 20 22
84 53 38
28 19 20
22 39 27
169 254 169
25 38 27
22 33 21
35 56 44
23 32 22
50 62 48
24 39 24
59 59 45
54 55 50
17 26 18
20 31 22
17 26 19
49 53 40
25 38 23
53 72 38
72 78 55
32 48 26
20 30 21
18 27 20
32 42 28
24 34 23
21 31 22
52 91 39
69 61 62
58 92 46
128 196 73
33 50 36
103 62 45
28 37 26
21 32 23
85 83 67
32 48 28
20 30 30
19 29 21
31 53 32
20 30 21
33 53 30
17 26 18
24 33 26
146 155 103
52 83 43
64 96 50
57 76 40
33 41 28
22 33 23
18 28 20
24 36 22
172 255 172
16 24 17
36 69 40
25 31 63
43 64 38
43 84 49
133 255 94
18 27 19
17 26 19
140 210 140
30 65 44
43 58 35
37 49 30
21 38 36
147 155 103
44 53 53
43 56 39
25 43 22
56 79 40
18 27 19
18 27 19
17 25 18
49 74 38
20 31 34
38 52 36
26 35 27
42 49 44
32 48 27
25 46 32
25 32 22
16 25 18
17 26 19
25 33 26
14 22 16
60 56 42
16 24 17
15 23 16
28 66 40
15 23 16
34 65 40
14 21 16
44 43 25
15 22 16
16 25 18
38 47 29
46 49 41
14 21 16
29 56 31
29 57 33
14 22 16
17 26 18
14 21 15
75 121 55
13 19 14
29 49 30
13 19 14
16 24 17
59 88 44
31 38 25
29 50 34
13 20 14
44 25 25
246 164 164
239 159 110
76 32 36
24 16 16
21 14 15
25 16 18
20 13 15
43 26 56
39 33 27
35 28 24
94 79 47
37 30 31
22 15 16
28 19 20
31 24 21
37 21 22
48 34 34
32 21 19
23 15 17
104 170 92
106 55 42
44 29 24
102 64 46
24 16 17
27 18 35
46 35 35
83 33 35
25 17 22
40 30 31
102 91 48
53 45 32
101 62 44
23 15 17
250 167 116
26 17 19
25 17 18
51 42 36
48 36 34
98 57 74
27 18 19
56 37 30
25 17 18
58 42 37
94 49 35
31 23 25
71 47 33
25 17 18
51 32 27
27 18 19
255 171 171
26 17 18
52 36 27
43 25 26
48 27 33
29 19 21
89 66 43
43 35 36
77 49 30
27 18 19
35 25 23
31 20 22
26 17 19
70 47 38
47 38 31
94 55 48
26 17 19
117 57 68
31 21 22
88 57 44
37 31 33
85 37 42
60 32 41
26 17 18
77 54 44
28 19 20
255 171 171
27 18 20
28 19 20
27 18 19
69 53 36
49 34 40
27 18 19
46 37 38
26 17 19
38 22 22
49 29 35
27 18 19
90 60 43
27 18 20
25 17 18
80 111 62
45 45 30
67 75 41
43 40 27
66 97 42
41 41 29
36 36 26
67 55 37
50 45 31
82 117 48
36 36 26
68 59 38
35 35 25
95 80 53
49 56 35
255 255 176
71 58 49
75 65 51
41 39 46
82 107 50
79 72 51
114 92 60
49 53 35
119 71 56
49 49 30
46 42 59
70 93 48
38 38 27
50 46 31
113 136 67
48 43 32
55 53 37
75 85 65
58 72 35
38 38 27
89 77 44
76 58 45
35 35 25
33 33 23
33 33 23
48 51 50
52 46 36
54 60 35
36 36 25
62 52 33
62 68 42
33 33 23
52 57 35
36 36 26
52 64 36
66 83 36
59 54 36
106 73 60
51 58 39
66 83 47
102 102 54
33 33 23
43 43 36
47 59 32
54 49 37
32 32 22
38 37 38
51 56 40
39 37 24
41 38 25
52 62 35
77 84 43
49 54 39
30 30 21
67 55 37
41 49 28
39 36 24
33 37 23
33 31 20
59 83 50
90 97 45
39 61 33
214 214 142
29 29 21
27 27 20
41 46 26
30 30 22
72 125 50
32 34 21
66 89 39
47 37 24
62 45 30
30 27 32
40 49 27
25 25 18
45 34 23
80 65 113
32 40 42
40 68 55
17 25 27
25 38 39
36 47 57
35 53 49
18 28 30
19 29 31
52 59 69
112 234 166
23 34 36
40 62 50
21 32 35
34 55 43
53 68 63
61 76 92
33 44 50
21 32 34
75 128 79
36 51 46
23 35 38
21 32 34
19 29 31
24 36 39
46 56 56
44 53 68
41 61 53
51 77 76
33 44 46
36 55 48
44 67 57
31 43 43
23 34 36
35 52 44
21 32 38
51 61 70
20 30 32
68 97 65
26 40 42
32 43 51
33 45 42
32 57 57
34 45 46
25 43 45
66 79 60
21 31 34
28 52 43
17 26 28
18 27 29
38 62 51
38 45 47
29 63 42
17 25 28
22 33 34
17 26 28
33 57 40
40 60 49
21 14 15
59 47 47
100 56 55
24 16 18
89 84 66
60 28 35
28 19 20
25 17 18
81 47 60
30 20 30
52 41 43
31 21 22
98 41 58
63 34 42
35 23 24
53 39 35
32 21 23
106 55 47
32 21 22
53 42 43
49 32 30
61 46 36
34 22 24
80 53 148
52 32 32
37 24 26
36 24 25
34 22 24
35 23 25
35 23 25
35 23 25
52 44 34
34 22 29
57 42 38
33 22 23
33 22 23
33 22 24
71 47 39
48 39 33
255 172 172
167 76 68
48 39 40
90 37 43
87 47 53
41 32 27
41 32 28
27 18 19
59 31 39
84 61 41
96 62 41
60 32 40
16 25 18
20 30 21
52 74 38
19 29 21
66 108 53
24 32 21
168 253 168
18 27 20
166 174 121
17 26 19
16 24 17
62 112 62
16 24 17
54 98 39
26 35 24
29 44 26
25 45 30
29 44 28
45 58 40
17 25 18
39 45 37
49 85 42
30 56 38
28 43 25
56 85 45
24 37 23
18 27 19
20 30 21
47 62 55
53 68 34
21 32 23
68 106 43
39 47 37
20 30 20
47 89 49
19 28 20
45 68 37
18 27 19
30 39 27
18 27 18
168 253 168
25 46 31
53 67 42
18 27 20
18 27 20
19 29 20
73 103 57
44 45 33
43 49 35
17 26 19
25 33 23
41 50 34
19 28 20
18 27 19
26 48 33
21 31 22
33 41 28
87 71 70
25 37 25
19 31 32
17 26 19
33 61 42
66 67 40
42 130 50
15 22 15
16 25 18
16 24 18
38 66 29
168 252 168
17 25 18
27 36 29
46 69 36
43 54 29
35 52 31
56 57 44
21 32 22
16 25 18
30 37 26
24 36 22
14 22 16
21 37 26
27 38 23
34 41 28
27 37 34
30 40 25
35 42 25
51 82 42
16 25 18
36 42 37
25 47 28
38 47 31
14 21 15
112 163 79
14 22 16
47 63 33
34 41 28
23 42 28
27 36 30
51 51 44
27 34 29
64 125 90
13 20 15
60 75 40
164 247 164
67 74 56
29 52 27
23 34 20
62 51 40
14 21 15
14 21 15
67 63 39
17 11 13
20 13 15
21 14 15
38 32 24
71 30 33
73 35 38
22 14 16
77 57 37
22 14 16
38 25 21
46 34 25
25 16 18
23 15 17
72 37 44
70 37 54
89 59 45
58 34 30
25 17 18
26 17 19
23 15 17
24 16 17
25 16 18
254 169 169
57 38 31
26 17 17
77 35 46
25 17 18
52 39 28
37 28 27
25 16 18
25 17 18
134 44 57
252 168 168
24 16 18
23 15 17
63 42 34
41 33 26
102 52 46
28 18 20
70 43 37
60 34 43
45 43 35
26 17 18
29 19 20
26 17 19
25 17 18
60 32 41
58 34 28
26 17 19
80 45 35
37 21 26
107 56 69
26 17 19
28 19 20
35 22 36
61 56 37
71 39 34
62 30 36
26 17 19
27 18 19
26 17 19
55 31 37
48 26 33
28 18 20
26 17 19
78 52 41
30 20 32
42 28 28
36 21 25
63 42 34
58 53 46
27 18 19
100 63 61
127 50 50
131 48 52
83 37 43
56 37 31
28 19 20
38 25 23
37 24 26
70 46 48
124 42 38
26 17 19
29 19 21
28 19 20
68 51 39
56 37 40
60 32 41
59 31 40
36 36 25
75 62 39
44 41 28
57 50 39
79 62 39
36 36 25
40 43 30
36 36 25
57 70 39
68 79 37
58 83 44
36 36 25
92 64 48
38 38 29
60 70 39
37 37 26
103 79 48
44 47 30
37 37 26
56 49 36
62 52 35
35 35 25
53 64 36
67 56 38
102 83 65
117 71 56
255 255 176
63 50 35
87 93 56
75 61 39
35 35 25
51 55 31
55 63 37
72 62 41
36 36 29
223 223 149
35 35 25
61 53 35
72 56 37
255 255 175
34 34 24
32 32 23
55 66 45
35 35 25
49 58 33
44 41 28
34 34 24
65 70 42
113 68 56
34 34 24
70 55 33
35 35 25
31 31 22
65 70 43
54 45 34
34 34 24
255 255 175
32 32 23
109 85 50
30 30 22
50 61 42
56 68 44
67 67 45
50 47 31
31 31 22
55 62 35
57 70 34
120 108 62
32 32 22
33 33 23
32 32 23
30 30 30
54 62 37
32 32 22
27 27 19
39 42 51
41 41 24
38 34 23
36 40 24
24 24 17
34 34 23
40 49 25
26 26 18
56 48 30
24 24 22
66 51 32
135 86 53
33 30 20
53 78 35
52 39 32
20 20 15
41 24 58
18 27 29
63 72 64
41 59 50
16 24 26
43 58 73
39 47 48
41 51 63
21 32 35
32 53 53
20 31 33
19 29 32
22 33 35
40 64 52
39 74 59
48 80 92
45 87 77
60 76 99
33 48 47
43 53 55
21 32 34
19 29 31
28 47 47
30 53 47
20 31 33
44 95 63
23 35 38
17 26 28
61 70 82
21 31 33
31 54 48
22 33 35
23 35 38
20 30 32
22 33 36
21 31 34
28 40 84
105 220 158
19 28 30
21 32 35
19 29 31
42 64 53
37 48 44
17 26 28
31 47 41
17 26 28
18 28 30
43 57 57
48 49 57
41 75 62
18 27 30
46 57 57
60 72 71
18 27 29
56 105 60
55 68 61
16 25 27
27 34 36
53 45 43
22 15 16
46 31 27
21 14 15
34 26 26
24 16 18
30 20 22
26 17 19
52 34 29
27 18 19
30 20 21
88 45 72
69 37 41
36 26 26
40 25 31
42 28 25
215 105 143
38 25 31
86 43 56
34 23 24
29 19 21
46 31 27
90 53 42
36 24 25
132 75 92
103 67 51
33 22 24
82 55 44
71 44 43
50 38 38
33 22 23
38 25 24
145 58 67
55 32 33
32 21 23
42 30 28
51 32 32
32 21 23
218 145 145
70 75 49
97 61 48
59 39 36
99 60 46
51 41 41
52 39 31
83 36 41
36 24 24
39 31 27
51 41 36
61 44 54
57 33 29
33 50 28
16 24 18
16 24 18
24 33 22
32 49 28
17 26 19
19 29 21
33 50 28
22 34 23
19 28 20
41 50 34
16 24 17
68 91 42
29 49 27
22 34 24
18 27 19
34 48 31
170 255 170
28 42 22
18 27 19
39 47 32
19 29 21
150 164 109
17 26 19
17 26 19
60 90 47
62 71 54
62 92 80
34 60 28
19 29 21
19 29 21
19 28 20
21 34 33
172 255 172
40 49 42
18 27 20
43 61 36
75 83 47
19 29 20
63 68 39
60 110 49
54 63 38
22 33 23
36 43 28
25 34 24
21 32 26
22 33 23
29 37 25
155 167 79
29 50 49
55 77 38
40 68 36
37 56 31
18 27 19
50 63 38
73 64 45
46 69 37
17 26 19
17 25 18
185 255 129
18 27 19
26 33 26
18 27 19
17 26 19
28 44 28
40 47 32
25 41 27
68 144 64
61 84 71
15 23 17
17 25 18
51 86 39
15 23 17
16 25 18
35 52 28
16 24 17
21 38 26
14 22 16
15 23 17
58 104 44
18 25 16
38 57 31
17 25 18
20 35 24
14 22 16
35 58 28
46 57 34
14 22 16
15 23 17
14 22 16
25 32 22
34 72 41
14 21 15
40 40 35
30 37 25
69 69 38
15 22 16
28 35 24
14 21 15
32 39 24
13 20 14
49 66 36
14 21 15
34 37 30
17 23 15
37 45 25
14 21 15
13 20 14
23 28 19
30 24 21
69 51 32
20 13 15
27 24 41
20 13 15
28 21 33
23 15 17
21 14 15
22 15 16
41 30 24
36 30 24
28 19 17
21 14 15
48 26 33
255 109 103
68 50 54
23 15 17
20 13 15
213 142 142
22 14 16
36 34 25
60 52 37
85 53 55
23 15 17
62 50 44
77 51 40
51 26 47
24 16 17
74 49 38
71 63 39
27 18 19
26 17 19
26 17 18
53 29 30
26 17 19
24 16 18
35 25 22
45 24 25
25 16 18
99 44 54
60 32 41
25 17 18
63 32 32
71 47 37
25 17 18
49 31 29
52 34 40
61 40 33
60 48 36
52 29 30
94 60 48
27 18 19
55 34 27
46 38 32
27 18 19
75 50 40
87 58 45
89 55 43
116 42 66
28 19 20
27 18 19
51 27 35
27 18 19
54 30 35
68 40 36
89 44 53
28 19 20
54 46 33
35 23 23
104 129 69
44 29 26
54 36 30
41 27 25
34 26 23
26 17 20
26 17 19
253 168 168
27 18 19
25 17 18
27 18 19
26 17 19
46 27 28
73 52 45
64 34 34
26 17 17
26 17 19
28 18 20
58 60 33
92 92 71
38 30 26
30 20 21
88 94 55
78 73 45
57 72 38
253 179 119
46 53 36
58 51 34
33 33 24
85 81 56
50 50 32
35 35 25
34 34 24
36 36 25
50 60 34
232 210 110
35 35 24
76 96 43
86 68 43
91 115 65
57 69 36
70 115 56
71 58 48
70 63 46
56 63 38
42 42 29
63 56 37
91 72 45
73 59 50
71 81 48
34 34 24
37 37 29
52 52 33
64 53 36
83 69 59
33 33 23
52 61 42
52 61 35
76 90 46
70 63 39
65 90 59
36 36 25
36 36 26
67 56 38
90 69 48
33 33 23
44 44 31
32 32 23
37 37 26
34 34 24
69 72 41
33 33 23
33 33 23
40 46 31
35 35 25
34 34 23
36 38 25
33 33 23
45 45 52
37 37 26
32 32 22
254 179 119
53 74 39
29 29 21
48 44 28
30 30 21
35 35 25
26 26 18
45 49 26
26 26 19
41 49 28
55 45 31
28 28 20
43 49 29
41 49 27
42 51 34
27 27 19
23 23 16
253 253 168
42 36 35
24 24 18
52 73 30
76 58 33
22 22 16
24 24 17
46 69 32
23 23 18
21 21 15
51 39 28
44 56 38
26 26 19
20 20 15
179 255 172
43 56 72
53 83 61
57 80 79
38 47 60
42 45 51
19 29 32
32 40 40
44 53 65
33 58 47
20 30 33
21 32 35
39 48 61
66 71 80
42 52 65
20 31 33
59 80 68
56 60 72
79 70 113
22 34 43
44 60 74
23 35 37
94 125 103
33 48 44
20 31 33
174 255 255
48 65 81
20 30 33
39 63 58
27 48 38
74 87 99
22 33 36
20 31 33
32 41 43
43 54 67
23 34 36
22 34 35
21 32 35
21 31 34
54 108 88
59 60 66
19 29 31
42 56 56
203 157 118
24 36 33
17 26 28
17 25 27
38 64 51
34 42 44
24 39 39
65 53 55
28 51 54
41 51 72
40 47 49
60 99 67
30 37 38
45 52 49
16 24 27
28 36 37
20 13 15
84 45 56
77 64 50
27 18 19
27 18 19
55 29 38
27 18 19
27 18 19
32 21 22
31 21 22
44 29 25
59 40 45
52 36 45
35 23 25
26 17 17
39 29 29
32 21 23
34 23 24
255 174 174
79 41 77
34 23 24
43 33 33
71 62 39
32 21 23
64 49 47
47 35 35
32 21 23
38 28 28
34 23 24
33 22 23
255 174 174
61 61 48
39 25 35
35 23 25
33 22 23
40 30 30
59 45 39
45 32 32
91 52 40
63 44 36
31 20 22
32 21 23
42 33 28
80 38 41
61 37 31
27 18 20
55 36 31
24 16 17
27 18 20
36 28 24
24 16 17
16 24 17
67 69 65
17 25 18
17 25 18
16 25 18
17 26 19
36 54 29
39 59 32
70 97 53
16 24 17
50 54 42
19 29 21
19 29 21
143 151 143
19 34 36
17 26 19
48 78 37
19 28 20
40 49 41
24 33 23
63 88 44
16 25 18
17 26 19
38 57 31
39 56 27
26 34 27
19 28 20
75 105 52
28 35 24
28 42 25
77 103 48
18 27 19
61 92 40
25 37 26
27 52 29
44 52 46
18 27 19
42 71 34
170 255 119
27 49 34
26 35 24
24 37 25
53 86 46
17 25 18
20 30 21
29 53 37
15 23 17
18 27 20
68 119 57
26 34 23
22 33 35
17 25 18
17 26 19
53 91 39
17 25 18
47 65 48
18 27 19
81 121 68
44 50 29
25 34 27
17 25 18
41 69 33
152 229 108
44 58 28
28 36 25
16 24 17
17 26 18
69 76 42
33 57 30
47 77 38
22 33 28
168 252 168
17 25 18
53 64 34
17 25 18
30 38 26
20 31 22
14 22 16
15 23 17
15 23 17
16 24 17
33 41 34
14 21 15
30 52 31
51 68 35
32 60 28
166 174 116
15 22 16
26 35 24
25 46 32
51 71 46
40 46 41
40 42 33
15 23 16
14 21 15
14 21 16
166 249 166
32 37 30
15 23 22
20 30 21
14 22 16
86 78 60
22 33 19
35 41 33
161 167 111
14 21 15
31 37 32
36 47 41
41 38 35
107 60 41
60 52 33
20 13 15
22 15 16
25 17 18
84 50 64
232 154 107
53 35 28
19 13 14
56 35 27
42 21 26
48 27 32
58 30 40
52 58 40
22 14 16
29 23 24
72 36 31
79 59 40
24 16 17
27 18 30
24 16 17
45 30 25
53 31 26
46 28 28
21 14 15
28 21 19
94 56 47
51 30 36
61 46 34
72 50 38
26 17 19
46 38 38
58 45 31
61 57 47
41 28 25
76 38 46
24 16 18
91 42 37
54 45 33
48 47 37
26 17 19
252 168 168
62 32 42
41 33 34
65 46 34
42 33 27
67 45 41
50 40 33
32 27 36
26 17 18
60 32 41
213 142 142
55 44 31
45 28 26
27 18 19
26 17 19
28 19 19
34 25 24
26 17 19
25 17 18
46 35 35
27 18 19
46 27 28
61 49 30
24 16 16
56 30 37
27 18 19
56 41 38
26 17 19
65 39 36
27 18 19
76 44 57
144 136 96
72 33 38
77 81 43
37 29 30
61 28 32
43 33 33
28 19 20
36 28 29
27 18 19
56 54 44
66 35 44
28 18 19
25 17 18
69 50 40
35 23 22
56 47 37
48 34 30
28 18 20
39 29 24
100 140 67
134 180 120
35 35 24
42 42 29
34 34 24
34 34 24
35 35 24
78 62 40
255 255 174
121 89 52
34 34 24
49 53 35
80 150 50
89 70 40
45 41 54
33 33 23
35 35 24
90 81 47
66 52 42
34 34 24
39 37 41
36 36 25
44 41 28
62 59 43
35 35 24
44 44 30
53 59 35
57 65 39
102 74 41
57 75 35
68 56 38
61 83 41
70 80 59
166 163 82
34 34 28
138 188 92
117 108 48
42 46 32
56 48 33
40 40 28
61 75 38
35 35 24
33 33 23
40 44 26
58 82 36
34 34 24
70 60 48
28 28 20
60 50 34
34 34 24
79 58 42
43 39 27
62 60 52
55 48 32
49 55 38
46 44 28
85 71 51
54 67 33
32 32 23
128 74 48
39 44 28
57 51 32
44 53 30
50 57 32
36 41 28
59 53 35
42 51 29
28 28 20
28 28 20
49 49 30
39 39 27
27 27 20
28 28 20
71 94 40
83 102 50
55 77 33
25 25 18
52 74 39
58 47 32
28 28 20
44 72 33
40 49 28
93 78 63
24 24 18
42 52 29
67 71 48
59 53 39
41 63 37
17 17 13
22 22 16
23 22 19
28 18 30
24 41 37
40 65 47
20 30 32
25 37 39
52 78 61
57 86 68
78 106 71
19 29 32
20 30 32
28 46 41
39 52 43
17 25 28
34 43 43
34 62 48
43 65 55
36 49 61
48 66 73
24 36 38
41 49 64
44 108 122
33 60 51
48 85 60
19 29 31
19 28 31
21 31 34
38 56 58
29 38 39
32 49 46
37 46 48
59 74 64
21 31 34
32 57 49
35 44 45
22 33 35
38 47 48
21 31 33
39 73 49
20 31 33
36 73 65
56 96 58
48 75 59
43 50 63
18 27 29
17 26 28
19 29 32
40 61 48
47 77 59
43 72 64
19 29 31
32 39 50
60 56 89
16 24 26
50 58 51
33 72 55
56 61 78
29 35 35
34 41 38
44 24 29
211 102 146
21 14 15
65 42 34
26 17 19
49 37 37
27 18 20
44 24 28
62 34 32
50 42 32
30 20 22
43 29 26
42 28 25
41 24 28
34 22 22
63 38 31
72 36 44
38 27 27
92 65 48
114 48 57
30 20 21
77 44 35
96 79 53
47 35 28
30 20 22
33 22 23
32 21 22
34 23 24
255 174 174
98 65 51
32 21 23
43 26 28
117 92 55
64 38 33
32 21 22
255 172 172
52 42 43
107 64 49
61 73 67
255 109 155
61 45 36
255 170 170
46 26 32
29 19 21
243 162 113
52 35 28
32 21 22
29 19 20
28 19 20
24 16 18
24 16 17
16 24 18
21 32 23
19 29 19
17 26 19
16 24 17
51 89 41
30 45 27
47 88 34
84 93 40
48 79 37
24 39 50
26 36 24
40 66 34
50 76 39
39 52 45
16 24 17
22 35 41
27 41 24
17 26 19
23 33 24
31 51 34
23 35 24
54 109 61
167 176 117
22 34 24
39 59 32
39 59 32
25 42 40
18 27 19
19 29 21
35 43 29
59 60 46
59 96 48
68 112 60
44 51 42
33 50 27
43 90 54
18 27 20
21 32 29
27 48 28
33 55 32
40 65 32
68 63 49
18 28 20
49 60 44
50 84 49
28 37 24
58 63 51
16 25 18
34 58 29
51 56 36
58 60 51
62 84 64
58 55 48
35 48 30
158 238 111
168 253 168
28 49 30
17 26 19
51 77 31
104 118 60
17 26 19
58 61 34
15 23 17
38 67 44
24 36 25
18 27 19
16 25 18
16 24 18
16 24 17
47 68 36
27 41 24
23 41 28
15 23 17
75 69 35
56 63 48
36 55 30
49 66 34
28 53 37
30 66 47
39 58 32
15 23 17
43 55 33
44 66 32
27 50 35
15 23 22
16 24 17
17 26 18
27 34 25
30 53 28
31 47 26
22 33 20
15 22 16
28 35 24
14 21 15
50 62 31
15 22 16
32 73 43
34 46 31
14 21 15
13 20 15
13 20 15
25 32 22
30 46 25
169 175 84
33 63 26
13 19 14
25 31 22
38 98 44
20 13 15
66 48 31
51 54 38
74 49 38
53 38 44
21 14 16
64 56 48
19 13 14
24 16 17
20 13 15
49 43 31
55 45 35
30 20 18
205 131 76
80 66 34
22 14 16
24 16 17
31 21 22
62 44 39
71 46 36
79 50 40
30 17 21
45 30 25
22 15 16
53 44 30
50 25 30
22 15 16
26 17 18
43 35 29
23 15 17
55 43 34
23 15 17
23 15 16
56 33 36
67 50 35
63 42 34
51 27 28
70 52 31
72 41 49
85 57 43
77 67 38
42 24 29
23 15 17
34 22 22
25 16 18
26 17 19
47 38 40
255 182 126
24 16 17
38 22 22
46 26 32
66 35 32
85 48 35
38 25 23
87 58 45
24 16 17
89 45 49
75 41 33
26 17 18
43 36 30
70 40 48
27 18 19
109 78 58
45 30 26
50 27 28
27 18 19
26 17 19
25 16 18
34 20 24
47 34 28
81 57 39
45 25 31
80 64 38
103 61 51
27 18 19
27 18 19
27 18 19
71 35 45
27 18 19
55 30 38
68 35 46
25 17 18
56 40 44
31 21 28
30 20 30
25 16 18
35 23 24
28 19 20
32 21 22
52 34 29
74 54 41
86 83 51
34 34 24
62 74 40
208 208 101
110 98 44
70 58 39
46 47 40
60 51 35
109 132 68
33 33 24
248 170 127
51 61 35
43 49 29
75 81 57
39 43 27
255 255 175
97 106 50
68 71 43
57 59 36
70 60 38
33 33 24
79 67 42
72 92 44
104 123 75
125 99 59
43 43 30
34 34 24
53 45 28
35 35 25
64 66 48
68 56 38
34 34 24
35 35 24
71 65 43
57 74 46
33 33 23
255 255 173
33 33 23
35 35 24
89 88 43
56 47 38
33 33 23
178 173 115
55 73 43
74 59 51
69 70 39
98 100 60
62 51 43
33 33 23
38 37 32
63 71 42
247 175 116
33 33 23
47 53 36
32 32 23
54 46 29
49 48 44
36 36 26
99 75 44
40 36 25
50 46 33
32 32 23
28 28 20
81 73 40
40 40 41
31 31 20
42 44 30
69 55 47
28 28 20
30 30 21
47 57 32
32 32 24
39 46 25
44 54 30
69 44 31
34 40 24
33 33 23
95 60 41
31 33 27
49 40 27
36 43 25
30 28 25
64 65 43
27 27 19
64 54 34
25 25 18
19 19 14
38 46 26
44 36 25
21 21 16
47 23 35
22 15 24
16 24 26
30 38 47
16 24 26
68 102 71
34 56 43
38 45 57
40 44 44
39 50 50
19 28 31
19 28 30
24 37 38
38 54 48
19 29 32
60 90 71
25 41 41
34 69 47
19 28 31
38 51 51
54 70 90
26 39 41
17 25 28
21 33 55
52 78 227
69 96 74
18 28 30
19 29 31
19 29 31
18 28 30
20 30 33
31 57 48
33 41 50
29 37 39
34 43 50
18 28 30
56 67 74
19 29 31
40 49 51
20 30 33
75 65 65
20 30 32
28 37 37
29 44 39
33 41 41
19 28 30
37 61 44
87 168 91
17 26 28
26 39 34
79 105 87
25 32 32
32 41 37
49 85 99
138 208 208
38 65 58
18 28 25
28 35 42
39 69 46
90 44 55
68 31 38
22 14 16
22 14 16
23 15 17
36 29 25
35 20 25
29 19 21
95 59 49
30 20 21
36 28 30
126 77 61
49 31 27
31 21 23
30 20 22
87 51 63
72 44 32
96 53 38
34 22 24
66 56 70
48 27 33
251 167 117
108 58 63
54 44 45
54 54 45
129 72 47
32 21 23
32 21 23
62 57 41
33 22 23
56 37 31
32 21 22
130 62 51
146 136 97
33 22 23
31 20 22
255 172 172
32 21 23
36 24 24
32 21 23
84 41 39
30 20 21
32 21 23
124 44 55
27 18 19
131 43 70
171 95 74
27 18 20
58 59 39
25 16 18
24 16 17
27 41 22
19 29 20
37 59 31
28 42 24
17 26 19
58 51 35
17 26 18
56 84 42
33 71 39
71 113 46
14 22 16
42 50 29
26 32 21
44 57 38
169 254 169
79 84 66
26 39 22
51 60 62
28 51 35
30 45 27
51 70 36
17 26 18
32 48 27
21 31 22
41 71 33
39 59 32
35 53 30
146 255 84
51 69 36
30 42 26
27 36 42
22 34 24
40 72 35
23 31 21
34 51 28
34 47 28
24 36 27
31 73 34
70 137 69
18 28 24
25 38 22
70 87 46
17 26 19
16 25 18
37 45 29
45 58 32
17 26 19
169 253 169
17 25 18
69 91 50
58 111 58
17 25 17
56 48 42
35 53 29
58 72 42
32 53 35
23 31 24
46 53 32
16 25 18
31 52 34
38 46 31
169 254 169
35 73 38
29 43 28
34 42 29
29 37 25
27 49 34
17 26 19
71 99 42
52 87 39
15 23 17
38 63 51
138 146 138
24 52 30
93 92 50
39 49 29
15 22 16
35 49 41
49 61 33
60 132 59
43 56 36
61 52 48
15 22 16
37 82 44
14 22 16
145 218 102
21 28 19
19 33 23
15 22 16
14 21 15
37 56 30
67 107 47
23 30 20
15 22 16
14 21 15
27 44 20
30 36 25
63 89 43
30 51 28
24 31 20
22 45 30
35 45 28
50 57 31
23 29 19
20 33 22
13 20 15
17 26 16
24 46 32
12 19 14
17 11 13
37 28 23
40 35 28
42 36 28
40 34 24
22 14 16
43 28 21
20 13 15
33 26 22
23 15 17
40 26 24
21 14 15
20 13 15
21 14 15
69 53 40
55 31 26
51 40 39
46 45 26
22 15 16
22 15 16
22 15 16
23 15 16
78 56 54
23 15 16
43 31 29
48 45 30
73 51 37
63 42 33
100 37 47
72 34 46
38 31 26
34 22 24
48 32 26
25 16 18
50 36 32
37 24 23
25 16 22
47 22 27
255 92 130
71 48 44
27 18 19
37 28 23
44 33 51
49 32 28
74 60 41
26 17 19
32 21 22
23 15 17
208 139 98
67 61 39
25 17 18
60 31 30
48 34 34
42 28 24
27 18 19
57 41 47
56 35 29
26 17 19
101 57 48
48 32 27
75 32 41
211 141 141
28 19 19
58 50 83
32 21 35
45 25 29
50 37 42
222 105 115
26 17 19
28 18 20
58 31 40
55 37 37
27 18 19
42 24 25
26 17 19
46 25 29
51 28 25
48 33 29
28 19 20
55 43 38
83 58 44
26 17 19
94 57 43
36 28 25
59 45 36
61 32 37
26 17 19
31 21 22
56 42 34
32 24 24
32 21 22
35 35 24
66 55 34
47 54 37
58 64 43
107 108 40
59 54 36
40 40 28
71 58 39
35 35 26
102 78 45
35 35 25
72 64 39
78 66 56
36 36 25
60 59 42
43 49 30
35 35 25
68 52 38
67 54 33
255 115 99
47 57 38
49 58 40
53 42 33
62 52 35
71 96 72
42 47 29
55 47 32
219 219 146
108 91 48
34 34 24
97 70 42
34 34 27
46 53 30
54 46 29
98 230 84
55 55 33
35 35 25
57 48 33
91 82 51
221 158 105
31 31 22
113 78 69
34 34 24
255 255 175
36 39 25
46 44 28
60 65 35
71 54 33
32 32 23
80 74 39
55 70 35
33 33 23
62 59 37
34 34 24
29 29 21
30 30 22
31 31 22
28 28 20
33 33 23
35 39 24
255 180 120
75 92 35
30 30 21
30 30 21
54 60 34
26 26 19
30 30 22
182 255 173
29 29 20
26 26 18
30 30 22
46 44 26
29 29 21
44 38 26
24 24 17
45 45 28
38 35 23
23 23 17
63 83 38
59 47 40
24 24 17
40 50 27
250 250 166
37 45 26
55 51 28
26 29 18
40 50 34
19 19 14
44 38 25
38 43 24
70 90 38
18 27 30
37 47 47
42 57 73
16 24 27
19 26 26
31 46 37
20 30 32
17 26 29
17 26 28
34 67 46
33 42 44
17 26 29
19 29 31
46 70 58
19 29 31
28 42 44
20 30 32
34 43 43
29 44 39
28 49 40
32 48 44
17 26 29
42 74 50
45 66 73
19 29 32
27 36 37
33 45 48
23 35 59
28 52 43
35 46 53
17 26 29
30 67 44
22 34 51
58 79 62
36 39 41
28 40 37
49 67 103
19 28 41
18 27 30
54 56 81
33 70 70
17 25 28
36 43 53
77 85 81
18 27 29
18 27 29
41 50 54
147 168 161
16 24 26
27 47 47
41 62 51
15 22 24
53 52 60
76 65 56
15 23 25
28 37 32
209 219 226
34 28 40
36 29 30
21 14 15
84 62 57
63 29 38
50 39 39
24 16 17
58 31 40
26 17 18
26 17 18
29 19 21
30 20 21
50 37 30
49 31 28
44 32 34
254 169 169
58 31 40
74 49 39
66 46 35
30 20 21
82 37 51
30 20 22
48 29 32
91 51 61
51 40 35
45 35 35
120 76 60
106 61 74
31 21 22
76 47 38
31 21 22
60 33 37
66 33 40
47 31 25
49 32 28
62 34 43
28 19 20
48 41 33
44 38 31
29 19 21
30 20 21
153 62 78
29 19 20
65 38 33
52 35 30
52 47 37
26 17 19
24 16 18
52 37 35
26 17 19
25 16 18
26 17 19
61 55 33
69 87 48
25 40 40
17 26 19
53 101 54
14 22 23
50 57 51
19 30 27
161 169 112
16 24 17
15 23 17
56 66 52
82 74 63
17 26 18
33 40 34
48 55 44
15 22 16
35 75 33
18 27 19
31 48 31
23 35 20
18 27 20
29 53 37
50 76 39
62 90 42
18 27 19
63 68 35
30 41 34
32 49 28
46 65 34
26 34 23
38 58 32
17 25 18
16 24 17
63 77 47
35 63 31
20 30 21
63 94 48
30 42 29
44 73 31
17 25 18
28 47 29
31 46 26
18 27 19
44 77 47
20 31 18
17 26 19
64 75 40
32 37 24
26 35 23
17 26 19
33 63 37
48 52 45
42 78 35
16 24 17
61 102 38
16 25 18
76 125 55
35 42 28
38 62 44
168 252 168
21 31 22
31 39 27
34 55 42
15 23 17
43 53 41
82 68 53
17 26 19
30 50 35
28 43 30
49 74 39
15 23 17
15 22 16
15 23 17
16 24 17
26 53 32
15 23 17
16 24 17
49 67 36
77 99 40
16 24 17
55 67 51
127 191 66
27 32 23
41 62 33
30 34 30
28 43 31
15 23 17
59 58 51
15 22 16
53 80 40
53 60 33
32 39 28
84 112 46
26 36 22
14 21 15
59 101 39
13 20 15
13 20 15
13 20 15
19 28 18
30 49 37
13 20 15
24 40 24
13 20 14
32 40 33
20 37 26
13 20 15
83 76 58
29 23 20
101 59 43
34 29 24
72 42 32
205 137 137
98 64 39
19 13 17
247 165 165
46 40 29
29 21 17
50 46 46
71 44 32
27 20 18
21 14 15
44 39 37
22 14 16
34 28 24
18 12 14
55 36 29
28 18 20
37 28 21
45 26 30
24 16 17
180 173 120
47 26 24
80 38 32
62 64 38
48 40 28
49 26 34
115 84 54
210 105 74
104 63 50
26 19 30
132 77 52
39 31 26
30 23 21
42 28 40
34 27 24
36 24 22
36 27 27
55 37 32
25 16 18
42 34 29
71 29 39
54 29 37
42 35 29
42 35 26
44 29 25
25 17 18
30 20 21
81 47 44
68 36 45
50 28 29
57 49 28
79 50 38
37 31 28
176 162 77
79 45 66
89 38 51
114 82 46
72 32 42
97 59 48
153 88 57
54 40 32
36 21 48
101 64 67
26 17 19
67 59 37
51 29 29
26 17 19
57 38 30
28 18 25
84 59 56
27 18 19
82 54 44
27 18 19
26 17 18
58 36 31
27 18 19
237 158 110
38 28 24
26 17 19
39 22 27
38 27 29
110 120 92
36 27 24
79 53 42
26 17 19
78 48 37
56 37 31
43 35 36
94 69 46
68 55 38
34 34 24
83 99 58
34 34 24
33 33 23
35 35 25
54 72 38
49 52 35
93 127 70
90 87 42
58 76 49
218 218 145
74 79 62
34 34 24
52 61 42
40 40 28
50 50 31
255 255 173
64 56 35
32 32 23
60 50 33
43 41 46
35 35 24
97 114 68
41 41 28
33 33 30
42 48 33
35 35 24
87 74 48
32 32 22
66 68 39
51 61 42
255 255 174
35 35 24
52 70 42
33 33 24
43 43 29
47 55 38
57 80 36
31 31 27
34 37 23
255 255 172
70 60 38
69 71 37
31 31 22
36 36 37
33 33 23
52 45 34
36 36 25
70 53 35
46 54 32
30 30 22
48 54 32
74 103 57
65 65 38
58 52 32
77 54 39
58 77 31
30 30 21
28 28 20
70 66 35
38 40 42
54 78 37
79 70 40
70 53 39
62 77 38
30 30 21
36 37 63
44 39 26
128 68 51
55 56 28
26 26 19
60 48 33
34 37 52
67 67 136
26 26 19
36 42 24
92 53 30
25 25 18
27 27 19
40 34 24
36 31 20
46 51 34
39 34 23
41 47 26
29 33 19
60 59 33
40 33 22
44 35 24
41 23 35
19 29 31
16 25 27
33 53 42
90 70 76
34 58 45
19 33 30
55 55 101
37 47 54
24 37 38
19 29 31
19 29 32
45 87 75
37 77 70
30 40 45
187 196 143
20 31 33
44 71 55
20 31 33
93 96 102
18 27 30
18 28 30
18 27 30
40 58 48
55 66 66
84 55 69
32 60 50
37 60 48
40 54 45
43 62 52
18 27 29
18 28 30
17 26 28
22 33 35
29 34 37
42 52 63
17 25 27
16 25 27
62 99 66
31 54 48
34 51 44
31 47 42
18 27 29
19 29 29
18 27 29
64 65 71
17 26 28
16 24 26
36 42 52
27 49 42
167 251 251
16 25 27
48 64 47
24 38 38
15 23 26
33 64 47
15 23 25
165 248 248
14 21 24
21 14 15
21 14 15
45 36 36
22 14 16
56 49 42
41 24 24
26 17 18
25 16 18
180 86 88
27 18 20
26 17 18
79 36 45
255 170 170
29 20 24
88 49 42
124 76 53
41 27 25
93 58 55
30 20 21
28 19 20
30 20 21
45 35 28
125 48 77
31 20 22
32 21 22
58 68 48
36 24 25
31 21 22
90 67 49
43 34 29
28 19 20
31 20 22
67 42 34
30 20 21
39 26 26
101 51 63
47 30 31
29 19 21
30 20 21
115 46 42
46 26 32
28 19 20
29 19 21
83 61 42
80 53 41
25 16 18
44 29 25
161 110 78
46 31 28
54 46 41
52 44 31
37 47 31
36 54 30
13 19 14
41 44 28
15 23 17
15 23 17
36 70 39
18 27 19
53 86 41
17 26 18
16 24 18
38 49 28
34 41 36
18 27 20
15 23 18
24 44 31
33 41 28
32 48 27
18 27 19
35 60 32
17 26 19
26 37 25
15 22 16
41 61 33
16 24 17
51 76 39
18 27 19
55 56 42
24 36 44
43 57 38
39 42 33
62 61 44
48 65 37
19 29 21
32 56 38
17 25 18
18 27 20
28 43 25
27 38 37
73 63 46
17 25 18
31 40 32
30 53 41
17 25 18
75 73 44
18 27 19
79 90 94
36 55 32
59 77 40
32 40 28
25 43 42
31 60 41
33 50 28
44 51 45
167 251 167
37 49 40
18 27 19
23 30 21
16 24 18
28 34 22
32 55 26
17 26 18
23 41 28
43 75 52
17 26 19
16 24 17
17 26 19
16 25 18
22 30 23
41 48 43
38 65 49
15 23 17
26 39 26
167 250 167
16 24 17
37 50 37
63 76 44
16 24 17
16 24 18
35 39 26
14 21 15
28 45 26
14 22 16
20 32 20
98 220 112
45 68 35
49 53 32
15 23 23
33 41 28
17 26 18
51 77 39
29 37 30
41 59 27
50 56 31
38 44 26
31 36 25
14 21 16
68 70 55
17 30 21
54 64 33
13 19 14
36 43 25
28 37 23
29 40 30
30 42 26
44 58 29
19 26 17
164 246 164
44 74 31
54 40 28
19 13 14
32 18 23
67 45 31
33 19 17
19 12 14
49 25 34
54 51 30
23 15 16
18 12 13
22 15 16
35 25 25
38 31 26
35 29 26
80 51 35
21 14 15
127 77 55
38 37 32
53 41 38
115 32 34
54 60 38
41 27 23
87 50 43
22 14 16
121 111 55
93 40 51
63 40 32
32 24 22
25 16 18
31 21 22
50 39 32
45 33 25
32 25 27
250 166 166
23 15 17
30 20 21
24 16 18
30 20 21
47 43 31
78 49 39
33 21 27
58 45 45
38 30 32
38 25 26
131 80 61
25 16 18
39 26 25
94 49 38
29 22 23
254 169 169
38 28 28
108 61 47
62 38 35
93 51 54
69 34 30
36 21 25
38 30 26
26 17 19
28 18 18
94 47 40
31 21 19
175 167 167
67 33 49
62 37 33
86 62 41
52 28 36
253 169 169
45 35 31
67 49 36
253 169 169
82 59 41
25 16 18
81 49 65
37 25 23
40 23 27
34 23 30
29 19 20
27 18 19
58 42 31
55 40 40
44 24 31
27 18 19
25 16 18
100 63 52
42 25 25
40 27 25
40 23 22
31 21 22
63 46 33
54 31 25
26 17 18
41 41 28
65 82 47
34 34 24
32 32 23
34 34 24
33 33 23
255 255 173
55 54 46
56 66 50
54 65 41
249 176 166
85 112 47
33 33 23
50 59 34
147 104 76
40 42 40
108 122 47
49 58 37
222 222 148
33 33 23
32 32 23
41 40 37
109 141 63
51 47 34
34 34 24
37 37 26
33 33 24
31 31 22
255 181 120
43 39 30
32 32 22
61 70 45
45 39 26
40 44 27
255 255 173
37 40 25
78 103 44
36 40 25
39 43 30
30 30 21
30 30 21
57 69 35
40 37 25
34 34 24
30 30 22
219 219 146
36 36 25
55 46 29
43 43 30
29 29 21
42 46 28
80 104 50
31 31 22
32 32 23
46 40 31
30 30 21
58 74 34
45 59 29
28 28 20
30 30 22
42 41 38
33 31 20
31 31 22
32 37 25
28 28 20
27 27 19
33 37 23
25 25 18
26 26 18
42 36 25
44 49 27
29 29 21
51 47 27
75 69 34
24 24 17
66 53 31
100 76 58
30 34 20
25 25 18
21 21 15
27 30 26
23 23 17
23 23 17
21 21 15
36 43 25
23 23 17
24 23 58
47 60 32
107 72 37
51 40 26
163 236 80
22 15 24
46 54 61
39 50 41
55 83 64
45 47 52
23 32 32
29 55 43
34 42 51
18 27 29
17 25 27
42 67 50
51 76 62
38 41 50
30 56 47
17 26 28
49 76 61
97 104 109
18 27 30
36 42 41
17 26 29
50 71 59
70 67 90
17 26 28
43 65 53
28 47 43
18 27 29
23 35 32
33 52 41
52 70 62
41 50 62
19 29 31
44 53 50
18 27 29
16 24 26
18 27 29
19 28 31
48 74 55
33 42 49
22 34 36
23 32 32
16 24 27
17 25 28
36 44 56
28 37 35
66 65 82
24 36 32
47 54 48
52 69 47
30 57 47
16 25 27
65 88 158
57 50 54
25 32 33
20 30 32
15 23 25
15 23 25
62 119 67
19 13 14
33 27 29
52 38 44
31 25 27
49 39 39
63 37 49
21 14 16
33 23 23
28 19 20
49 39 42
26 17 19
65 44 41
36 26 23
120 69 45
86 60 44
89 66 75
60 68 46
27 18 20
29 19 21
65 51 57
28 19 20
29 19 21
154 141 78
255 171 171
87 39 45
32 21 23
40 30 27
30 20 21
31 21 22
51 35 27
51 34 27
28 19 20
36 28 25
29 19 21
90 69 44
255 170 170
216 144 144
48 39 36
58 38 34
42 32 28
46 34 26
60 39 37
25 16 18
44 32 25
61 41 32
78 59 36
28 18 20
63 45 33
23 15 17
42 31 25
58 50 34
23 15 16
77 134 34
48 54 49
46 52 37
50 76 39
64 61 49
49 100 55
16 24 17
64 59 56
33 38 25
35 52 29
63 128 46
33 50 28
17 25 18
31 36 29
16 24 17
78 180 42
49 53 42
46 65 36
52 66 37
17 26 19
21 31 22
25 45 32
17 25 18
44 44 42
18 27 19
21 32 22
17 26 19
17 26 19
16 24 18
55 99 35
58 61 49
49 64 43
28 52 36
17 25 18
16 25 22
26 43 22
64 85 38
17 26 19
17 26 25
38 50 37
17 26 18
16 24 17
22 36 23
29 34 24
24 33 22
39 66 35
37 46 38
29 44 27
17 25 21
53 94 52
24 32 34
28 43 25
33 62 43
27 35 24
52 50 39
15 23 17
55 82 43
45 57 34
24 42 30
41 53 34
58 76 44
16 25 18
29 39 24
43 43 27
65 68 79
33 50 28
16 24 17
15 23 17
57 66 34
31 59 41
59 68 37
16 24 17
32 53 40
52 68 41
21 28 19
15 22 16
32 43 26
137 152 72
49 62 57
14 21 16
14 22 15
31 60 34
36 40 26
13 20 15
32 50 35
49 74 56
51 66 55
49 56 37
34 41 28
54 76 38
46 56 33
33 36 27
50 68 35
81 73 61
35 41 37
13 20 14
13 20 15
53 80 34
26 32 21
118 101 44
18 25 17
28 38 24
159 239 110
61 105 43
165 248 165
19 28 20
42 46 40
61 97 35
72 47 36
90 63 45
58 47 26
34 19 19
104 73 50
50 40 35
20 13 15
45 47 34
30 24 21
48 36 29
21 14 15
41 41 38
41 32 26
41 43 30
20 13 15
31 25 21
21 14 15
22 15 16
80 53 40
38 21 26
34 27 29
23 15 17
88 76 38
35 27 24
50 54 78
47 31 26
34 26 23
35 28 24
25 17 17
53 43 29
62 47 42
28 19 22
55 37 30
89 42 64
43 22 26
139 133 93
36 29 25
31 20 21
53 28 36
22 14 16
44 29 25
202 135 95
178 114 85
24 16 18
22 14 14
46 31 26
93 48 56
51 38 29
32 21 21
24 16 17
251 167 167
25 16 18
34 20 22
68 38 50
144 135 96
24 16 18
89 41 46
26 17 18
48 28 27
45 30 26
28 21 20
217 144 144
52 28 25
103 59 44
25 16 18
26 17 19
40 31 26
68 45 36
44 26 31
36 24 21
195 66 69
49 37 38
26 17 19
26 17 18
35 28 29
252 168 168
37 22 23
26 17 19
38 30 26
39 32 33
47 28 28
95 63 48
35 26 28
39 32 27
255 179 124
67 32 43
73 50 38
102 69 58
63 46 29
85 56 43
61 53 36
42 25 25
112 68 56
45 40 27
50 60 34
54 48 32
33 33 23
34 34 24
33 33 24
186 255 124
133 88 53
68 63 51
255 255 173
65 54 36
79 63 41
32 32 22
80 87 38
35 38 24
44 47 37
33 33 24
30 30 21
37 37 26
76 58 48
37 37 25
31 31 22
37 41 26
32 32 23
58 48 33
56 50 39
35 35 25
42 42 29
53 62 36
42 48 28
32 32 23
31 31 22
45 45 51
70 59 38
57 48 33
60 49 33
31 31 22
66 77 38
32 32 23
51 44 30
32 32 22
65 73 43
30 30 21
49 42 29
34 34 22
28 28 20
32 32 22
31 31 22
27 27 20
41 54 27
105 79 47
102 68 54
48 41 28
57 76 38
63 115 44
59 75 35
31 31 22
30 30 21
41 47 33
45 54 37
43 38 26
43 51 35
255 255 170
27 27 20
64 51 35
48 40 32
34 30 21
33 33 22
70 79 45
40 48 30
25 25 18
40 40 24
23 23 17
53 46 26
57 71 32
48 52 39
48 44 25
169 243 113
80 61 55
41 58 38
90 67 46
20 20 15
64 81 29
37 46 32
46 42 35
39 36 21
31 37 21
37 47 23
35 37 20
41 53 35
30 44 46
25 37 39
30 43 42
41 66 53
25 33 33
27 34 43
26 43 36
42 59 56
56 89 90
21 30 30
35 65 56
34 51 43
42 72 95
34 64 60
22 33 35
17 26 28
23 34 36
35 56 44
29 37 46
82 94 86
17 26 29
19 29 31
25 45 45
48 61 85
19 28 30
27 38 38
18 28 30
19 28 30
41 62 49
42 50 58
42 64 51
140 210 210
17 25 27
18 27 30
17 25 28
18 27 29
44 68 78
17 25 28
161 123 170
16 24 27
34 48 41
74 151 87
16 24 26
17 25 28
19 32 30
77 68 73
15 22 25
35 58 58
53 80 62
35 42 42
30 37 38
166 249 249
32 51 37
116 251 174
13 20 23
31 37 49
29 46 37
13 20 23
20 13 15
33 27 28
88 76 87
19 13 14
250 166 166
22 15 16
49 26 33
60 33 41
46 30 26
25 16 18
31 20 22
126 65 70
35 27 28
38 30 31
71 34 44
120 49 48
46 29 24
29 19 20
31 20 22
27 18 19
28 18 20
88 53 51
55 30 30
47 28 31
53 40 48
56 37 32
29 19 21
155 88 69
68 38 39
30 20 20
29 20 26
55 30 37
108 69 52
29 19 20
43 34 30
40 32 28
37 25 24
141 66 84
75 42 56
62 33 43
27 18 19
70 46 36
27 18 19
60 47 43
26 17 19
85 74 45
81 71 61
65 36 28
24 16 17
24 16 17
106 64 90
41 56 28
28 53 34
21 40 41
64 87 49
16 25 20
21 30 20
22 33 19
39 51 29
18 27 19
46 69 36
18 26 17
46 61 37
30 40 28
17 26 18
80 77 45
14 21 16
41 49 28
19 29 21
16 25 18
86 116 72
17 25 18
69 89 53
17 26 18
17 26 21
17 25 18
17 25 18
29 56 38
15 23 17
79 90 40
17 25 18
39 47 39
41 56 34
26 48 26
15 22 16
17 25 18
43 72 32
23 30 24
167 250 116
26 32 21
36 43 25
18 27 19
17 26 19
17 25 18
34 69 31
26 41 24
53 56 37
16 24 17
51 70 36
29 62 41
27 41 50
30 57 39
49 61 34
42 63 34
20 30 21
35 42 33
17 26 19
23 35 21
16 25 18
37 82 51
64 106 53
42 49 39
39 46 40
37 44 28
144 217 144
18 27 19
52 96 36
50 64 33
53 71 37
32 43 22
16 24 17
15 23 16
32 60 27
15 23 17
28 48 34
15 22 16
43 51 37
74 103 55
46 63 35
13 20 15
19 29 20
15 22 16
14 22 16
49 104 52
13 19 14
14 22 16
37 41 27
31 47 26
42 51 31
36 79 37
20 31 22
13 20 15
35 41 26
165 248 165
37 43 28
51 60 32
29 36 29
30 45 23
30 39 32
13 20 15
112 242 161
22 29 20
16 24 17
13 20 15
23 28 19
37 42 25
12 18 14
26 32 19
38 44 40
16 24 17
41 30 24
57 38 30
29 23 20
57 69 41
39 22 27
20 13 15
40 34 28
22 14 16
56 56 33
21 14 16
83 55 42
37 30 25
245 163 163
45 24 31
21 14 15
70 45 29
22 14 16
84 41 49
49 30 29
36 29 30
71 47 36
23 15 16
27 18 19
26 18 26
22 14 16
66 50 38
22 14 16
61 53 34
40 34 35
47 31 26
33 26 23
47 40 31
53 32 29
50 46 31
23 15 17
27 18 24
90 75 50
24 16 17
61 32 36
61 52 98
73 51 46
55 39 34
59 32 33
38 30 26
24 16 17
43 28 26
24 16 17
37 24 25
64 44 53
48 41 27
24 16 18
33 24 25
24 16 17
65 35 45
26 17 19
42 34 29
74 39 35
216 144 144
120 73 52
55 37 30
26 17 19
25 17 18
145 133 70
76 68 42
25 17 18
32 24 21
24 16 17
88 41 43
98 91 46
25 16 18
64 81 37
163 155 112
26 17 19
79 59 39
72 46 60
39 29 24
251 167 167
92 61 47
24 16 17
38 22 21
57 42 35
153 67 74
43 35 29
27 18 18
26 17 19
70 33 32
27 18 19
54 51 40
36 20 33
46 27 28
53 37 41
32 32 23
66 54 36
33 33 24
79 88 51
44 41 30
49 59 40
37 41 25
89 77 48
69 80 54
53 50 33
32 32 22
255 255 173
112 85 47
46 41 42
33 33 24
40 45 27
31 31 22
69 65 45
69 54 41
51 61 40
73 67 40
34 34 24
31 31 22
53 70 37
58 69 34
55 46 38
51 56 31
147 206 98
255 255 173
58 63 35
49 40 33
86 81 42
50 50 30
32 32 23
255 255 171
84 58 58
32 32 23
73 110 68
57 50 33
54 60 33
30 30 22
31 31 22
58 48 33
37 34 38
60 50 42
31 31 22
77 51 43
60 58 33
66 62 38
87 50 34
27 27 20
104 108 52
117 77 59
60 52 34
34 34 24
74 102 43
80 83 48
30 30 21
29 29 21
36 35 30
48 48 30
54 43 29
48 56 33
29 29 20
48 42 28
102 57 46
32 32 22
38 36 29
35 35 24
27 27 19
254 254 169
61 45 27
77 65 51
48 68 34
61 68 41
23 23 17
107 131 61
23 23 16
37 30 29
78 70 35
30 27 18
26 26 18
49 62 28
41 52 28
28 28 20
19 19 14
21 21 16
59 46 41
51 70 44
42 54 29
86 60 34
16 25 27
46 62 53
22 34 31
33 58 47
43 46 68
18 27 29
18 27 29
35 43 43
48 64 102
23 42 42
48 49 59
17 25 27
52 88 55
37 64 51
46 45 53
58 67 71
50 76 60
31 47 40
43 51 46
17 25 27
42 66 50
55 70 57
17 26 29
34 56 43
19 28 30
31 43 43
49 51 57
18 27 29
17 25 28
133 212 112
16 25 27
42 48 59
30 37 39
24 32 39
50 56 44
16 24 26
28 38 43
45 101 49
34 55 42
34 52 43
17 26 28
27 56 45
18 28 29
36 61 48
31 47 78
50 75 57
15 23 25
55 92 62
16 25 27
47 54 48
14 21 24
166 250 250
21 36 36
50 64 58
91 127 89
26 44 35
32 49 40
13 20 22
48 47 47
20 13 15
19 12 14
73 49 44
73 43 28
47 31 26
251 167 167
34 21 23
253 169 169
26 17 16
42 24 28
85 59 41
26 17 19
96 64 49
41 22 25
69 50 39
75 39 34
69 40 51
47 29 29
53 35 30
95 44 37
40 31 27
62 31 38
38 29 31
36 24 25
70 46 38
59 32 41
48 28 31
28 18 20
47 31 27
28 18 20
46 37 48
44 29 25
79 57 40
45 36 30
88 42 57
47 38 40
55 39 31
69 57 38
51 34 29
72 50 40
27 18 19
47 26 32
32 21 21
36 29 24
64 59 42
39 30 24
29 19 21
119 51 33
100 81 41
42 28 23
52 60 34
13 20 15
14 21 15
64 90 58
15 22 16
41 56 28
14 22 19
35 74 37
57 88 44
15 22 16
27 52 36
21 32 22
31 49 26
16 24 17
44 67 35
23 30 24
24 42 29
17 26 19
15 23 17
15 23 17
42 64 34
45 78 30
23 31 21
15 23 17
40 65 32
169 254 169
33 59 45
37 64 37
51 82 47
27 44 24
33 40 28
20 29 30
15 23 17
16 26 22
17 25 18
31 41 31
24 33 22
17 25 18
16 24 17
24 42 24
17 26 19
48 59 48
38 49 37
18 27 19
40 55 30
30 37 31
23 37 25
54 83 41
20 28 20
77 115 66
167 251 167
16 25 18
29 55 38
14 22 14
15 23 17
167 250 167
22 33 20
39 59 32
34 39 24
25 45 23
35 60 28
166 250 166
29 47 24
38 59 42
25 46 32
71 102 50
43 45 35
30 40 30
25 44 31
34 75 76
14 22 16
74 123 53
36 62 45
50 45 32
15 22 16
26 40 23
38 65 41
28 34 37
28 34 24
34 59 34
14 21 15
164 246 114
25 37 20
29 55 38
29 35 24
14 21 15
47 52 29
25 48 33
14 21 16
43 55 37
14 21 15
28 54 37
29 56 38
13 20 15
13 20 14
24 30 25
66 57 40
33 40 26
13 20 15
13 20 15
58 64 34
62 71 40
12 19 14
24 36 21
29 62 32
21 41 26
13 20 14
30 48 35
41 71 57
103 72 48
19 12 14
28 23 19
19 12 14
50 40 31
59 52 25
71 55 43
97 92 45
80 46 67
19 12 14
30 24 21
62 25 26
19 13 14
19 13 14
21 14 15
73 47 29
57 36 40
125 114 62
43 23 30
22 14 16
105 77 48
22 15 16
22 14 16
46 35 30
58 26 27
76 50 38
56 50 30
77 51 40
48 25 31
53 36 31
30 20 21
42 42 32
22 15 16
67 32 40
54 36 34
24 16 17
251 167 167
24 16 17
61 32 40
24 16 17
79 56 48
79 58 38
42 24 25
25 16 18
95 73 48
70 47 36
59 51 46
50 26 26
93 46 46
50 48 48
24 16 17
26 17 19
27 18 20
42 28 23
25 17 18
39 22 25
32 24 22
25 17 18
43 35 30
47 46 39
36 28 24
255 171 119
56 37 29
26 17 19
60 32 41
25 17 18
52 31 26
71 45 37
30 20 18
96 59 44
23 15 17
64 31 39
25 16 18
40 34 34
26 17 21
65 50 35
52 50 29
71 39 45
55 42 43
42 26 23
34 22 24
26 17 19
64 43 34
146 135 97
45 42 42
64 43 34
72 48 38
80 34 48
25 16 18
40 22 22
69 57 31
78 86 43
58 56 33
93 87 53
69 77 34
60 47 31
31 31 22
74 53 33
229 167 82
31 31 22
39 44 31
58 55 32
32 32 23
89 91 57
32 32 23
31 31 27
255 255 172
37 37 25
67 54 37
37 34 24
47 47 29
30 30 21
50 60 41
255 117 63
48 58 31
51 46 31
31 31 22
66 58 36
64 53 43
37 37 26
52 46 31
32 32 23
65 61 39
32 32 23
39 35 24
49 59 41
60 81 38
31 31 22
50 57 33
255 255 172
31 31 22
81 69 36
58 64 44
48 48 31
55 46 32
31 31 22
30 30 21
38 38 26
41 37 25
31 31 21
27 27 20
36 36 25
33 33 23
54 46 37
29 29 20
61 58 37
29 29 21
36 40 25
32 32 33
27 27 19
31 31 22
34 34 23
28 28 20
36 36 25
56 49 29
28 28 20
87 112 59
26 26 19
50 94 52
44 53 30
73 52 37
49 52 28
22 22 16
39 47 27
51 56 35
128 76 36
39 48 33
36 42 29
22 22 16
38 45 30
22 22 16
41 34 24
21 21 15
20 20 15
28 26 27
60 78 49
57 43 31
209 209 139
22 22 16
25 25 18
31 37 26
21 21 15
15 22 25
16 24 27
14 21 23
16 25 27
21 32 41
30 36 38
15 22 24
32 55 55
46 64 49
16 24 27
53 80 75
33 41 51
29 36 38
51 62 59
63 90 71
34 55 44
22 33 35
70 59 64
33 43 46
36 48 64
61 72 65
19 28 30
48 68 43
21 32 32
48 67 52
28 53 43
32 40 51
22 34 34
39 62 47
23 35 32
19 28 30
17 26 28
56 95 69
71 70 77
193 203 155
56 85 68
22 40 34
25 45 45
169 253 253
41 48 54
27 51 51
16 25 27
25 37 34
14 22 24
67 95 69
15 22 25
19 28 25
15 23 25
129 255 136
40 68 65
102 216 153
32 43 43
13 20 22
69 75 73
13 20 23
24 43 32
14 21 23
16 24 26
47 33 26
25 19 17
69 63 50
46 40 34
32 23 18
22 14 16
22 15 16
24 16 18
71 52 40
24 16 17
50 30 35
86 37 47
26 17 19
44 28 25
62 45 54
56 30 38
42 28 24
26 17 19
59 38 35
56 42 35
57 38 32
52 45 30
27 18 19
27 18 19
106 96 54
30 20 21
45 36 30
64 35 45
31 22 21
27 18 20
27 18 20
27 18 20
248 115 165
53 35 30
100 81 57
45 27 27
62 33 35
107 64 56
23 15 17
65 32 38
25 17 18
27 18 19
79 53 41
252 168 168
216 144 144
25 16 18
45 36 30
23 15 17
31 24 21
32 21 19
22 14 16
17 25 18
15 23 17
32 38 26
73 112 49
15 23 17
36 73 41
14 21 15
50 80 34
41 72 36
15 22 16
15 22 16
14 21 16
15 23 17
17 25 18
16 25 18
20 31 21
76 75 60
45 74 32
16 24 18
108 227 76
31 46 26
27 43 23
36 41 33
30 38 31
44 73 42
16 24 17
19 29 20
23 31 22
20 30 21
31 46 26
62 63 39
39 50 44
41 62 33
26 48 33
22 34 38
24 39 21
44 67 35
25 38 22
15 22 16
17 25 18
30 42 28
169 254 169
17 26 19
22 37 25
63 91 46
21 28 19
69 86 62
39 69 31
25 32 22
24 31 21
15 22 16
14 22 16
50 68 35
16 24 17
37 47 34
15 22 16
32 48 27
22 33 23
21 42 23
15 23 16
37 77 51
18 27 19
15 23 15
52 87 36
26 39 23
15 23 22
50 50 47
33 44 30
33 46 24
33 40 27
81 74 48
36 49 26
25 40 25
15 23 16
14 22 16
44 54 29
30 36 25
26 33 23
16 25 24
32 54 37
45 72 56
19 32 19
14 21 16
17 26 19
32 41 33
15 23 17
30 40 24
26 50 34
38 70 37
68 51 42
40 71 43
58 100 43
23 34 20
37 51 25
57 55 57
35 41 36
42 43 32
46 44 32
31 54 37
37 59 33
28 34 23
13 19 14
26 34 21
34 44 26
49 57 37
22 27 19
30 36 32
18 27 16
12 19 14
32 21 20
26 17 16
25 18 20
35 20 24
31 23 21
19 12 14
60 30 41
25 18 16
19 12 14
25 15 24
66 44 34
19 13 14
21 14 15
83 36 31
51 45 34
105 102 47
56 37 30
27 20 19
199 92 132
128 74 46
20 13 16
28 21 18
21 14 16
36 20 20
22 15 16
210 98 140
23 15 16
47 26 24
36 33 24
67 69 39
51 34 28
41 23 28
39 23 28
64 47 40
46 28 28
27 20 20
47 24 29
22 14 14
28 19 20
94 57 42
22 15 16
65 51 31
41 23 27
42 33 33
52 32 30
30 20 21
73 59 46
63 39 39
65 50 43
33 26 22
40 35 31
78 41 64
50 33 26
55 29 38
74 55 46
25 16 18
24 16 17
74 51 37
54 29 30
194 91 129
209 139 139
254 169 169
25 17 18
80 39 42
149 116 167
66 48 39
122 73 51
26 17 19
74 38 46
71 40 33
80 39 52
51 27 28
62 32 40
25 17 18
23 15 17
24 16 18
59 43 32
25 17 18
26 17 19
26 17 19
24 16 18
96 57 43
98 69 39
53 37 29
25 16 18
111 46 56
55 29 38
117 57 72
75 45 53
50 32 37
25 16 18
143 107 53
87 63 61
74 59 51
66 70 45
102 72 72
37 41 29
45 53 28
42 49 29
57 48 39
70 57 37
52 59 40
33 33 23
50 55 63
32 32 23
37 37 33
31 31 22
61 70 37
30 30 21
53 59 31
32 32 23
37 40 30
34 34 22
70 67 52
63 52 42
32 32 22
72 62 41
40 46 27
45 41 27
54 77 36
43 58 33
50 61 36
30 30 21
45 39 31
39 47 30
85 85 46
123 86 69
67 78 48
31 31 22
50 46 34
28 28 22
30 30 21
36 36 25
86 58 43
255 255 171
29 29 21
32 32 22
37 43 26
65 60 41
35 35 24
67 72 46
28 28 20
101 106 87
27 27 22
29 29 21
29 29 21
34 32 37
53 59 40
26 26 19
48 50 28
28 28 20
65 52 44
33 33 23
72 79 48
78 89 44
51 66 45
27 27 20
59 50 32
24 24 17
27 27 20
43 55 38
25 25 18
42 52 29
21 21 14
30 34 21
23 23 19
73 63 49
25 25 22
29 33 20
42 53 36
35 29 20
41 52 25
248 248 165
85 54 40
22 22 16
38 46 31
21 21 15
19 19 14
38 41 23
21 21 15
20 20 15
39 35 21
31 63 51
135 198 198
44 46 57
61 121 59
17 25 27
16 24 27
76 84 72
26 34 42
15 22 25
21 32 34
14 22 24
31 63 53
49 75 71
17 25 27
26 42 39
26 44 37
50 58 54
14 22 24
41 54 70
39 52 42
40 49 63
41 45 50
31 49 41
43 54 51
33 67 67
16 24 27
55 80 59
16 24 26
17 25 28
16 24 27
51 63 67
48 99 60
15 23 25
167 250 250
96 83 74
49 52 47
16 24 26
51 46 54
25 38 34
15 23 25
15 23 25
21 31 33
41 43 48
17 25 28
51 59 63
22 31 31
47 54 46
139 149 209
77 58 72
71 76 75
34 40 41
13 20 22
39 49 44
28 54 37
14 21 23
13 19 22
38 65 57
12 18 21
40 42 35
125 61 71
32 26 27
46 40 34
36 20 24
21 14 16
53 26 29
24 16 17
48 24 30
53 41 41
22 14 16
77 44 32
22 15 16
76 83 52
26 17 19
235 109 157
95 63 48
56 34 34
26 17 19
255 188 131
43 24 30
56 30 39
68 49 43
158 76 54
69 46 37
27 18 19
28 18 20
32 24 22
62 53 47
80 53 41
25 17 18
58 50 32
46 38 27
28 18 20
28 18 20
34 26 22
73 34 38
49 41 42
63 42 33
42 34 29
255 102 201
29 19 20
32 23 21
35 25 25
22 15 16
35 28 23
89 56 40
74 38 34
34 27 24
29 19 19
28 19 17
14 21 15
250 129 60
23 35 21
14 22 16
15 23 17
62 53 41
48 77 33
23 38 25
38 63 32
31 57 25
130 182 130
15 23 15
26 40 23
18 27 113
47 54 32
19 28 20
16 24 17
27 35 28
44 69 38
40 48 41
39 46 33
26 43 30
180 193 69
19 29 21
50 46 111
168 252 168
27 48 31
137 255 99
22 38 20
152 229 80
48 73 38
32 39 33
64 80 67
15 23 17
36 40 28
15 23 17
21 31 22
16 24 17
15 23 16
16 24 17
51 52 40
38 49 35
109 255 98
17 26 19
74 88 47
16 24 17
16 24 17
30 54 37
31 43 24
29 54 37
15 22 16
33 58 34
32 80 47
44 56 33
35 53 28
24 32 22
26 46 27
16 24 17
26 33 23
14 22 16
40 48 28
23 38 26
37 44 27
15 23 17
15 22 16
16 24 17
20 29 31
14 22 16
33 43 38
15 22 16
40 61 32
44 53 35
39 104 46
27 51 35
35 53 28
14 21 15
23 33 23
14 21 16
15 23 16
78 63 49
166 249 166
31 62 40
12 19 14
90 188 88
26 46 34
13 20 15
13 20 15
47 46 36
20 34 22
13 20 18
24 45 25
12 19 14
14 22 16
31 39 22
43 59 35
39 48 28
13 19 14
73 63 53
27 47 31
32 44 25
26 39 21
26 32 28
18 34 22
24 46 31
12 18 13
16 27 19
36 57 33
13 19 14
29 50 34
67 56 33
37 32 22
19 12 14
17 11 13
239 159 110
28 22 19
105 52 32
33 28 23
18 12 14
30 24 29
18 12 15
19 13 14
20 13 15
36 27 19
20 13 15
58 39 31
61 56 32
71 35 34
28 18 20
64 34 27
23 16 24
20 13 15
53 27 35
28 20 19
28 18 17
33 22 19
31 25 25
71 57 36
120 108 62
22 14 16
23 15 17
24 16 17
84 54 46
28 20 19
50 27 27
31 20 22
24 16 17
22 14 16
24 16 17
23 15 17
62 38 38
34 25 22
47 39 26
25 16 18
38 21 27
34 22 21
49 42 36
45 41 33
32 20 23
37 21 26
35 27 24
51 34 28
122 81 42
67 59 37
27 18 19
24 16 17
73 53 37
51 34 28
47 27 23
45 25 31
24 16 17
61 30 38
48 29 33
93 68 47
75 68 41
71 47 37
51 31 29
24 16 17
83 52 38
26 17 19
78 63 41
25 17 18
44 24 30
24 16 17
25 17 18
37 27 25
25 16 18
255 178 123
26 17 18
51 51 45
33 20 20
52 44 30
24 16 17
46 34 35
84 45 36
57 29 30
25 16 18
64 35 43
137 86 56
61 52 35
25 17 18
31 31 22
45 53 31
62 74 45
32 32 23
110 93 94
252 138 53
45 41 28
143 146 97
51 57 35
123 101 70
50 57 39
78 53 49
44 51 30
79 78 64
35 35 25
71 88 39
32 32 23
46 41 31
42 48 29
42 39 27
98 92 42
55 60 34
64 123 48
214 214 143
52 64 44
30 30 21
60 60 33
45 54 31
59 49 33
30 30 21
73 73 42
62 57 34
37 37 26
65 51 35
64 59 44
29 29 21
31 31 22
38 35 24
79 70 55
55 68 46
51 59 39
60 49 34
51 63 31
67 59 37
35 39 23
59 66 36
35 32 30
45 49 33
82 59 50
53 48 28
30 30 21
101 81 43
37 33 23
29 29 21
32 32 22
29 29 21
65 80 36
25 25 18
35 35 25
52 56 25
204 146 97
76 76 42
26 26 19
26 26 18
24 24 17
171 245 116
55 44 27
23 23 17
70 51 29
54 48 28
29 29 21
36 43 25
26 26 18
24 24 18
35 41 27
22 22 16
25 25 18
24 24 17
35 30 33
24 24 18
41 43 24
41 50 28
21 21 15
62 84 36
95 105 48
26 25 22
23 23 16
72 107 48
141 205 136
45 53 27
52 46 30
201 79 84
16 24 26
26 33 42
39 66 44
21 31 33
30 38 48
14 21 23
15 23 25
168 252 252
19 29 31
77 85 73
16 24 26
17 26 29
20 30 30
30 57 75
47 66 59
57 64 57
53 60 51
16 24 26
107 166 118
16 25 27
30 36 76
39 57 53
15 22 24
36 44 46
161 242 169
17 26 28
26 39 33
166 250 250
65 53 77
31 54 39
17 26 29
30 41 38
70 64 59
15 22 24
15 23 25
187 255 195
68 147 66
120 170 180
19 29 31
37 52 55
27 55 49
15 23 25
33 39 43
33 40 41
47 77 57
20 35 31
17 29 29
177 101 190
24 31 29
39 42 42
13 20 22
26 40 33
13 19 22
13 19 22
12 19 21
33 44 38
43 41 43
40 35 31
68 28 25
43 23 29
40 22 27
75 50 45
46 26 28
20 13 15
19 13 14
22 14 16
90 39 50
57 26 33
56 32 26
59 32 39
58 43 30
34 21 21
24 16 17
55 41 47
65 52 63
43 28 25
26 17 19
54 31 26
61 51 43
26 17 18
26 17 18
60 54 42
65 34 33
54 36 30
62 62 51
25 17 18
32 21 23
61 43 34
59 31 40
25 16 18
25 17 18
172 164 164
82 64 42
26 17 19
56 28 28
46 39 29
90 64 44
44 28 25
62 45 31
24 16 17
250 166 166
25 18 16
76 50 47
49 26 34
86 49 43
22 15 16
93 70 64
21 14 15
25 32 21
39 46 45
16 25 18
14 21 15
69 96 47
65 65 59
15 22 17
42 48 30
43 51 31
14 22 16
15 23 17
35 52 28
27 51 35
46 90 51
37 45 39
13 20 13
14 21 16
22 33 23
15 23 21
17 25 18
27 40 25
33 51 32
32 54 28
19 29 33
15 23 17
53 80 40
27 42 29
40 51 33
32 43 27
70 80 66
27 51 38
61 92 36
45 70 28
23 30 25
17 26 18
33 72 43
39 92 34
22 39 27
15 23 17
21 31 22
17 26 19
18 27 19
64 106 48
16 25 18
29 49 24
167 250 167
19 28 20
20 34 21
15 23 17
41 62 33
23 30 21
24 42 29
21 31 22
132 193 90
16 24 17
14 22 16
15 22 16
16 24 18
35 67 37
166 250 166
30 66 36
63 72 38
13 19 13
63 101 46
39 44 33
38 62 28
17 26 18
17 26 18
35 47 26
20 32 38
133 200 93
165 248 165
28 35 24
56 66 51
44 91 48
51 60 33
32 54 26
14 21 15
17 26 17
14 21 15
32 39 34
20 26 18
37 44 36
31 41 22
23 28 25
13 20 14
27 41 22
13 20 14
48 76 33
34 43 26
48 53 30
40 49 32
34 55 25
25 31 21
31 37 25
60 59 49
84 101 30
13 20 14
12 19 14
29 35 28
52 95 49
28 55 33
41 42 34
16 28 20
25 33 23
40 45 29
33 38 23
21 29 22
12 19 14
106 33 34
40 30 27
27 18 16
19 12 14
18 12 13
16 11 13
28 23 19
40 34 33
244 112 162
49 37 28
20 13 15
37 28 23
43 23 31
30 24 26
20 13 15
40 33 25
19 13 14
20 13 15
47 26 26
58 52 34
81 70 45
32 18 22
21 14 15
22 14 16
43 37 38
30 24 21
31 18 22
20 13 15
211 140 98
89 39 56
36 24 20
23 15 16
23 15 16
21 14 15
21 14 16
110 60 37
249 166 166
42 35 34
23 15 16
168 115 112
24 16 22
55 36 29
64 51 47
82 44 47
73 48 38
74 38 50
48 29 24
30 20 21
80 35 47
24 16 17
85 53 36
59 34 33
24 16 17
40 32 26
24 16 17
43 24 30
28 21 19
24 16 17
61 40 32
250 167 167
25 17 18
25 16 18
24 16 17
46 35 28
46 38 39
73 59 41
25 17 18
25 17 18
25 16 18
58 33 39
92 48 42
41 27 29
212 141 141
25 17 18
24 16 18
53 27 31
71 49 57
24 16 17
208 97 138
25 17 18
70 58 38
49 42 43
53 29 37
24 16 18
24 16 17
63 33 47
63 42 34
31 23 25
34 26 28
28 18 25
29 22 20
76 111 45
65 78 38
91 76 41
72 61 40
31 31 22
213 213 102
58 64 41
47 57 32
39 44 31
31 31 22
30 30 21
56 69 47
66 85 51
50 57 39
30 30 21
82 70 44
40 36 37
45 51 28
34 34 24
31 31 22
64 72 51
28 28 20
80 57 43
30 30 21
67 73 43
60 77 36
77 64 53
80 89 41
49 45 31
30 30 22
42 42 29
93 72 51
81 65 37
51 44 30
69 61 40
30 30 21
35 37 23
29 29 20
86 72 38
28 28 20
84 56 73
254 254 169
39 38 54
84 74 44
115 113 52
174 177 67
37 42 28
76 55 47
255 255 170
49 43 63
30 30 21
29 29 20
64 52 35
36 35 37
38 45 26
26 26 18
23 23 17
60 85 44
42 44 31
39 44 29
27 27 19
38 44 31
69 53 35
86 51 44
35 41 24
29 29 25
92 92 47
24 24 17
222 245 108
25 25 18
23 23 17
27 27 19
54 46 28
26 26 17
31 31 22
79 54 48
54 38 26
27 31 22
51 58 32
21 21 15
36 39 29
23 23 17
45 42 25
20 20 14
20 20 14
19 19 14
38 32 22
20 20 15
24 24 14
32 36 22
18 18 13
21 14 23
50 87 62
15 22 24
44 60 58
52 57 64
38 57 46
18 32 32
54 81 62
167 250 250
13 20 23
13 20 22
42 53 53
37 61 44
29 37 44
52 93 60
166 249 249
15 22 25
23 29 36
23 31 37
168 175 175
17 26 28
24 36 31
23 43 36
83 69 100
23 44 44
32 70 47
52 79 59
56 54 49
30 45 37
23 33 35
61 79 68
32 45 53
59 66 79
28 40 35
34 57 45
16 24 26
14 21 23
32 55 48
20 27 27
167 251 251
45 65 50
14 22 24
166 249 249
29 36 38
19 34 34
30 45 38
15 23 25
19 26 26
43 46 60
27 33 35
14 21 23
13 20 22
26 34 34
29 50 69
12 19 21
164 247 247
34 60 38
36 41 37
19 12 13
58 58 45
76 86 53
21 14 15
89 38 42
77 59 41
48 42 32
38 32 32
31 24 21
23 15 16
28 18 20
78 40 29
45 27 23
78 39 63
238 110 158
22 15 16
42 31 24
25 16 18
25 16 18
33 24 21
31 18 20
24 16 17
25 17 18
55 29 38
88 58 45
25 16 18
128 74 88
252 168 168
24 16 17
70 41 31
43 22 26
52 36 55
37 27 27
25 17 18
34 22 23
37 21 21
23 15 17
24 16 18
31 21 21
99 69 49
46 39 40
42 32 28
76 55 36
33 20 20
71 43 33
98 50 33
40 29 25
52 41 32
34 27 23
40 33 33
121 159 115
39 58 31
33 64 38
71 53 36
22 32 35
15 23 17
30 45 23
83 108 50
14 22 16
64 89 44
57 85 43
69 88 39
57 80 40
15 22 16
16 24 18
22 29 20
40 61 34
59 61 54
15 22 16
25 34 20
36 64 40
34 48 25
65 78 57
23 41 29
42 44 30
32 39 27
37 44 30
16 24 17
23 35 20
26 43 32
15 22 16
59 64 47
32 49 29
25 38 22
38 52 45
16 25 18
27 32 26
15 23 17
37 56 30
20 31 19
44 66 119
43 50 42
16 24 17
58 80 41
15 23 17
43 64 38
51 49 39
24 44 31
28 42 23
131 141 70
37 50 28
20 31 22
58 65 54
17 25 18
69 81 63
79 124 53
23 34 21
23 42 29
29 56 38
42 48 31
30 37 25
17 25 18
28 35 24
41 47 38
117 254 169
16 24 17
59 79 40
15 23 16
32 53 33
51 76 39
24 32 18
67 67 46
14 21 15
18 28 20
23 30 21
36 43 38
33 45 37
14 21 15
14 21 15
14 21 15
21 27 18
45 50 36
24 42 24
47 53 43
48 74 41
31 47 26
13 20 15
28 39 23
13 20 15
14 22 21
64 96 47
24 45 31
17 31 28
52 53 32
21 27 19
13 19 14
12 18 13
29 40 26
32 47 27
13 20 15
33 71 38
16 25 18
32 57 31
16 28 20
39 55 27
72 73 40
23 35 20
17 25 16
12 18 13
14 21 15
21 14 15
17 11 13
19 13 14
73 69 33
17 11 13
71 65 34
24 16 17
34 29 31
43 29 24
50 34 27
64 43 33
166 160 111
78 54 40
46 36 32
45 25 26
52 49 30
20 13 15
43 36 29
30 19 26
50 29 32
53 43 31
37 21 21
42 33 28
84 47 64
23 15 37
61 40 32
48 25 25
64 43 33
26 17 18
47 26 27
28 18 20
56 43 37
54 43 31
36 26 27
25 17 18
22 14 16
52 34 28
37 25 22
39 32 33
35 20 21
71 47 34
23 15 16
72 33 48
77 51 39
81 55 38
65 48 33
132 86 86
32 19 23
25 16 18
85 57 43
47 40 41
38 28 29
59 49 45
35 27 28
23 15 17
29 19 21
64 55 45
23 15 17
41 24 29
57 38 31
25 16 18
35 20 21
24 16 18
101 39 49
24 16 21
250 167 167
57 33 28
49 27 27
66 50 35
40 26 25
250 167 167
25 16 18
104 54 48
98 45 46
24 16 17
25 16 18
251 167 167
24 16 17
39 29 26
42 28 24
76 32 39
73 33 37
67 52 34
91 61 46
77 36 33
24 16 18
25 17 18
39 26 23
51 32 35
111 70 50
24 16 20
80 91 53
60 68 37
56 56 32
52 52 31
49 59 30
34 34 24
255 255 172
49 44 36
30 30 21
53 58 39
255 255 172
163 231 154
64 70 34
45 45 52
37 37 26
30 30 21
77 56 39
48 59 36
60 65 38
87 71 50
31 31 22
40 45 31
31 31 22
62 48 37
31 31 22
63 79 47
48 48 29
52 41 32
30 30 21
55 41 30
43 54 30
54 46 37
54 45 31
91 89 62
49 42 29
60 48 33
28 28 20
35 32 21
29 29 21
55 68 44
45 55 38
33 33 23
102 98 59
59 68 39
73 81 58
27 27 20
27 27 20
28 28 20
61 72 37
90 67 47
42 47 29
101 106 72
44 53 35
26 26 19
42 50 29
50 51 30
32 32 22
61 49 34
25 25 18
27 27 19
67 57 31
27 27 20
24 24 18
40 34 51
33 33 23
26 26 22
25 25 18
59 58 36
56 45 31
67 51 31
110 81 45
74 56 31
64 78 42
45 41 28
50 73 38
23 23 16
27 31 19
51 41 28
17 17 11
33 39 30
47 38 26
50 39 26
28 28 20
29 29 20
62 73 36
21 21 15
59 89 40
45 51 27
30 26 17
39 48 25
64 43 33
44 58 58
203 210 150
53 100 62
60 86 67
40 64 61
19 34 49
31 37 42
13 20 22
60 54 81
26 39 33
12 18 18
29 51 51
43 51 81
17 31 48
53 60 75
168 252 252
32 55 55
50 97 75
55 83 63
29 37 38
16 24 26
52 88 66
15 22 25
15 22 25
18 27 27
31 51 41
66 63 55
29 39 39
27 35 40
16 25 27
29 35 43
29 36 46
40 70 48
14 22 24
26 40 34
46 68 64
39 63 48
70 64 90
14 22 24
14 22 24
14 22 24
47 57 52
25 30 30
14 21 23
27 51 42
166 249 173
14 21 23
52 70 74
13 19 21
32 56 41
47 61 50
14 21 23
32 49 41
12 18 20
12 18 21
11 17 19
19 24 25
11 17 19
27 22 22
73 38 37
23 17 19
55 31 28
36 30 24
73 36 43
38 25 21
33 18 22
82 50 43
20 13 15
62 41 40
53 46 38
21 14 16
23 15 17
81 78 57
23 15 16
53 35 28
50 47 47
43 23 22
39 32 32
23 15 17
23 15 17
25 17 18
85 49 43
77 52 52
55 34 28
59 39 32
24 16 18
27 18 19
79 65 51
28 19 19
32 25 21
88 63 44
62 36 32
36 29 30
37 22 52
24 16 17
44 34 32
62 31 40
102 50 42
90 46 42
26 17 18
22 14 16
31 20 22
46 33 22
27 18 19
155 85 65
23 15 17
22 15 15
20 13 14
64 43 33
27 41 21
14 21 15
13 20 15
53 80 41
19 29 21
16 24 17
15 23 20
14 22 16
25 37 23
20 30 18
26 32 22
46 70 36
12 18 12
13 20 15
16 24 17
54 91 45
53 45 42
31 40 32
14 22 16
16 24 17
107 149 71
51 116 39
31 46 28
18 28 20
29 36 25
21 27 22
28 35 29
52 71 37
14 21 15
30 45 26
23 38 21
28 34 24
24 32 22
36 54 30
26 49 34
15 23 17
14 21 15
67 72 59
73 93 35
42 64 34
14 22 15
165 248 165
32 48 27
27 47 32
14 22 16
14 21 15
14 22 16
16 24 18
39 59 32
68 80 39
16 25 18
14 21 15
22 45 24
35 52 28
55 73 37
81 97 45
38 45 40
15 23 17
54 92 39
36 42 29
27 37 23
37 38 30
30 40 24
48 50 38
25 48 33
14 21 15
57 73 34
45 65 55
30 45 25
33 46 27
19 32 21
14 21 15
29 36 25
13 19 14
13 19 41
29 41 35
26 32 22
28 37 22
29 54 30
13 19 14
18 28 18
15 22 16
175 255 121
48 58 33
14 21 15
15 23 16
34 48 28
25 34 21
13 19 14
24 30 26
12 19 14
29 47 23
119 94 62
19 29 18
25 43 28
164 246 164
13 19 14
34 51 27
27 30 20
24 30 22
12 18 14
28 47 23
58 54 30
43 48 32
37 45 38
12 19 14
61 66 41
41 64 32
12 18 13
32 25 22
27 15 16
89 54 33
31 16 39
44 35 24
50 33 26
41 43 33
18 12 13
33 26 23
19 13 14
246 164 164
19 12 14
20 13 14
24 16 17
46 35 27
45 27 22
150 144 100
37 28 23
22 14 16
85 60 46
39 21 22
22 15 16
49 54 54
62 51 37
247 164 164
34 19 24
37 28 24
141 142 78
25 19 28
33 22 22
58 35 25
36 24 20
23 15 16
31 21 22
47 36 31
32 29 23
248 165 165
98 65 45
186 104 55
45 24 31
24 16 17
23 15 17
86 57 44
36 20 25
22 14 16
52 25 25
31 19 19
123 41 39
93 92 51
48 32 25
59 39 31
24 16 17
112 71 52
250 167 167
70 61 68
36 29 25
54 31 36
22 15 16
23 15 17
81 54 41
29 19 30
149 70 63
27 20 29
25 16 17
100 71 43
111 80 47
32 27 25
57 67 32
24 16 17
242 161 112
40 23 23
23 15 17
26 17 19
24 16 18
64 42 34
25 17 17
186 86 86
23 15 17
55 50 35
24 16 18
23 15 15
47 38 30
86 46 38
44 21 21
32 19 23
104 36 49
55 36 42
24 16 17
103 64 48
59 35 31
24 16 17
29 29 21
64 74 36
30 30 21
30 30 21
31 31 22
42 51 34
31 31 22
113 80 47
156 226 141
58 48 40
99 70 54
51 55 37
64 83 49
73 61 38
35 39 23
43 51 35
77 65 42
30 30 22
29 29 21
103 122 70
62 95 56
62 48 34
88 143 67
35 35 24
41 41 28
28 28 20
61 50 34
65 52 36
53 44 30
30 30 22
247 174 116
212 116 100
30 30 21
29 29 21
97 63 43
39 46 27
28 28 20
29 29 21
30 30 21
255 255 171
40 47 27
29 29 21
56 44 39
94 88 38
29 29 21
38 38 27
28 28 20
35 40 24
54 80 40
255 255 170
48 44 26
28 28 20
26 26 19
28 28 20
34 34 24
40 49 34
45 55 38
27 27 19
36 40 24
78 64 42
27 27 22
63 59 31
45 38 26
36 42 25
25 25 18
44 55 38
38 43 27
57 51 36
208 208 138
31 31 22
45 37 25
93 64 56
237 165 158
21 21 16
37 46 25
21 21 16
21 21 16
67 94 43
21 21 15
21 21 15
93 73 57
28 32 19
249 249 166
42 30 23
22 22 16
38 49 26
27 31 17
19 19 14
19 19 14
20 20 15
29 24 38
30 41 37
23 42 40
45 45 51
55 64 83
20 36 32
39 79 59
138 208 208
166 249 249
47 48 61
33 38 36
36 43 55
26 33 41
54 68 71
23 29 27
35 52 41
15 22 25
21 31 33
51 77 69
137 206 206
41 54 68
30 37 47
16 24 26
15 22 24
15 23 25
41 57 45
15 23 25
28 47 44
24 43 36
62 87 61
14 22 24
44 59 46
41 49 38
15 23 25
91 194 194
21 36 32
41 78 43
16 24 26
166 249 249
26 50 51
21 33 33
53 59 50
14 21 23
35 67 59
68 96 69
24 46 46
33 51 38
17 26 28
19 34 27
16 24 26
157 163 163
45 56 42
38 92 64
108 56 64
27 47 47
12 18 20
36 46 40
21 26 27
17 11 13
27 22 22
123 53 24
48 32 25
76 46 38
38 30 30
28 23 24
35 26 21
36 35 30
19 13 14
62 41 32
36 20 20
48 27 34
21 14 15
23 15 16
69 34 29
86 50 42
34 26 26
23 15 17
27 18 18
60 38 41
50 49 42
32 25 26
68 39 33
87 39 32
86 37 46
58 39 38
210 140 140
57 47 55
24 16 17
22 15 16
28 20 27
34 25 21
35 20 23
22 15 16
24 16 17
47 51 30
24 16 17
24 16 17
38 30 31
23 15 17
21 14 16
24 15 21
48 32 25
22 15 16
148 96 72
255 170 117
70 47 36
52 38 29
40 34 36
35 26 21
34 28 23
14 21 15
23 38 25
22 43 48
164 247 164
13 20 15
26 49 34
54 81 41
40 52 28
54 81 41
27 48 23
18 28 20
20 30 21
17 26 18
14 22 16
15 23 16
18 28 20
21 26 17
36 87 45
61 69 54
23 40 27
27 49 28
148 112 76
15 23 17
18 27 19
15 22 16
46 69 36
14 22 16
13 20 14
27 38 45
15 23 17
15 22 19
40 66 30
15 23 17
15 22 16
54 44 33
17 25 18
20 30 19
16 24 17
14 21 16
23 46 27
13 20 15
43 65 34
16 24 17
24 39 29
30 54 28
14 22 16
26 44 29
25 37 21
22 28 19
52 60 40
15 23 17
39 44 28
43 56 52
39 49 24
14 22 16
14 22 16
26 56 29
15 22 16
16 23 23
22 40 23
60 68 30
32 38 26
61 70 42
13 19 14
63 79 39
33 44 30
31 41 27
18 29 31
165 247 165
14 21 15
165 248 165
14 21 16
19 28 20
14 21 15
24 31 21
62 70 53
164 246 164
165 248 165
24 30 21
42 53 31
14 21 15
18 27 19
13 20 14
30 52 27
16 25 16
34 42 27
44 56 49
164 246 164
18 27 19
31 47 32
13 19 14
49 66 40
23 29 20
19 35 24
12 19 14
13 19 14
31 51 26
40 45 27
11 17 13
12 18 13
29 57 34
24 29 25
28 60 40
21 26 18
39 109 38
44 69 44
26 28 19
44 44 30
12 18 13
50 49 35
18 12 13
52 39 29
19 12 13
18 12 13
18 12 13
44 33 25
50 40 24
140 59 83
51 44 28
20 13 15
34 36 22
18 12 14
37 31 23
35 35 27
19 12 14
29 18 18
44 34 25
19 12 14
40 40 27
27 18 16
21 14 15
20 13 15
41 31 26
20 13 20
69 39 35
77 64 41
46 28 26
39 32 26
21 14 15
63 39 30
43 45 31
54 55 42
80 48 35
63 71 45
28 21 20
51 25 33
75 60 49
22 14 16
82 36 45
49 32 27
31 22 20
86 38 41
37 29 25
82 72 43
23 15 17
54 28 36
35 23 23
64 47 29
44 33 27
24 16 17
23 15 17
25 17 18
31 20 23
22 15 20
41 34 28
31 24 25
39 22 27
22 14 16
46 29 33
62 43 56
32 19 19
251 167 167
25 17 18
77 67 45
28 21 18
45 25 30
84 49 41
84 61 39
28 18 20
40 33 30
255 176 122
47 46 44
59 47 31
34 20 24
29 20 51
64 34 42
127 78 61
97 72 50
120 64 83
47 33 27
80 47 36
69 46 142
39 22 22
53 45 39
25 16 18
44 33 35
24 16 17
54 23 27
44 37 34
76 40 34
29 29 21
79 62 54
31 31 22
124 75 46
29 29 21
80 57 42
31 31 21
42 49 30
67 55 33
30 30 22
59 49 41
51 44 35
89 76 50
28 28 20
47 47 27
30 30 21
36 36 25
65 68 36
27 27 18
53 66 33
37 42 25
36 36 25
29 29 21
47 56 32
44 43 40
56 46 31
38 38 27
142 139 69
64 69 41
38 38 26
46 56 31
45 53 31
53 49 29
56 48 38
33 33 23
73 65 62
35 42 26
89 79 37
30 30 21
32 32 22
35 35 24
56 56 39
49 61 33
255 255 170
60 106 57
49 47 37
61 45 33
64 54 37
72 70 41
45 40 26
28 28 20
28 28 20
58 51 43
52 43 29
27 27 19
26 26 19
42 39 23
36 43 26
138 76 62
59 54 36
82 107 57
42 48 32
250 250 167
24 24 17
35 35 24
43 33 22
210 210 140
35 43 24
93 63 46
113 61 49
39 47 25
58 62 36
25 25 18
24 24 17
20 20 15
33 40 22
46 54 28
38 32 22
174 251 116
27 27 19
25 25 18
27 27 19
99 72 40
39 32 22
21 21 15
33 45 28
19 19 14
23 23 25
26 26 18
18 18 14
18 18 13
17 11 19
23 44 35
33 39 40
14 22 24
25 47 39
24 33 41
14 21 23
21 31 33
14 21 23
165 248 248
49 79 55
36 47 40
53 80 61
28 35 44
14 21 24
34 43 54
46 69 54
36 49 40
42 49 65
15 23 25
31 47 39
53 62 74
56 84 64
16 24 26
47 63 49
14 21 23
41 52 44
26 52 41
15 22 38
19 29 29
14 21 23
14 21 24
29 40 37
14 21 24
69 87 67
14 21 23
104 66 59
32 57 44
37 64 49
14 21 23
39 47 58
47 92 60
38 58 47
12 18 20
13 20 23
23 42 35
43 70 52
12 18 21
32 40 33
21 40 34
58 95 73
12 18 20
44 47 47
13 19 21
25 38 32
38 87 47
30 64 39
30 35 33
32 25 19
17 11 13
17 11 13
73 35 36
66 44 33
18 12 14
117 73 51
43 32 36
20 13 15
50 27 34
20 13 15
25 17 18
70 53 39
35 20 23
31 24 26
65 69 60
45 24 24
30 23 21
52 57 44
38 25 22
61 49 48
48 32 33
90 60 45
109 53 60
23 15 17
75 47 40
38 25 22
39 32 33
61 44 39
23 15 17
22 15 16
42 23 29
23 15 17
40 21 21
22 14 16
56 30 37
70 32 44
52 41 38
31 21 22
22 14 14
61 46 40
40 32 32
22 14 16
31 20 23
40 24 24
81 51 40
60 53 132
26 20 17
33 25 22
69 36 48
36 22 20
32 48 26
27 41 23
121 250 85
13 19 14
13 20 15
19 25 18
14 21 16
53 79 40
42 45 27
36 48 28
14 22 19
27 51 35
19 29 20
14 21 15
15 22 16
52 81 36
24 41 28
25 46 26
16 24 17
70 63 60
23 35 24
23 28 23
30 45 25
48 46 37
31 34 30
56 75 40
26 39 22
25 38 22
66 82 41
25 50 33
49 83 37
19 28 20
41 48 42
15 22 16
20 31 22
23 35 25
48 59 42
28 51 35
14 21 15
14 21 15
64 90 70
14 22 16
40 78 47
15 22 16
16 25 18
24 42 21
15 23 17
15 23 17
47 71 37
15 23 16
31 48 30
14 21 15
13 20 15
74 61 57
17 26 18
29 36 25
54 82 41
25 42 23
36 48 29
14 21 15
39 64 31
15 22 16
43 51 33
19 29 21
24 47 23
28 29 19
13 20 15
14 21 15
27 33 23
37 62 29
32 54 30
13 20 15
14 22 16
161 242 111
24 37 21
36 47 29
26 32 27
17 26 18
36 55 33
29 42 35
63 137 59
40 46 36
41 47 43
26 48 32
12 19 15
24 46 34
24 34 21
24 31 20
107 113 75
33 36 26
53 56 32
19 24 17
68 99 49
40 40 27
43 48 29
125 188 64
43 42 30
149 150 73
19 34 22
12 18 13
37 38 29
11 17 13
17 22 15
27 35 22
12 19 14
52 64 36
48 37 89
22 38 35
13 20 15
40 31 22
23 15 16
17 11 12
21 15 27
31 26 19
68 57 34
59 39 31
31 25 21
46 34 26
28 17 17
27 22 18
39 36 31
58 39 30
55 42 29
56 37 116
63 33 29
65 33 45
60 45 30
32 21 21
26 17 18
21 14 15
20 13 15
202 135 93
25 16 16
21 14 15
22 15 16
199 92 92
21 14 15
20 13 15
30 18 21
78 53 38
32 25 21
65 45 39
26 17 18
91 63 46
33 26 23
79 52 40
35 26 22
121 60 78
22 15 16
22 14 16
54 46 37
26 17 18
24 16 17
23 15 16
29 19 18
74 31 35
54 39 33
24 17 28
38 32 30
59 36 29
87 38 47
76 53 37
29 22 20
32 21 22
23 15 17
31 24 22
86 57 44
29 22 23
209 139 139
19 13 13
77 38 32
45 24 31
251 116 167
24 16 17
38 22 25
39 32 33
65 33 44
72 64 40
41 33 28
24 16 17
23 15 17
34 26 28
43 36 34
94 69 51
32 23 22
24 16 18
42 35 29
77 36 46
23 15 17
42 35 29
45 37 39
23 15 16
24 16 18
25 16 18
33 19 19
24 16 18
141 81 54
24 16 18
69 35 47
48 26 26
89 70 39
28 28 20
64 73 48
29 29 21
104 165 54
28 28 20
45 59 39
43 50 29
37 33 23
89 73 56
29 29 21
64 95 43
54 45 31
53 61 33
30 30 21
73 138 78
28 28 20
110 63 43
49 59 33
37 42 29
33 33 23
49 60 37
75 92 38
54 45 34
29 29 21
164 162 79
29 29 21
51 63 43
55 49 36
65 110 64
39 37 23
49 49 30
29 29 21
29 29 21
49 41 28
27 27 19
35 44 25
29 29 20
78 104 44
78 69 58
28 28 20
37 37 26
28 28 20
27 27 19
28 28 19
41 44 27
70 61 41
117 92 48
96 77 52
75 66 41
39 34 31
27 27 19
27 27 19
37 41 27
57 66 40
35 44 27
39 42 29
28 28 20
24 24 17
49 40 32
24 24 17
86 65 39
68 59 40
46 58 32
75 92 39
219 219 146
24 24 17
61 78 34
38 47 26
45 56 31
53 55 28
21 21 15
79 63 36
20 20 15
22 22 16
21 21 16
70 94 63
77 81 42
81 60 34
249 249 166
184 189 64
47 73 34
35 26 31
21 21 20
106 116 59
20 20 15
67 68 62
40 46 27
29 25 17
56 72 28
22 17 23
17 11 29
27 36 40
39 58 65
38 51 38
14 21 23
47 47 46
31 37 48
29 44 37
177 186 130
14 22 24
36 42 57
12 18 20
27 33 43
20 34 28
32 48 40
13 19 22
14 22 24
14 21 23
25 31 49
39 73 64
32 41 41
39 68 50
41 41 47
14 21 23
14 21 23
14 21 23
27 32 32
14 21 24
41 56 43
48 57 61
60 57 92
29 63 48
15 22 25
31 37 38
50 92 78
14 21 23
38 44 59
32 49 36
54 81 61
68 88 56
36 105 59
15 23 25
14 21 23
55 67 73
27 33 34
37 56 45
43 91 54
19 29 26
71 82 62
28 32 34
19 24 28
37 70 42
17 29 29
36 64 46
27 53 35
31 40 43
19 24 25
20 24 26
74 49 48
51 45 58
136 129 93
37 20 26
28 19 20
52 38 31
57 50 43
66 28 29
34 28 29
107 69 49
53 35 28
66 61 45
207 138 138
99 39 50
33 23 26
21 14 16
43 26 29
38 21 26
114 67 47
51 28 28
41 22 29
72 55 38
54 41 41
43 41 34
87 62 45
76 50 39
46 36 39
23 15 17
87 51 43
61 32 27
23 15 17
35 28 28
32 18 22
28 17 18
47 22 52
67 31 38
22 14 16
22 14 16
60 37 46
104 40 43
21 14 15
21 14 15
32 21 19
45 26 36
32 21 19
49 24 24
38 29 27
48 30 25
58 45 32
62 33 29
57 31 29
18 27 19
31 47 25
36 43 38
27 33 28
41 48 36
19 26 34
17 26 18
19 34 24
25 38 22
76 119 57
52 59 34
15 22 16
31 38 29
133 142 133
45 45 37
25 37 19
17 27 27
43 56 53
39 42 35
47 50 38
27 61 39
51 72 28
51 80 43
34 41 36
48 72 36
49 65 33
14 21 15
18 28 18
14 21 16
56 70 41
15 22 16
136 142 95
36 54 29
31 44 37
39 55 29
136 205 136
40 59 35
24 37 22
50 45 42
24 36 21
14 22 16
14 21 16
22 33 18
20 30 21
37 64 36
111 241 161
37 55 34
28 36 21
15 23 16
111 153 198
60 74 49
28 42 25
14 21 15
14 21 16
14 22 16
14 21 16
15 22 16
49 47 37
37 59 37
14 21 15
23 40 22
57 97 48
16 24 17
34 42 24
43 75 35
13 19 14
45 52 28
16 24 17
13 19 14
14 21 15
36 33 26
28 33 22
31 57 31
53 80 40
13 20 15
48 56 29
13 20 14
62 65 53
19 28 20
13 20 15
52 108 39
14 22 16
25 30 20
58 90 42
39 43 27
35 62 42
28 53 36
56 65 35
28 54 26
23 29 20
13 20 15
12 19 14
12 19 14
40 48 25
15 26 15
49 85 34
18 27 19
28 35 24
37 49 29
59 71 71
12 18 14
12 19 14
41 54 28
72 219 146
48 66 34
32 43 25
23 34 18
46 40 32
20 25 17
154 105 73
16 10 12
27 18 19
26 19 18
48 26 29
44 28 23
18 12 18
64 56 47
52 33 30
104 63 43
18 12 14
26 15 30
38 28 32
20 13 14
57 31 26
39 30 24
54 39 37
236 109 157
21 14 15
20 13 15
48 32 26
20 13 15
42 28 23
29 23 19
36 20 25
20 13 15
28 18 18
20 13 15
63 35 46
22 14 16
27 20 32
70 52 36
29 20 20
23 15 17
21 14 15
250 166 166
35 23 23
64 33 40
45 35 38
24 16 18
250 166 166
39 21 21
58 40 33
60 36 29
60 29 27
44 29 22
22 14 16
31 20 19
23 15 17
20 13 13
72 60 48
27 18 19
85 34 56
79 48 37
45 30 23
115 43 67
24 16 17
63 38 37
121 73 59
59 41 35
43 37 26
22 15 16
23 15 17
34 22 19
38 27 22
59 41 33
195 130 92
24 16 17
35 27 22
36 20 24
23 15 17
86 77 46
169 73 55
61 48 48
23 15 17
23 15 17
35 25 25
41 34 35
82 45 62
23 15 17
44 29 25
71 70 52
36 29 24
36 33 24
24 16 18
39 29 34
24 16 18
73 72 42
34 27 23
250 167 167
25 16 18
43 43 29
84 107 71
147 207 98
57 48 32
30 30 21
48 54 41
34 37 25
63 51 34
255 138 89
255 190 95
44 57 29
67 56 32
30 30 21
28 28 20
40 35 28
29 29 21
29 29 21
30 30 21
82 77 41
63 48 39
38 41 28
29 29 20
29 29 21
28 28 20
59 49 37
87 64 43
33 33 23
33 37 26
79 53 41
80 75 41
93 71 42
27 27 20
29 29 21
52 61 42
29 29 24
255 255 171
61 94 53
28 28 20
84 99 40
34 34 24
50 42 29
27 27 19
46 35 25
39 39 27
50 40 28
32 32 36
66 53 36
60 68 36
34 34 23
35 35 24
36 38 31
47 59 32
37 44 25
28 28 19
26 26 19
64 51 35
64 81 35
24 24 18
27 27 19
55 63 35
30 35 24
30 34 24
24 24 17
60 100 34
67 60 39
95 60 48
250 250 166
30 33 23
23 23 17
25 25 18
42 34 23
181 188 125
41 52 25
175 253 116
44 44 24
41 34 23
56 43 30
26 25 32
53 53 76
62 47 28
38 49 26
21 21 16
36 45 31
63 42 32
18 18 14
53 62 36
46 51 22
22 26 16
86 58 27
42 33 30
39 48 23
49 44 53
22 28 36
12 18 21
38 37 60
19 31 33
49 92 63
44 58 59
18 24 24
14 21 23
27 33 41
29 50 39
42 65 55
27 33 40
12 19 21
23 39 32
20 26 28
14 21 23
24 30 30
49 69 55
47 46 51
79 115 64
45 75 52
31 30 30
21 27 32
52 58 51
33 43 38
14 21 23
25 39 41
22 29 36
17 26 28
31 73 46
165 248 248
52 62 53
27 58 62
23 42 35
12 19 21
37 86 63
21 27 33
25 34 34
21 26 26
31 32 30
14 21 23
39 48 64
37 48 48
81 55 62
27 36 36
46 70 66
163 245 245
24 41 35
14 22 24
52 104 67
12 18 20
11 17 19
24 32 32
17 26 24
10 16 18
71 56 63
11 16 19
45 43 37
18 12 13
16 11 12
42 22 30
26 14 17
36 35 30
42 32 22
26 17 19
15 10 10
71 60 36
48 39 31
50 32 35
48 49 42
35 29 31
32 24 24
66 44 33
35 20 25
21 14 15
22 14 16
22 14 16
80 53 39
42 23 29
65 44 52
22 14 16
26 17 18
112 78 54
90 56 78
21 14 16
49 29 26
75 30 41
80 48 42
19 13 13
69 54 54
121 53 61
34 22 24
238 158 110
22 15 20
36 28 24
21 14 16
56 24 52
50 28 37
52 33 41
39 33 27
36 30 22
21 14 15
54 31 24
41 29 27
35 30 30
30 20 22
19 12 14
26 19 16
32 46 26
49 48 40
27 60 31
22 28 22
46 63 47
13 20 15
13 19 14
46 54 27
24 30 24
48 67 62
20 30 18
12 18 12
63 60 45
32 50 24
38 52 27
12 19 14
61 83 41
31 46 26
27 45 24
24 36 21
33 50 28
41 52 36
33 39 31
26 33 29
14 22 16
56 70 50
14 21 15
14 21 19
26 32 27
39 59 31
15 23 16
30 36 31
16 24 17
53 55 41
13 20 14
53 48 32
27 34 23
53 60 37
74 79 46
22 34 24
14 22 16
16 24 17
42 73 32
14 22 16
17 26 18
51 81 36
45 48 35
24 45 31
35 60 31
28 34 24
50 74 49
19 29 18
35 40 32
27 50 28
14 22 16
14 22 16
38 57 30
28 34 24
20 27 19
24 30 26
56 61 34
14 22 16
14 22 16
16 23 23
15 22 16
70 94 70
32 48 26
58 80 41
63 72 37
27 34 28
24 42 24
23 30 26
22 36 22
59 77 36
31 54 29
12 19 14
39 45 26
18 24 16
21 26 17
22 41 28
13 20 15
22 39 23
51 59 31
12 18 13
12 19 14
15 22 16
27 32 22
23 29 24
12 19 14
12 18 13
43 72 35
13 19 14
24 39 26
45 50 28
63 118 49
31 36 33
48 49 28
84 124 83
12 18 13
52 59 44
30 69 36
12 18 13
11 17 13
33 40 23
11 17 13
117 130 87
36 66 30
11 16 12
108 171 117
26 24 20
103 49 50
16 11 13
47 42 26
76 50 33
34 26 21
18 12 13
26 19 17
31 21 19
49 26 23
19 12 14
184 123 63
19 12 14
71 47 42
35 23 18
56 48 42
62 53 32
39 26 22
18 12 14
52 26 36
19 13 14
23 15 29
21 14 15
20 13 15
95 45 50
74 49 37
25 17 18
57 27 32
40 21 26
20 13 14
41 23 23
20 13 15
50 30 23
62 49 28
21 14 15
28 22 19
21 14 15
22 14 16
52 43 29
21 14 16
42 23 23
66 59 36
21 14 15
34 28 24
53 51 39
33 20 20
22 14 16
79 46 41
58 34 38
26 17 19
250 167 167
21 14 16
97 64 48
22 15 16
88 44 49
45 30 25
22 15 16
67 53 38
239 159 111
45 35 24
249 166 166
24 16 18
36 25 24
57 33 30
23 15 17
23 15 17
79 53 40
39 28 22
24 16 17
23 15 16
45 30 25
23 15 17
119 60 68
37 25 22
93 39 51
71 42 33
53 28 32
45 38 30
24 16 18
85 55 42
22 15 16
41 23 29
51 31 26
51 51 51
251 167 167
46 31 25
23 15 17
84 42 79
23 15 17
84 56 43
68 33 35
119 66 60
56 46 39
77 75 35
47 57 28
255 255 171
41 49 28
29 29 21
29 29 21
68 91 39
181 255 172
29 29 21
93 61 38
35 40 28
51 48 34
53 44 36
69 56 83
53 44 30
213 213 142
70 55 38
44 38 28
173 103 51
69 56 37
28 28 20
35 32 22
63 47 34
55 49 38
32 32 23
38 41 55
27 27 19
52 65 33
40 40 27
28 28 20
27 27 19
66 75 47
27 27 19
29 29 21
34 34 24
45 56 31
33 36 25
106 84 47
43 37 26
66 80 39
64 64 35
72 123 57
31 35 22
37 34 23
69 49 36
28 28 20
27 27 19
47 39 27
63 50 31
137 73 50
94 53 48
47 36 29
60 65 35
23 23 17
69 84 35
29 29 21
56 45 31
190 255 90
47 60 32
102 91 40
46 38 26
64 84 49
24 24 18
43 36 30
24 24 18
44 55 38
63 63 38
64 59 37
24 24 18
65 102 58
44 60 38
45 39 24
48 67 55
161 161 109
47 37 38
60 48 33
33 42 23
20 20 15
42 54 37
33 44 23
32 27 18
21 21 15
17 17 11
18 18 13
36 46 25
26 23 32
17 17 13
16 16 12
62 46 26
16 11 19
26 40 33
27 33 43
63 76 59
21 27 34
16 25 27
32 41 35
17 29 29
29 38 42
31 74 45
12 18 21
50 74 57
13 20 22
13 20 23
42 78 57
14 21 23
20 31 28
37 52 37
15 23 23
17 26 28
25 37 33
43 43 45
21 40 40
21 39 33
45 62 46
26 33 39
13 19 22
50 57 70
35 63 65
13 20 22
66 67 79
61 95 67
26 33 31
33 39 34
13 20 23
20 36 34
32 62 51
17 31 26
133 255 141
34 40 39
13 20 22
31 39 31
25 50 50
21 41 34
14 19 19
35 85 65
163 245 245
12 18 20
17 32 28
36 43 54
61 89 64
24 37 27
32 33 37
49 91 79
63 79 68
17 26 29
27 35 35
2 2 5
2 2 5
92 52 38
43 25 29
20 13 15
26 17 19
32 19 21
42 34 22
18 12 13
41 23 32
56 25 32
113 56 72
32 21 19
19 12 14
44 29 26
30 20 21
20 13 15
49 44 33
68 32 39
46 31 24
21 14 15
24 16 17
34 19 19
48 43 31
39 30 24
20 13 15
40 22 24
21 14 15
52 27 36
34 19 23
36 27 29
21 14 15
38 34 28
20 13 15
21 14 16
99 53 37
20 13 15
20 13 14
30 22 19
65 35 47
25 15 15
85 56 43
247 165 165
204 136 136
20 13 14
42 25 24
19 13 14
109 65 54
24 15 32
30 20 36
30 16 18
34 33 22
36 46 24
11 17 11
15 22 16
12 19 14
19 30 20
33 81 44
14 21 15
24 46 32
35 55 34
14 21 15
30 45 25
20 34 17
17 25 18
15 28 27
164 247 164
38 44 27
13 20 15
43 44 32
19 29 20
15 21 24
42 77 38
56 66 34
28 39 26
16 24 17
26 32 22
13 20 15
25 34 26
46 86 32
27 47 26
21 31 18
14 21 15
27 52 36
18 26 26
21 38 24
45 48 41
23 35 24
14 21 15
17 26 19
22 43 29
19 25 17
135 203 135
22 30 30
37 49 37
14 21 15
31 61 27
19 34 24
23 44 30
35 42 28
166 249 166
21 32 33
60 88 42
27 35 21
36 54 32
31 43 23
45 67 35
27 34 24
14 21 16
23 31 19
41 56 34
26 43 22
27 44 23
14 21 16
43 87 49
26 47 25
34 44 28
14 21 16
21 39 27
22 41 29
45 57 33
106 163 77
13 20 15
14 21 15
90 115 47
47 61 32
13 20 15
37 46 38
23 35 20
33 44 30
13 19 14
30 65 36
29 33 20
13 19 14
24 32 20
40 46 41
27 34 48
46 103 45
12 18 14
16 29 20
17 26 18
26 51 35
57 91 33
43 75 38
25 33 23
49 54 43
11 17 13
24 44 29
23 38 25
22 34 23
24 47 33
42 52 24
62 56 39
13 20 15
33 37 24
21 39 27
28 33 23
83 92 54
16 29 17
56 80 57
11 17 13
45 24 25
16 10 12
41 36 35
17 11 13
16 10 12
22 15 16
18 12 13
45 40 32
44 23 31
39 22 23
26 21 18
24 16 17
247 164 164
34 20 20
20 14 21
43 32 25
19 13 14
40 30 24
23 15 16
20 13 35
34 29 24
71 39 31
18 12 13
38 36 27
20 13 15
38 25 21
57 54 38
40 30 24
21 14 15
30 17 17
20 13 15
75 35 47
49 35 24
57 31 28
80 53 40
37 34 24
28 21 22
249 166 166
171 144 59
29 22 19
22 14 16
73 49 40
22 14 16
50 27 33
38 25 23
51 44 39
44 26 24
23 15 17
21 14 15
101 38 59
22 15 16
23 15 17
68 48 36
76 33 40
36 27 25
22 15 16
236 157 109
81 75 45
22 14 16
23 15 17
60 31 31
79 35 40
52 27 25
29 20 41
23 15 16
24 16 17
46 40 28
251 167 167
50 30 33
41 34 28
44 26 23
28 17 26
55 46 32
36 20 21
60 53 35
255 118 118
24 16 17
23 15 17
45 30 25
48 46 30
40 33 34
62 32 38
23 15 17
23 15 17
25 16 18
33 22 25
48 25 27
23 15 18
67 48 33
250 167 167
56 55 38
128 66 66
86 67 43
29 29 20
46 56 38
30 30 21
53 44 30
28 28 20
35 41 24
46 39 27
39 51 32
29 29 21
35 32 25
28 28 20
28 28 20
54 68 39
26 26 19
55 70 29
77 66 39
37 33 23
68 76 41
28 28 20
43 48 31
54 62 41
34 36 24
49 60 33
61 62 38
28 28 20
86 63 38
65 93 40
27 27 20
61 50 33
74 50 39
27 27 19
49 46 36
90 71 58
28 28 20
61 77 40
38 38 26
46 57 36
33 33 21
50 42 29
70 73 43
123 71 53
50 63 31
38 35 29
35 41 43
30 34 21
43 36 25
86 78 44
36 39 25
27 27 19
51 65 30
25 25 18
36 43 25
81 94 46
81 85 44
53 38 28
29 33 22
22 22 16
27 27 27
33 35 31
22 22 16
50 62 33
77 59 34
69 69 144
31 31 35
94 50 32
22 22 16
172 165 114
63 83 47
22 22 19
40 33 23
72 104 38
52 37 25
20 20 15
69 51 47
36 44 25
38 47 33
17 17 13
112 139 58
19 19 14
246 246 164
27 27 19
23 23 16
27 27 19
27 23 16
42 30 19
32 57 22
21 21 28
78 56 32
17 17 13
38 20 33
45 56 56
53 72 53
22 34 30
46 52 55
12 18 20
52 73 58
22 30 30
14 21 23
52 83 57
44 52 47
22 33 38
76 90 62
20 30 27
25 31 31
12 19 21
164 170 246
50 109 51
72 71 58
29 43 33
17 26 28
14 21 23
14 21 23
23 35 29
28 37 37
67 71 114
47 53 47
22 29 35
25 37 46
12 18 18
12 18 21
67 88 80
23 49 39
15 23 25
37 59 44
32 53 42
42 64 49
12 19 21
12 19 21
39 57 42
22 28 26
13 20 22
25 50 40
25 32 32
35 54 63
52 49 51
22 30 30
26 39 32
22 24 27
49 77 54
20 30 32
52 71 87
38 55 50
2 2 5
2 2 5
2 2 5
2 2 5
2 2 5
2 2 5
2 2 5
2 2 5
2 2 5
66 40 46
63 39 35
23 15 15
31 20 22
26 17 17
37 28 24
46 34 24
33 20 18
37 20 22
29 19 18
27 21 21
46 35 36
19 13 14
26 19 17
53 35 38
20 13 15
20 13 15
20 13 15
32 19 19
74 49 38
60 44 47
38 21 27
51 34 27
20 13 15
76 46 33
77 72 43
78 53 40
20 13 15
32 23 19
21 15 21
46 58 38
20 13 15
50 44 29
37 31 23
118 97 58
80 46 35
31 25 21
55 32 25
44 30 37
19 13 14
31 20 17
17 11 13
18 12 13
28 22 19
183 164 117
56 37 29
33 22 18
11 16 14
13 20 14
12 19 14
12 19 14
22 27 23
34 52 28
28 34 29
44 60 26
22 28 23
14 21 15
36 54 28
14 22 16
23 29 20
15 22 16
34 41 36
38 57 30
41 47 35
27 40 22
23 32 19
13 20 15
48 87 51
22 27 18
14 21 15
30 40 27
48 57 31
14 21 16
24 36 21
14 21 15
61 97 40
14 21 16
24 30 25
41 55 49
14 21 16
173 255 120
36 43 29
13 20 15
75 75 65
14 21 15
16 25 18
14 21 15
29 35 21
17 26 19
13 20 15
19 29 20
14 21 16
37 56 26
27 36 24
69 105 44
28 33 21
35 44 37
40 82 34
29 36 29
22 40 28
163 169 81
19 29 17
21 45 22
49 44 34
65 85 41
65 50 39
36 52 26
28 57 27
24 30 21
51 72 46
28 48 37
13 20 15
57 61 51
14 21 15
23 43 30
164 247 164
45 52 43
13 20 15
54 82 41
34 74 40
14 21 15
13 20 15
25 38 21
13 19 14
22 33 22
12 18 13
70 88 40
25 31 21
46 47 36
25 31 27
17 23 16
25 31 26
13 20 14
30 46 25
24 34 21
28 56 35
58 57 51
22 27 18
52 64 49
62 60 30
11 17 13
11 17 13
15 27 19
33 54 27
27 41 22
24 29 20
12 19 14
163 245 163
49 62 56
29 43 23
27 67 33
106 226 104
21 26 18
25 41 23
146 152 104
35 106 55
27 26 18
30 16 16
57 27 21
153 51 79
27 18 19
29 19 17
25 20 17
99 59 43
85 36 27
19 13 14
24 16 17
35 31 32
34 18 22
48 39 43
246 164 164
40 42 31
18 12 13
52 31 25
37 17 31
20 13 14
34 28 23
38 32 26
31 25 21
21 14 15
39 30 30
33 23 22
68 46 38
21 14 38
22 15 16
68 40 30
63 51 34
37 25 23
107 93 66
139 60 61
22 14 16
46 33 41
42 39 30
105 54 36
21 14 15
209 139 139
33 26 23
22 15 16
71 36 53
25 17 18
46 25 24
36 22 27
94 57 67
41 34 28
35 22 28
58 47 29
23 15 16
21 14 16
25 16 18
30 20 21
48 34 29
35 23 21
81 54 42
31 24 21
57 43 30
42 24 30
23 15 17
22 15 16
54 54 41
61 35 30
53 35 29
74 41 45
22 15 16
23 15 17
75 50 110
23 15 17
30 20 21
23 15 16
45 24 31
22 15 16
250 166 166
23 15 17
59 28 31
23 15 17
33 24 24
56 49 34
33 26 27
23 15 17
81 174 88
32 19 22
24 16 17
30 20 20
23 15 16
145 149 62
76 51 64
23 15 17
23 15 17
49 60 33
162 165 79
175 250 166
75 63 42
92 65 49
48 40 28
29 29 21
77 69 34
115 74 92
27 27 20
48 66 36
49 57 33
53 66 33
28 28 20
29 29 21
34 34 24
28 28 28
83 123 79
70 58 34
68 95 38
36 32 22
31 30 35
50 42 26
36 36 25
39 53 32
79 116 56
42 51 29
111 82 46
27 27 19
54 44 37
60 42 30
217 217 144
69 57 43
27 27 20
27 27 20
81 75 40
26 26 19
58 54 34
59 47 32
27 27 19
46 68 39
44 38 26
54 44 30
100 80 47
27 27 19
40 45 25
44 54 30
49 40 26
25 25 18
55 65 45
58 80 37
41 51 34
62 71 42
25 25 18
26 26 18
32 36 25
37 32 22
51 35 29
25 25 18
23 23 17
43 54 37
38 35 22
92 57 44
59 98 38
61 65 29
50 54 33
46 46 40
36 43 24
65 65 136
22 22 16
75 81 44
67 92 38
48 60 40
55 43 29
20 20 15
187 95 63
41 33 23
167 118 78
34 28 20
17 17 11
19 19 13
33 42 21
33 40 23
19 19 14
29 35 25
17 17 13
24 29 17
80 113 46
30 39 19
55 79 29
49 67 30
24 14 27
11 16 18
171 255 126
32 62 39
34 40 43
148 156 154
42 50 76
20 32 32
20 25 30
88 105 80
35 36 45
29 34 35
12 19 21
23 29 35
12 18 21
34 47 80
72 98 71
37 49 49
24 45 37
36 48 41
62 58 79
13 19 22
33 40 46
150 163 229
13 20 22
22 43 34
25 43 34
20 30 30
13 20 22
54 57 43
42 55 71
10 16 16
12 19 21
11 17 19
40 53 46
31 42 44
33 45 38
15 27 27
69 72 67
89 106 83
37 72 64
24 46 37
62 64 73
11 17 19
66 59 59
11 17 19
66 67 54
28 33 42
40 46 57
24 36 36
2 2 5
2 2 5
2 2 5
2 2 5
2 2 5
255 255 255
255 255 255
2 2 5
2 2 5
2 2 5
2 2 5
2 2 5
2 2 5
72 60 51
73 40 48
34 22 24
37 24 22
38 28 28
79 38 46
19 12 14
100 41 40
202 135 135
24 16 17
19 12 14
79 61 44
18 12 13
20 13 15
34 28 29
19 12 14
24 18 19
64 36 42
33 23 20
32 21 19
191 100 94
73 30 38
32 18 18
19 13 14
23 16 24
42 23 27
56 37 30
205 136 136
41 31 23
34 19 19
37 24 27
77 51 34
79 66 35
171 166 166
54 32 27
19 12 14
37 20 20
246 164 164
38 33 33
58 47 30
49 39 25
75 54 38
17 11 13
18 12 13
18 12 13
17 11 11
36 55 29
12 18 14
24 43 29
15 22 23
30 46 25
13 19 14
18 28 17
30 41 22
20 26 18
25 49 23
53 63 49
32 54 25
47 95 30
20 23 61
42 50 35
15 22 16
164 247 164
40 64 30
26 32 22
24 30 21
13 20 15
14 21 15
20 31 24
47 72 35
40 73 27
13 20 14
42 53 32
13 20 14
164 246 164
14 21 16
33 47 25
24 42 26
73 99 79
35 53 28
14 21 16
48 73 38
18 24 20
82 93 45
20 36 21
35 41 28
31 38 32
35 42 36
15 22 16
23 40 23
27 40 23
14 22 16
16 24 17
37 41 28
42 53 42
42 44 29
41 52 29
26 46 26
35 57 39
16 25 17
54 124 44
71 202 62
13 19 14
15 22 16
25 31 21
32 34 23
39 58 30
32 49 27
20 31 21
13 19 14
165 247 165
44 78 31
13 20 15
20 26 18
35 50 27
31 37 28
60 73 34
44 93 49
29 44 25
36 50 28
158 163 109
12 19 14
13 19 14
21 27 19
47 50 29
57 61 45
12 18 14
36 48 32
20 25 17
35 72 48
12 18 13
27 43 24
60 86 42
32 40 23
19 28 19
30 45 27
25 43 22
32 68 27
17 31 21
47 52 49
25 48 27
11 17 13
63 68 36
60 50 32
28 33 23
29 57 26
65 105 52
11 17 13
11 16 12
17 24 28
20 25 17
69 73 62
45 68 42
48 58 41
136 204 136
15 10 11
31 18 18
38 25 21
28 18 18
40 30 22
22 14 15
17 11 13
32 25 27
31 30 25
16 11 12
17 11 13
133 59 33
64 47 31
22 17 15
21 14 15
19 12 14
19 12 14
47 23 27
63 31 43
18 12 13
69 83 40
35 29 31
45 29 22
57 29 39
36 22 22
51 34 27
31 20 20
25 15 24
161 104 151
65 42 33
20 13 14
21 14 15
23 15 15
248 165 165
55 54 32
120 61 50
27 18 30
49 32 27
38 31 26
21 14 16
84 43 52
20 13 15
39 34 26
21 14 15
24 16 17
68 34 43
21 14 16
40 33 27
45 42 39
50 29 25
43 36 29
80 75 36
27 18 19
22 14 16
24 16 17
62 59 47
50 49 44
83 46 61
23 15 16
91 42 54
66 33 45
22 14 16
23 15 16
34 27 28
157 87 60
41 23 29
55 30 31
35 19 20
22 14 16
111 91 53
22 15 16
33 22 19
22 14 16
23 15 17
57 31 38
44 37 36
107 38 43
98 53 41
86 57 43
131 63 59
23 15 17
52 30 33
35 20 21
28 18 20
39 24 21
177 171 118
43 31 31
61 42 42
56 49 32
23 15 17
23 15 17
29 29 21
28 28 20
40 40 28
40 36 51
60 48 32
169 165 81
51 64 44
28 28 20
216 87 144
42 51 29
66 55 34
91 57 40
65 74 35
25 25 16
69 65 37
28 28 20
63 101 81
41 37 23
216 154 65
44 61 50
38 35 24
39 39 25
37 37 25
34 34 24
43 46 28
55 45 31
27 27 19
32 32 22
39 47 26
27 27 19
27 27 19
47 40 27
92 62 44
27 27 19
26 26 19
69 91 42
42 37 25
49 40 34
57 44 29
43 37 25
25 25 18
67 77 40
32 32 22
26 26 19
171 167 159
34 39 27
140 109 47
46 61 32
56 45 30
37 41 28
251 251 167
44 55 30
43 54 36
23 23 17
77 57 34
34 31 37
51 41 28
63 67 51
55 70 37
43 35 34
43 66 29
32 32 23
28 28 20
26 26 18
62 56 42
28 28 20
23 23 17
20 20 15
20 20 14
57 88 41
59 56 35
33 36 24
45 38 39
21 21 15
29 29 20
24 23 21
54 47 35
25 25 18
26 25 27
21 21 15
22 22 14
22 22 16
137 75 51
22 26 28
49 60 31
39 51 27
18 18 13
49 54 24
40 45 26
15 15 11
15 10 17
163 245 245
19 27 24
24 36 29
39 54 54
26 40 33
36 54 42
23 28 30
11 17 20
31 34 41
25 35 35
25 27 34
24 31 31
19 24 28
21 38 35
49 41 46
23 29 33
16 24 26
12 18 21
43 102 47
12 19 21
42 94 82
95 112 68
11 17 20
13 20 22
12 18 20
45 45 45
12 18 21
21 40 40
23 35 29
13 19 21
12 19 21
20 36 29
27 43 36
24 34 42
29 35 44
28 38 36
12 18 21
46 56 69
48 72 54
37 82 51
33 51 33
11 16 19
23 28 30
25 29 31
39 50 43
11 17 19
31 39 37
170 255 255
59 92 70
2 2 5
2 2 5
2 2 5
2 2 5
255 255 255
255 255 255
255 255 255
255 255 255
2 2 5
2 2 5
2 2 5
2 2 5
2 2 5
2 2 5
2 2 5
130 73 75
33 22 23
62 38 32
54 33 33
253 168 168
17 11 13
245 163 163
35 19 23
18 12 14
29 19 17
84 45 72
32 27 27
101 50 39
36 31 44
255 127 89
18 12 13
97 38 33
41 35 32
66 44 34
20 13 15
19 13 14
19 12 13
19 12 14
83 36 44
27 19 17
33 24 20
19 12 14
139 56 47
19 12 14
42 28 23
24 19 27
44 33 29
23 15 15
19 12 14
19 13 14
18 12 14
17 11 13
18 12 13
45 34 23
23 18 15
31 23 57
31 19 20
18 12 13
41 52 40
15 10 12
41 62 32
38 43 39
15 26 24
17 25 18
52 62 60
10 15 12
11 17 13
41 61 32
136 204 136
34 38 25
20 30 34
13 20 14
113 201 110
37 48 29
25 31 26
20 25 21
13 20 15
14 21 15
17 25 21
25 31 26
40 66 33
27 40 21
14 21 15
79 78 59
32 44 25
42 64 34
65 84 55
89 129 56
13 20 15
31 70 46
14 22 16
50 40 36
13 20 14
30 37 29
15 22 16
30 32 34
17 26 19
25 42 23
13 19 14
137 206 95
14 21 15
16 22 15
14 22 16
91 88 63
13 20 14
13 20 15
13 20 15
15 23 16
13 19 14
13 20 15
20 27 18
42 60 45
13 20 14
34 43 38
30 36 25
34 46 34
22 38 20
26 32 22
13 20 15
54 82 41
68 54 42
13 20 15
13 19 14
41 47 89
47 53 30
28 62 40
13 19 14
25 34 20
86 102 51
29 56 38
163 123 118
16 24 16
30 56 34
23 44 30
13 20 14
13 20 14
164 246 164
12 19 14
78 107 51
35 52 28
13 20 15
19 33 31
21 29 19
12 18 14
12 19 14
43 50 41
28 38 24
12 18 14
27 57 36
27 47 28
19 29 20
129 106 53
25 29 19
17 31 22
11 17 13
49 66 31
36 54 28
27 40 23
40 60 31
26 32 19
29 35 21
30 40 23
33 47 24
36 42 24
21 41 27
11 17 13
11 16 12
50 62 37
31 34 20
30 22 16
20 13 15
52 26 36
18 12 13
23 18 16
186 75 53
82 55 41
33 18 18
16 11 12
53 40 29
67 38 33
18 12 13
246 164 164
42 22 29
61 34 35
26 19 17
30 17 36
68 58 37
48 24 24
18 12 13
246 164 164
81 43 38
52 29 23
28 19 20
77 42 38
50 38 29
41 37 27
35 29 30
32 26 22
41 22 29
20 13 15
19 13 18
20 13 15
43 28 24
45 31 35
31 25 26
80 53 40
43 28 24
48 25 33
25 18 17
61 47 43
22 15 21
35 28 30
22 14 16
21 14 15
20 13 15
31 18 22
55 37 30
34 22 21
41 22 28
64 34 37
22 15 16
88 67 48
23 15 17
43 31 25
37 21 21
37 27 29
22 15 16
69 39 34
23 15 17
35 23 20
66 37 37
37 21 37
62 34 40
32 23 22
68 56 45
42 35 26
42 23 29
56 29 37
40 23 23
63 42 33
22 15 16
27 20 20
48 36 29
63 31 37
60 35 28
38 25 22
34 22 23
22 15 16
69 46 31
67 47 40
91 49 43
26 17 27
53 49 46
63 47 66
23 15 16
91 34 39
77 37 35
22 15 16
52 45 44
86 63 37
115 90 50
90 72 43
28 28 20
88 119 49
28 28 20
53 44 33
255 156 136
27 27 20
34 38 23
180 255 120
27 27 19
27 27 19
45 51 30
31 31 34
40 38 45
26 26 19
29 29 29
47 58 40
27 27 20
31 31 29
93 81 49
38 45 26
48 41 28
26 26 19
73 125 52
46 60 31
45 41 23
64 73 38
54 44 30
34 39 23
26 26 19
58 79 53
31 31 22
26 26 19
27 27 19
27 27 19
29 31 37
52 62 31
241 168 112
30 30 23
24 24 18
72 50 38
38 46 26
25 25 19
46 60 33
28 28 20
84 60 35
31 30 35
43 43 27
51 47 25
23 23 17
26 26 19
49 39 31
93 115 51
209 209 139
61 45 44
48 39 33
47 56 33
25 25 17
39 32 22
49 44 29
60 86 48
54 71 43
44 64 31
45 52 27
44 52 35
21 21 15
55 65 49
45 62 41
44 36 25
160 165 154
21 21 15
51 46 37
49 37 24
22 22 15
34 29 19
39 45 26
49 72 35
48 37 25
20 20 15
36 30 25
42 55 35
21 21 15
42 34 23
51 38 49
16 16 13
104 60 44
171 177 80
26 32 18
17 17 13
161 167 77
115 70 86
11 17 19
11 17 19
11 16 19
11 16 19
12 18 21
15 23 24
29 32 38
45 50 62
12 18 20
53 92 58
42 40 44
164 246 246
12 18 21
40 55 81
33 40 40
17 32 32
53 85 52
27 36 34
30 37 40
31 55 55
154 232 160
12 18 20
11 17 19
32 57 57
27 33 41
25 50 40
36 40 40
32 56 65
26 31 39
11 17 20
16 24 24
11 17 19
25 31 40
11 17 19
24 45 37
11 17 20
11 17 19
39 54 42
163 245 245
32 54 37
31 65 69
28 33 33
33 52 38
40 42 36
11 16 18
59 68 77
27 18 29
42 28 42
2 2 5
2 2 5
2 2 5
2 2 5
2 2 5
2 2 5
2 2 5
2 2 5
255 255 255
2 2 5
2 2 5
2 2 5
2 2 5
2 2 5
2 2 5
2 2 5
92 64 67
129 69 75
27 18 20
56 47 61
24 16 16
20 13 15
27 18 16
40 21 24
34 25 25
50 30 40
57 51 33
26 19 19
135 70 44
54 29 39
242 161 111
18 12 14
32 30 21
18 12 13
84 56 42
19 13 14
29 23 23
18 12 14
19 13 14
18 12 13
33 18 17
35 19 19
26 20 27
19 12 14
21 14 14
19 12 14
43 40 31
57 52 31
65 58 27
70 41 30
88 58 43
18 12 13
156 86 62
86 49 68
18 12 13
17 11 12
35 23 19
45 32 36
110 64 44
53 37 29
12 19 28
51 77 30
13 19 14
62 61 55
19 29 17
32 40 27
14 22 16
42 66 32
12 18 14
48 72 36
30 39 35
22 35 25
13 19 14
28 48 32
29 43 23
13 21 17
31 56 29
36 72 30
32 55 43
41 81 44
16 25 24
24 33 22
15 23 16
39 45 41
43 57 34
27 41 23
31 37 25
13 20 15
13 20 15
24 45 30
25 29 18
13 20 15
25 31 21
44 54 39
41 82 35
52 90 44
14 21 15
34 40 27
32 46 25
51 53 42
13 19 14
21 30 20
64 76 40
13 19 14
53 42 26
12 18 15
57 46 53
24 30 21
15 23 23
18 27 17
47 66 36
23 29 20
17 26 19
44 56 36
20 26 18
31 65 39
54 63 44
18 27 19
15 23 16
164 247 164
159 165 159
23 35 20
12 19 14
11 17 13
71 92 53
13 19 14
23 28 20
52 67 34
22 28 19
21 32 19
36 58 29
12 18 14
22 28 19
13 19 14
23 29 20
12 19 14
29 37 24
12 18 13
44 38 27
15 22 16
30 37 25
20 37 20
41 47 94
51 49 38
12 18 13
54 73 41
32 48 26
18 33 21
14 22 22
11 17 13
12 19 14
16 25 18
38 40 27
30 38 22
21 26 18
17 24 16
34 43 28
44 49 32
49 63 31
28 48 24
11 17 13
33 67 38
26 42 30
109 154 55
11 16 12
18 30 41
23 28 19
29 34 31
12 18 13
29 23 19
22 14 16
23 19 16
32 33 23
16 11 12
16 11 12
73 36 35
15 10 11
18 12 13
63 37 28
16 10 12
18 12 13
31 20 29
26 17 16
62 30 38
87 60 39
17 11 17
245 163 163
21 13 20
54 51 33
38 30 26
24 14 14
22 14 15
73 48 37
54 36 29
19 13 14
38 25 21
20 13 14
247 164 164
28 17 18
28 18 30
20 13 15
83 40 40
19 13 14
31 26 27
34 29 22
20 13 15
77 51 39
57 30 38
20 13 15
42 35 23
22 14 16
20 13 14
19 12 12
37 20 26
236 112 109
255 87 124
53 47 42
71 58 37
35 19 19
26 17 17
50 22 25
34 25 23
22 14 16
22 15 16
84 56 43
74 44 39
74 68 43
28 18 20
45 30 25
22 15 16
23 15 17
41 34 25
34 19 24
25 16 18
23 15 17
29 19 20
61 45 51
62 36 32
37 30 23
45 43 33
39 26 21
43 27 22
68 45 36
48 41 39
22 15 16
32 25 22
55 55 49
49 25 33
171 164 114
32 25 22
24 16 17
88 56 42
27 20 19
55 29 38
41 34 28
42 35 29
55 26 32
54 40 30
89 56 52
31 23 24
101 90 40
50 54 28
44 39 25
61 43 34
50 42 28
255 179 119
38 34 23
27 27 19
255 146 98
26 26 19
47 40 32
61 55 38
48 41 28
43 52 29
50 55 34
41 46 31
27 27 19
43 53 30
49 78 48
72 109 45
116 110 65
62 48 41
27 27 20
27 27 20
33 38 23
25 25 18
39 45 32
146 197 72
27 27 19
93 82 44
123 81 64
27 27 20
93 72 42
79 70 43
41 49 28
38 46 26
31 34 21
25 25 18
45 40 27
39 41 24
37 37 23
28 28 20
63 46 33
29 29 30
33 33 23
31 31 24
25 25 18
60 76 34
23 23 19
40 49 27
55 44 35
22 22 16
21 21 16
68 71 31
25 25 18
43 55 40
69 44 31
55 45 35
45 57 39
23 23 17
28 28 20
23 23 17
51 46 25
99 54 42
46 44 29
51 37 27
82 64 37
29 29 20
245 245 163
71 41 38
59 43 30
22 22 16
21 21 15
19 19 14
36 46 25
80 68 31
21 21 15
173 250 115
20 20 14
41 53 28
28 34 19
60 49 36
50 78 38
18 18 14
101 60 46
46 65 46
24 24 16
23 28 22
25 29 17
41 32 22
21 26 18
21 17 25
10 16 18
104 215 156
45 91 55
23 44 44
34 45 39
76 109 77
11 17 19
11 16 18
11 16 19
25 32 38
19 29 25
64 62 75
16 24 21
23 34 35
30 41 35
49 54 46
18 27 23
27 29 29
39 58 55
19 29 27
35 36 40
34 33 40
14 22 23
11 17 19
24 29 33
11 17 19
24 33 33
17 22 24
33 42 55
39 56 42
11 17 19
42 57 47
21 30 25
152 157 157
11 17 20
11 17 19
15 22 24
18 34 34
19 25 25
35 53 37
19 37 31
14 25 25
26 36 49
31 59 47
32 42 37
48 36 43
44 29 44
57 38 59
2 2 5
2 2 5
2 2 5
2 2 5
2 2 5
2 2 5
2 2 5
2 2 5
2 2 5
2 2 5
2 2 5
2 2 5
2 2 5
48 61 48
42 74 49
45 52 41
18 27 19
62 41 33
25 16 16
26 17 19
24 16 18
21 14 15
35 30 32
63 43 49
71 39 50
54 31 24
52 28 37
33 28 28
17 11 13
17 11 13
51 39 32
58 42 46
25 17 14
27 15 15
17 11 13
92 37 55
51 26 31
19 12 14
37 31 42
47 26 33
108 77 55
20 13 35
36 24 21
54 50 32
25 20 17
18 12 13
59 32 39
37 24 21
17 11 13
74 45 32
32 31 24
28 18 18
17 11 13
57 38 26
32 23 21
96 56 41
34 29 21
64 43 32
38 56 27
64 37 29
31 42 22
25 44 33
19 28 17
13 19 14
43 42 34
58 55 55
13 20 14
11 16 13
33 66 38
12 19 14
21 26 22
62 55 53
20 25 21
14 22 16
25 33 24
52 48 44
12 18 13
22 33 20
45 84 30
17 26 16
13 20 14
54 53 42
17 24 29
56 58 56
23 40 23
45 68 35
12 18 13
18 26 17
23 41 24
23 32 17
34 44 38
164 246 164
15 24 16
25 42 21
12 19 14
24 46 32
26 49 33
32 48 34
23 40 23
13 20 15
41 52 34
12 18 13
15 22 24
88 93 50
35 40 36
23 42 29
13 19 14
38 44 39
13 20 14
16 24 17
14 19 21
13 19 14
13 20 15
13 19 14
14 21 15
13 20 14
17 23 16
18 23 15
48 85 55
13 20 15
13 20 14
36 42 29
38 60 33
15 23 16
31 54 36
59 72 49
32 43 29
17 23 19
16 24 17
155 160 155
20 30 21
12 18 13
26 36 21
25 37 20
12 19 14
55 57 46
17 26 18
29 48 40
32 37 25
41 62 32
12 18 14
19 34 24
47 46 25
19 42 25
16 28 17
14 19 22
61 100 44
73 103 51
69 127 61
12 18 14
12 18 13
42 64 32
15 23 16
30 50 41
75 98 48
48 71 30
11 17 12
16 24 17
67 85 43
11 17 12
11 17 13
9 14 9
11 17 12
44 49 32
14 22 16
18 23 16
21 26 18
11 16 12
17 25 18
31 35 23
46 55 43
56 61 31
65 55 45
16 11 12
61 51 36
50 40 26
22 14 16
20 13 15
33 24 24
57 41 42
48 35 27
27 19 18
39 34 31
31 20 18
244 162 162
25 17 18
43 32 29
34 18 23
18 12 13
19 12 14
26 17 18
36 22 22
76 40 48
23 15 16
52 43 46
57 29 32
50 39 30
40 26 22
41 28 24
32 24 26
33 27 22
44 38 33
76 40 33
20 13 15
50 33 27
42 20 28
51 34 29
54 36 28
20 13 15
52 38 39
60 30 41
38 25 22
94 62 47
24 16 17
59 33 41
54 36 29
37 21 26
93 88 47
53 41 47
22 14 16
52 30 27
35 29 30
204 136 136
22 14 16
22 15 16
47 53 47
22 14 15
23 15 16
63 32 43
24 16 16
44 26 33
21 14 16
32 25 22
22 14 16
23 15 16
23 15 17
22 15 16
29 19 20
89 46 40
21 14 15
21 14 15
163 78 61
22 14 16
22 15 16
33 26 23
56 29 38
70 30 57
33 26 27
34 22 20
250 166 166
22 15 16
39 29 26
41 33 34
63 30 40
62 46 32
25 16 24
23 15 16
23 15 16
207 138 138
23 15 21
153 255 95
52 99 42
33 33 23
33 33 23
43 46 31
174 176 84
27 27 19
27 27 20
38 34 23
41 51 27
36 36 25
27 27 19
118 65 66
30 32 20
27 27 19
33 30 20
46 64 40
40 48 27
46 52 30
25 25 18
44 37 26
42 36 29
29 29 20
116 79 64
26 26 19
32 36 25
40 41 23
27 27 18
62 55 31
31 35 21
25 25 18
40 49 34
39 43 49
52 59 29
54 52 31
34 34 24
26 26 19
55 83 43
35 35 24
40 65 54
90 65 39
79 63 48
51 40 33
40 49 26
32 32 22
35 30 21
34 43 37
32 32 28
24 24 17
44 55 30
26 26 24
56 56 57
22 22 16
59 38 25
47 43 31
24 24 17
45 51 32
25 25 18
21 21 15
54 59 29
74 93 38
80 85 47
36 28 21
25 25 29
26 26 17
22 22 16
29 34 20
21 21 15
19 19 14
28 28 33
22 22 16
49 40 24
59 48 31
22 22 16
56 90 30
76 109 44
128 100 47
38 38 22
30 36 21
19 19 14
19 19 14
18 18 13
38 50 26
61 106 49
63 36 27
30 38 26
17 17 13
244 244 163
70 51 29
205 205 136
19 21 19
14 9 16
13 19 23
19 23 30
19 35 35
10 16 18
25 28 28
10 15 17
46 44 97
20 31 25
10 16 18
25 30 40
67 86 60
32 35 45
34 42 52
30 52 38
17 22 22
19 36 30
23 30 30
11 17 20
11 17 19
29 43 35
31 31 40
18 30 32
11 17 20
50 66 49
56 86 68
12 19 19
30 39 38
12 18 20
17 28 28
19 29 26
137 205 205
20 35 32
11 17 19
39 90 56
20 28 34
15 22 30
18 27 29
25 38 57
11 17 19
11 17 19
16 24 26
10 15 17
109 159 229
45 26 39
35 27 41
36 24 39
255 179 255
42 28 44
1 1 7
86 77 51
77 77 53
80 80 55
2 2 5
2 2 5
2 2 5
2 2 5
2 2 5
2 2 5
2 2 5
2 2 5
2 2 5
60 70 54
28 42 29
43 65 35
36 54 29
61 40 43
25 16 16
21 14 15
42 28 23
31 21 18
36 19 24
116 62 65
17 11 12
16 11 12
45 23 23
24 16 17
203 135 135
50 26 26
43 56 39
22 14 15
245 163 163
57 38 29
27 15 18
39 31 30
17 11 13
67 35 56
54 27 38
27 20 18
43 26 47
44 32 39
28 17 17
17 11 13
61 25 29
56 28 37
50 36 24
25 20 17
23 18 19
28 15 15
75 32 36
22 15 16
45 32 24
149 45 53
39 34 22
16 11 12
20 13 14
30 20 17
63 37 30
66 64 48
31 39 21
30 36 32
11 17 13
13 19 16
15 23 16
21 31 18
37 42 38
41 62 36
20 38 20
30 35 24
31 45 23
26 33 20
12 19 14
36 61 29
32 59 25
12 19 14
56 56 49
34 70 29
75 96 42
30 50 26
19 29 20
13 20 15
29 51 26
45 55 30
91 95 44
14 21 15
14 21 16
26 40 22
45 81 38
34 33 22
13 19 18
18 27 19
11 17 11
33 50 27
12 19 14
13 20 14
31 40 24
34 46 32
27 30 27
13 20 15
30 51 26
14 21 21
59 88 44
54 79 42
178 136 130
15 23 17
12 18 13
13 20 14
57 85 43
13 20 15
39 71 32
76 72 57
54 64 58
44 83 38
65 55 32
13 19 14
13 20 18
30 50 23
26 41 27
37 72 42
12 19 14
17 26 35
25 49 31
12 18 13
30 40 30
18 27 16
29 33 22
78 59 38
79 80 61
15 23 16
12 18 14
21 32 18
69 60 49
20 25 20
32 41 29
35 42 33
12 18 13
18 35 22
55 57 40
12 18 13
34 46 47
58 78 43
72 51 28
25 38 20
49 74 37
12 18 13
20 30 16
17 25 41
55 70 37
12 18 13
11 17 13
11 17 12
12 20 18
62 57 30
11 17 13
11 17 13
25 30 18
33 40 23
34 39 25
12 18 12
20 39 27
46 57 25
20 25 17
37 59 41
30 36 30
11 16 12
52 97 34
18 22 16
28 33 19
49 46 38
17 11 13
71 42 35
26 22 18
28 15 19
43 28 26
16 11 12
82 53 38
53 20 23
22 15 16
50 28 24
17 11 12
49 27 26
67 48 36
19 13 14
38 33 34
18 12 13
18 12 13
73 47 31
52 30 34
43 38 32
36 31 27
25 19 17
62 31 43
19 13 14
53 31 26
19 12 14
161 72 44
68 45 46
26 19 32
32 20 18
43 32 27
108 46 39
19 12 14
35 30 25
42 28 22
20 13 15
21 14 15
43 34 38
20 13 14
44 29 26
24 16 17
37 46 27
39 33 25
21 14 15
50 55 41
24 16 28
89 36 62
47 26 32
75 45 37
29 23 20
58 50 63
58 32 42
83 57 47
40 34 25
22 14 16
26 20 17
22 14 16
34 31 25
40 40 38
116 70 48
21 14 15
25 19 18
23 15 17
68 45 32
22 14 16
22 14 16
32 18 18
249 166 166
33 22 33
59 34 47
22 14 16
60 34 32
67 38 31
36 26 27
31 20 22
64 34 35
52 45 30
68 45 36
22 15 16
22 14 16
24 16 17
32 25 22
59 50 31
22 15 16
21 14 15
207 138 138
22 15 16
26 17 19
54 28 37
117 73 42
40 35 24
27 27 19
27 27 19
77 54 29
38 35 25
26 26 19
55 58 35
71 63 42
33 33 23
156 113 65
44 37 26
59 69 47
32 32 22
55 71 39
78 97 59
36 36 25
75 59 37
32 32 22
48 41 27
25 25 19
50 41 28
87 53 36
63 50 32
52 44 29
26 26 22
27 27 19
26 26 19
94 100 50
33 29 20
78 70 67
33 33 22
56 56 31
43 48 30
25 25 18
44 52 25
252 252 168
90 62 45
43 36 25
45 56 34
51 71 34
71 77 45
111 82 45
28 28 19
42 37 29
96 61 43
45 38 31
74 47 36
33 29 23
39 33 23
59 60 35
23 23 17
23 23 17
58 58 37
47 39 26
28 31 27
22 22 16
54 75 50
42 52 36
63 51 53
20 20 14
23 23 16
45 36 25
83 78 47
30 30 18
22 22 16
58 65 33
41 37 49
44 35 30
62 76 32
44 35 24
38 30 21
35 43 30
29 29 20
19 19 14
52 41 36
29 29 49
19 19 14
19 19 14
25 25 18
18 18 13
74 63 41
73 72 33
42 33 23
48 37 25
64 69 35
17 17 13
83 58 29
54 66 36
18 18 13
17 17 12
44 38 37
30 16 24
43 45 61
20 39 39
24 48 38
157 115 165
10 16 18
72 91 64
11 16 16
25 32 32
28 39 42
25 29 38
32 62 41
27 32 57
25 49 37
54 57 68
15 22 24
50 80 58
17 25 27
11 17 19
23 28 37
11 16 19
10 15 18
23 28 35
20 34 36
19 26 26
11 16 19
21 32 51
44 42 49
15 22 24
10 16 18
33 42 42
11 16 18
16 26 37
74 118 71
10 16 18
162 243 243
45 109 80
23 39 32
13 22 22
26 31 32
43 40 47
40 54 73
19 41 31
27 38 34
20 13 22
57 30 45
49 32 42
42 28 42
76 46 37
9 7 39
64 64 44
104 134 93
95 87 63
56 56 39
2 2 5
37 37 26
2 2 5
2 2 5
2 2 5
2 2 5
2 2 5
79 107 67
19 29 23
38 49 38
34 52 29
18 27 18
167 251 167
27 51 34
37 37 28
28 22 19
20 13 15
16 11 11
46 25 25
72 30 32
30 23 19
42 28 22
22 17 15
23 18 16
43 36 29
17 11 13
15 10 10
29 22 19
23 18 18
24 19 20
28 16 16
84 51 40
18 12 12
82 51 56
52 30 38
22 13 13
17 11 13
17 11 13
20 13 21
15 10 10
28 19 17
34 26 25
26 21 17
20 13 14
42 51 41
17 11 13
21 14 15
42 30 29
79 43 31
21 16 15
38 25 21
38 25 21
34 35 29
15 10 12
55 26 31
28 51 22
21 35 23
29 40 21
12 18 13
19 32 20
14 21 15
21 42 19
31 50 24
12 18 13
12 18 13
138 207 138
14 21 15
21 40 28
37 43 39
14 20 37
52 71 36
13 19 14
19 28 16
12 17 14
44 58 27
21 28 21
12 18 13
107 232 155
45 43 37
29 53 23
12 19 14
12 19 14
20 33 20
15 23 17
26 32 26
29 38 23
157 167 77
21 29 18
165 247 165
44 54 29
32 37 33
21 29 17
13 20 15
43 54 35
71 72 45
52 52 43
15 22 23
13 19 14
33 42 27
35 43 30
52 91 45
28 53 25
13 19 14
13 19 14
49 53 34
13 20 14
69 106 53
28 32 28
56 65 31
33 39 23
22 30 20
33 53 30
14 21 15
169 128 123
18 24 17
54 61 42
33 75 35
17 26 16
31 46 27
15 23 16
60 66 36
26 48 23
26 50 34
22 28 19
48 72 39
77 105 56
30 70 41
22 43 35
12 18 13
29 54 27
46 168 40
24 37 21
22 29 22
34 51 27
25 40 20
44 62 31
37 69 45
41 38 23
11 17 13
155 233 107
13 20 15
73 100 49
52 54 42
16 22 15
12 18 13
26 51 23
52 85 50
16 21 18
20 46 26
20 34 20
22 29 19
15 25 18
19 24 17
19 26 20
34 51 29
11 17 12
32 49 25
35 35 26
11 17 12
24 28 20
13 20 15
42 47 37
33 38 21
19 23 16
21 17 15
55 31 23
15 10 11
23 18 15
49 38 33
35 34 26
27 22 19
183 87 62
17 11 13
44 32 30
16 10 12
142 92 58
23 18 16
17 11 13
58 37 32
27 15 15
38 34 24
37 32 26
41 27 22
65 42 36
56 34 26
19 14 22
18 12 13
15 10 10
65 66 37
27 18 19
52 49 49
56 44 29
27 22 19
247 120 113
37 28 30
35 30 24
25 17 18
19 13 14
21 14 16
72 54 41
241 115 81
47 23 31
68 57 44
38 29 28
29 16 16
38 25 22
67 57 35
113 81 112
90 65 45
40 22 26
20 13 15
24 17 17
21 14 15
99 67 51
39 26 22
21 14 16
100 51 54
77 56 45
84 30 41
21 14 15
36 30 25
20 13 15
38 31 31
255 98 74
21 14 15
20 13 15
78 61 43
53 43 39
48 41 34
75 46 38
64 42 33
98 63 40
28 18 20
37 25 23
63 68 43
39 26 22
23 15 17
59 39 32
74 44 37
78 55 35
33 19 22
21 14 15
114 80 55
108 41 54
38 31 26
22 14 16
22 15 16
23 15 15
36 24 21
22 14 16
21 14 16
76 33 29
99 110 53
59 30 32
23 15 17
48 69 28
212 212 141
58 62 33
51 45 34
26 26 19
25 25 18
71 55 35
75 58 51
51 56 32
29 29 20
26 26 19
31 34 24
168 229 153
51 56 34
75 82 32
27 27 22
26 26 19
77 99 57
33 33 23
58 68 46
42 36 24
25 25 18
27 27 19
73 64 43
39 47 33
42 52 26
26 26 18
229 255 111
46 68 32
25 25 18
51 51 31
26 26 19
41 49 34
47 59 32
25 25 18
67 62 36
37 45 31
115 164 151
46 38 26
39 35 24
63 45 40
83 71 62
25 25 18
44 40 26
83 75 38
42 46 23
37 51 25
51 40 31
210 210 140
26 26 25
251 251 167
62 74 40
77 50 40
21 21 15
23 23 16
30 26 18
26 26 19
82 104 42
44 39 24
31 31 21
20 20 15
183 240 114
44 56 34
64 42 32
24 24 17
74 102 55
50 43 30
19 19 14
19 19 14
26 26 18
48 38 30
78 74 44
42 55 35
49 70 30
75 65 48
40 49 25
17 17 13
18 18 15
33 27 19
18 18 13
25 25 17
20 23 17
71 66 33
72 100 44
42 28 19
26 38 20
63 63 33
16 16 12
205 205 136
51 44 25
16 16 12
17 30 30
16 23 24
19 26 38
35 50 36
10 17 26
52 67 57
57 86 66
61 49 74
10 16 18
135 202 139
48 104 68
24 33 40
42 63 47
12 19 21
14 21 23
41 56 37
21 26 27
44 43 50
31 35 46
10 15 18
18 38 30
22 26 35
24 43 29
10 15 17
9 14 17
27 35 35
53 58 47
47 74 59
24 33 28
22 44 34
28 50 39
14 22 23
28 38 33
22 34 52
16 21 27
17 21 23
10 16 18
10 15 18
25 38 56
45 64 68
23 53 46
10 15 17
9 14 16
24 37 30
32 18 32
59 33 50
77 68 63
75 53 46
10 10 29
1 1 4
0 0 4
57 79 46
255 245 120
62 74 49
49 57 32
76 75 38
2 2 5
2 2 5
255 255 255
255 255 255
2 2 5
18 27 18
24 42 28
18 27 19
15 23 17
54 61 28
14 21 16
55 43 36
49 38 29
48 25 45
34 30 41
16 10 10
158 76 61
246 112 112
66 24 32
16 11 12
67 41 36
39 30 30
29 22 19
24 15 15
37 19 26
32 19 19
16 11 12
18 12 13
55 40 36
29 22 18
17 11 12
25 20 17
52 26 31
37 24 37
54 39 36
27 22 18
19 13 14
18 12 12
17 11 13
61 29 37
40 25 66
204 136 136
16 10 12
36 32 22
21 16 14
20 12 23
41 27 21
18 11 22
162 158 108
81 46 40
20 15 13
26 17 14
15 10 11
31 55 29
94 145 70
18 27 15
10 15 11
11 17 13
21 41 28
27 61 39
11 17 13
35 62 30
17 23 16
46 53 35
17 28 17
29 64 31
91 89 70
44 66 140
62 82 53
59 64 28
31 55 43
38 57 30
16 24 17
12 19 14
15 23 16
59 70 34
12 19 14
17 30 30
11 17 11
40 61 31
22 35 26
20 30 18
46 47 41
57 52 34
35 43 25
22 33 18
19 34 20
13 19 14
59 82 40
13 19 14
32 47 30
104 95 48
54 88 43
13 19 14
13 20 14
13 20 15
32 64 28
12 19 14
12 18 14
53 79 40
29 34 30
22 28 18
12 19 14
12 19 14
12 19 14
21 31 18
31 37 33
53 59 33
165 171 114
32 38 26
21 36 23
26 39 22
22 34 19
48 61 31
18 27 16
34 37 27
26 37 26
12 18 13
23 35 24
15 22 16
12 18 13
20 33 22
48 49 39
23 30 20
62 84 40
11 16 12
18 27 16
18 23 15
11 16 12
53 77 39
71 128 72
37 51 28
14 21 15
34 46 28
16 24 17
26 44 23
39 65 29
55 59 33
47 89 39
17 31 18
23 28 20
87 189 90
48 72 36
18 23 16
34 51 26
82 62 40
60 65 35
31 47 25
44 53 30
52 86 31
17 21 15
43 70 50
36 47 26
27 38 19
22 39 23
44 64 48
53 57 30
17 22 17
33 50 21
102 102 47
18 25 17
22 30 20
41 30 31
27 18 16
161 156 107
44 33 23
38 20 26
29 19 16
60 42 34
87 69 43
14 9 11
103 35 64
91 63 41
36 29 34
17 11 13
38 43 31
33 19 19
65 66 36
17 11 13
41 23 24
32 30 24
69 37 45
18 12 14
18 12 13
19 12 14
19 12 14
24 16 16
54 32 25
33 29 23
47 41 27
19 13 14
41 34 25
56 29 28
19 13 14
37 31 32
19 13 14
20 13 15
32 18 18
19 13 14
246 164 164
19 12 14
20 13 14
66 47 33
21 14 15
21 14 15
27 18 19
19 13 14
87 39 44
32 25 22
53 27 64
26 17 18
20 13 15
58 40 42
20 13 15
20 13 15
38 27 32
79 57 48
28 22 23
85 87 54
38 21 26
21 14 15
249 166 166
42 28 24
21 14 15
22 15 16
71 60 38
28 19 20
33 24 24
21 14 16
61 46 36
44 25 29
31 27 34
52 30 35
22 15 18
47 31 26
22 14 16
22 15 16
54 42 33
80 44 54
250 166 166
27 20 18
43 32 26
31 18 19
147 140 73
37 22 22
29 19 20
22 15 16
64 40 32
83 79 64
78 44 34
75 50 39
22 15 16
21 14 16
26 26 19
26 26 19
90 45 41
77 79 37
138 70 53
67 53 46
68 67 33
25 25 18
74 99 40
46 46 27
41 49 32
25 25 18
87 61 36
28 28 25
25 25 18
25 25 18
170 165 110
106 73 46
32 31 30
101 70 47
33 35 24
128 174 113
84 70 34
47 47 28
23 23 17
35 35 24
115 90 46
31 36 25
85 46 74
24 24 17
25 25 18
26 26 25
60 48 41
25 25 18
55 45 30
25 25 18
24 24 18
25 25 18
60 54 31
23 23 17
66 55 30
44 32 21
25 25 18
35 35 24
79 53 39
23 23 16
24 24 17
27 38 44
31 31 31
37 46 26
72 56 33
41 34 29
55 43 30
23 23 17
29 30 36
24 24 17
21 21 17
44 64 34
21 21 16
64 45 30
43 43 25
33 40 27
164 237 109
18 18 14
33 38 25
240 169 83
247 247 164
57 59 32
53 80 31
206 206 137
102 115 66
39 56 29
83 57 44
245 245 163
55 42 38
64 51 29
18 18 13
17 17 13
25 28 17
44 37 30
28 37 18
39 45 26
26 26 15
34 38 20
83 56 34
32 27 27
60 83 42
14 14 11
33 43 29
22 22 17
23 29 18
15 26 26
29 43 44
17 28 24
20 30 27
46 47 60
22 25 30
59 74 62
10 15 17
21 27 35
39 62 43
64 87 54
10 16 18
17 25 27
51 58 57
11 17 19
10 16 18
28 31 38
35 62 45
13 20 22
12 18 20
31 47 49
44 66 74
30 34 47
34 45 39
13 20 21
25 33 90
52 84 78
10 16 18
10 15 18
47 62 45
19 36 30
24 30 34
36 49 55
63 77 62
14 22 22
22 25 25
23 50 31
11 17 19
17 21 23
21 41 29
22 24 34
12 18 20
11 16 18
24 29 29
28 16 25
22 14 24
91 51 91
41 35 32
13 12 34
0 0 4
6 9 17
0 0 4
255 180 120
45 55 30
32 35 33
67 38 58
2 2 5
2 2 5
23 35 35
39 66 50
29 19 19
34 22 22
21 36 21
40 67 28
14 21 15
16 27 16
49 114 34
24 36 21
17 31 21
13 8 8
27 21 18
22 13 13
21 15 24
57 42 32
66 43 27
53 28 41
29 16 21
31 26 28
16 10 12
27 16 18
34 28 21
16 10 12
50 25 33
24 19 21
17 11 11
16 11 12
16 11 12
58 36 51
61 33 26
16 11 12
16 10 12
79 33 41
67 33 34
101 67 47
42 22 30
57 32 26
16 11 12
31 17 22
16 10 12
22 13 13
16 10 12
48 32 27
44 32 24
61 47 30
32 18 18
19 13 14
44 40 31
24 20 20
82 39 31
26 39 22
53 47 59
39 49 57
38 68 50
40 56 28
103 143 67
55 94 39
74 76 58
68 93 44
20 25 21
20 36 20
75 86 39
29 47 34
20 25 17
33 36 33
11 17 13
25 34 21
27 60 33
12 19 14
23 35 20
28 48 22
12 19 14
20 30 21
82 151 63
34 40 24
12 18 13
12 19 14
23 35 22
40 50 40
33 39 27
36 61 28
23 59 30
27 32 22
24 36 20
66 101 48
20 30 17
12 19 14
12 19 14
109 154 62
26 30 24
14 21 15
52 53 37
29 40 30
23 26 19
18 27 19
34 47 24
27 33 22
26 39 22
15 23 16
12 18 16
41 93 52
35 36 33
69 85 49
19 32 19
31 40 31
20 30 21
22 33 23
32 60 37
61 80 41
59 110 55
21 32 22
20 30 21
70 78 49
28 48 32
34 62 43
45 58 37
40 49 33
41 49 33
20 31 22
56 93 43
19 28 20
25 45 31
67 69 42
166 250 166
17 26 19
41 89 45
14 21 15
21 32 19
69 123 40
11 17 13
11 17 13
13 19 14
77 100 45
15 23 16
35 61 42
31 51 27
11 17 13
36 41 37
32 72 29
16 24 17
26 45 24
24 28 20
51 62 34
32 48 25
28 57 31
17 25 14
17 25 18
109 110 78
40 68 29
69 102 48
38 49 33
32 36 33
42 46 26
63 54 37
21 44 29
55 66 34
18 22 16
10 15 11
34 70 40
16 10 12
22 18 15
30 23 19
32 21 18
57 43 38
14 9 11
23 18 16
40 20 28
17 11 13
36 19 24
15 10 12
35 23 20
17 11 12
29 19 16
16 10 12
17 11 13
63 31 56
66 104 49
18 12 13
38 33 22
93 62 46
21 14 15
56 32 23
52 26 36
18 12 13
34 28 23
29 16 16
50 26 34
51 51 33
22 16 15
38 25 20
18 12 14
84 56 41
54 28 29
52 31 42
19 13 14
19 13 14
31 20 18
60 40 32
20 13 15
63 46 52
20 13 15
20 13 14
59 30 26
35 30 21
21 14 15
38 21 26
52 28 36
70 49 43
28 19 20
43 23 30
45 30 25
68 30 39
19 12 14
112 66 50
54 45 38
82 60 40
31 18 19
29 22 19
21 14 16
51 39 38
53 25 33
26 17 18
30 23 20
63 52 34
249 166 166
23 15 21
20 13 15
35 28 24
21 14 15
44 22 24
21 14 15
98 42 55
65 54 76
57 37 37
21 14 19
50 33 27
136 128 57
40 33 27
234 156 108
54 28 32
50 38 29
48 25 33
78 58 44
44 33 34
32 18 18
76 46 38
45 41 41
192 99 135
64 39 49
76 34 37
26 26 18
126 246 118
59 62 34
56 63 50
50 55 30
26 26 18
253 253 169
41 50 34
84 88 40
25 25 18
36 34 22
40 48 27
63 53 30
250 128 123
23 23 15
65 90 56
42 35 23
67 48 35
43 53 36
98 60 54
25 25 18
33 29 20
83 84 36
33 33 23
44 34 25
32 29 20
81 58 37
47 42 29
48 57 36
25 25 18
24 24 17
74 51 44
28 28 20
51 41 28
216 216 144
37 48 32
49 59 31
27 27 19
63 80 36
25 25 18
30 30 21
48 39 26
32 32 22
36 41 25
46 34 22
37 44 25
43 39 26
68 61 35
24 24 17
79 70 37
32 32 34
67 70 41
54 41 24
21 21 16
61 57 29
22 22 16
38 35 26
22 22 16
20 20 15
40 47 35
80 90 58
21 21 15
32 29 23
78 83 73
26 26 18
76 58 48
42 34 21
38 44 23
19 19 14
29 25 17
19 19 14
29 24 20
19 19 14
18 18 13
51 53 38
19 19 17
19 19 14
24 24 17
16 16 11
29 35 20
129 76 36
39 44 26
64 64 34
16 16 12
20 20 13
26 33 17
27 23 15
67 86 32
41 49 32
43 44 38
47 35 24
47 67 48
41 41 51
12 18 22
13 19 19
9 13 16
128 193 134
20 24 24
49 55 49
33 42 32
14 27 22
11 17 17
27 37 40
10 15 18
10 15 17
11 17 17
31 49 42
25 31 35
37 65 77
15 22 24
150 112 112
57 96 70
27 38 41
38 71 65
12 18 18
29 43 58
22 44 44
10 16 18
23 42 42
42 85 65
21 28 28
26 40 51
23 61 61
15 22 24
161 241 241
17 28 28
161 242 242
15 23 21
17 24 26
72 46 41
45 73 51
105 223 109
9 14 17
163 167 120
8 12 12
18 12 32
69 64 54
247 165 247
10 8 28
7 6 29
0 0 4
3 5 21
3 4 14
28 27 32
69 81 37
33 40 22
42 33 22
96 44 104
34 23 34
31 52 52
17 26 26
68 41 48
17 11 11
15 23 15
83 100 52
14 20 19
60 77 36
27 32 21
17 32 21
10 15 16
31 27 30
70 47 36
15 10 11
51 40 35
155 150 150
14 9 11
51 22 29
63 28 31
15 10 11
17 11 11
34 27 27
49 40 40
18 12 33
72 32 27
16 10 12
38 29 29
24 17 16
61 42 44
16 10 12
55 29 28
69 46 34
130 129 60
42 28 21
32 33 24
21 16 14
44 37 20
52 47 30
15 10 11
24 13 16
40 36 26
44 32 27
41 33 25
17 11 11
49 24 33
14 9 11
51 34 25
255 175 119
46 26 26
72 32 38
21 17 15
9 14 13
46 53 50
10 16 12
39 44 41
99 76 52
25 38 21
13 20 14
12 17 16
11 17 13
28 42 22
29 66 29
28 42 22
20 25 17
40 55 28
33 39 35
13 19 30
12 19 14
15 23 16
19 27 28
19 28 17
12 18 13
44 79 32
90 110 61
12 18 14
52 38 35
24 28 18
14 21 15
17 23 15
42 73 34
19 26 17
12 18 13
12 18 13
24 45 31
29 39 23
28 59 34
23 42 28
27 33 23
17 25 18
138 207 138
12 19 14
20 38 27
20 28 27
20 31 18
18 28 17
12 18 13
14 21 15
12 18 13
43 72 31
71 106 49
18 28 20
118 162 73
96 90 54
22 33 24
31 41 32
87 103 50
56 84 46
22 34 24
46 64 38
24 36 25
43 54 37
21 31 22
25 38 27
27 41 29
75 94 65
23 35 24
23 35 25
22 33 24
30 41 30
51 101 52
21 31 22
45 62 35
26 49 33
33 59 28
20 31 22
55 83 39
20 30 21
250 184 131
24 44 31
36 43 26
16 24 17
37 64 36
38 45 24
100 74 75
13 20 15
19 24 17
51 42 32
64 76 39
35 53 28
35 58 33
24 33 22
20 25 18
20 25 18
28 54 30
157 162 108
40 61 31
42 71 29
17 22 15
23 41 31
31 45 25
33 37 34
24 47 21
24 39 19
18 22 16
10 16 12
17 22 15
24 47 42
19 24 17
27 45 21
38 57 29
21 14 15
57 38 29
25 21 17
39 20 27
24 18 17
15 10 12
23 18 19
26 21 17
23 18 16
28 23 24
41 27 29
17 11 13
17 11 13
244 162 162
33 18 22
33 25 27
146 54 79
17 11 13
17 11 13
17 11 13
18 12 13
18 13 21
39 34 33
23 15 16
68 47 31
246 164 164
33 23 22
65 43 33
32 21 19
42 23 29
86 88 49
90 48 41
44 29 25
18 12 13
19 12 14
75 42 58
108 57 47
61 42 52
19 13 14
25 16 18
58 32 36
19 12 14
24 16 16
50 26 35
53 33 28
20 14 17
20 13 14
60 64 45
23 15 15
43 38 34
46 42 28
67 92 35
20 13 15
21 14 15
32 18 22
21 14 15
47 31 26
36 30 31
86 47 39
50 30 30
21 14 15
21 14 15
21 14 15
21 14 16
56 32 29
58 42 39
34 28 23
21 14 15
21 14 16
116 82 52
83 55 42
37 21 22
22 15 16
40 25 21
97 60 44
57 38 30
67 53 31
21 14 15
53 35 29
30 21 22
22 15 16
61 31 42
21 14 15
48 25 42
53 42 39
50 33 27
72 97 40
21 14 16
22 14 16
22 14 16
30 18 18
51 55 28
53 46 31
50 60 32
32 32 22
46 61 37
63 52 29
62 49 33
46 63 35
39 48 33
25 25 18
61 54 34
38 33 23
92 68 38
26 26 18
57 74 32
67 47 35
43 51 29
61 69 37
73 73 40
53 56 40
44 53 28
37 32 22
79 101 57
26 26 18
35 35 24
36 36 25
49 63 30
84 140 54
62 93 43
23 23 18
34 37 25
42 35 24
23 23 19
44 55 30
32 28 19
44 51 30
48 71 37
38 35 22
48 39 27
28 28 20
24 24 18
47 37 25
66 80 38
54 45 30
39 49 26
65 98 37
24 24 17
52 41 28
41 44 39
22 22 16
24 24 17
95 70 57
43 36 24
35 35 20
37 31 22
21 21 16
77 79 40
42 63 42
22 22 16
57 49 28
26 28 17
49 45 32
25 28 20
19 19 14
54 46 41
40 33 23
19 19 14
19 19 14
74 57 38
102 44 46
36 40 27
48 37 23
31 39 21
16 16 12
67 74 30
31 31 17
89 84 53
26 32 18
58 51 36
47 39 24
66 74 36
34 45 31
91 50 31
24 22 22
37 48 25
42 33 23
34 45 24
47 36 25
19 17 21
26 26 14
38 38 21
9 13 16
43 65 60
15 22 19
29 34 40
19 23 24
26 32 47
20 25 25
18 24 28
9 13 16
9 14 16
15 26 26
17 32 27
10 15 18
9 14 17
11 19 16
41 46 49
20 38 34
10 15 17
29 51 43
127 191 133
10 15 17
39 49 39
36 43 92
9 14 17
37 50 31
161 242 242
15 20 20
161 242 242
30 33 36
16 30 24
35 59 43
22 33 28
28 28 28
70 77 60
9 14 16
10 15 17
14 21 21
17 21 21
25 48 37
30 31 35
54 60 66
16 26 26
9 14 16
33 19 28
51 32 63
19 13 17
1 1 7
9 6 39
1 1 9
5 6 18
48 32 129
0 0 4
1 2 9
49 61 28
26 26 16
40 30 20
9 7 34
9 10 42
14 12 31
3 3 3
53 35 27
43 24 28
17 28 34
10 16 12
26 30 20
13 17 11
11 17 11
9 13 10
19 19 55
13 19 64
17 11 11
14 9 11
15 11 16
77 34 44
14 9 11
16 10 11
110 66 66
20 13 14
53 40 42
51 34 23
18 14 12
154 171 138
19 12 14
23 19 20
69 33 38
39 20 26
17 11 13
26 21 20
23 19 20
74 73 41
15 10 12
53 26 49
36 31 33
31 26 18
15 10 12
47 21 20
32 15 15
47 31 24
49 45 27
18 12 13
15 10 11
25 21 17
14 9 11
15 10 12
25 16 14
26 17 14
22 18 13
24 13 13
60 36 44
25 30 21
72 95 43
60 61 39
44 51 30
35 45 33
44 58 29
88 152 59
12 21 22
68 67 56
30 57 32
15 23 16
16 24 17
11 17 12
17 25 18
12 18 13
12 17 15
34 43 31
20 38 18
12 19 14
37 72 32
58 54 45
39 45 41
141 107 54
26 39 21
36 42 33
20 38 27
12 18 13
70 90 50
203 244 108
73 84 60
37 61 32
129 134 89
12 18 14
11 17 13
32 39 24
51 49 46
15 26 16
12 18 13
26 54 24
13 20 21
31 39 26
17 26 18
12 18 13
28 36 21
31 59 27
27 50 33
23 34 24
19 28 20
46 81 38
165 176 165
22 34 24
28 43 30
22 33 24
46 57 40
99 97 66
27 41 28
2 2 5
2 2 5
2 2 5
22 33 23
2 2 5
23 35 25
2 2 5
2 2 5
2 2 5
2 2 5
2 2 5
2 2 5
2 2 5
2 2 5
2 2 5
2 2 5
20 30 21
2 2 5
19 29 21
47 56 35
18 28 20
17 26 19
19 29 21
17 25 18
34 54 28
23 31 22
27 34 24
45 52 46
15 23 17
13 20 15
22 35 24
12 18 13
11 17 13
11 16 12
57 89 45
25 54 28
46 67 41
36 37 27
11 17 12
18 22 15
32 105 32
32 54 48
19 24 17
161 242 161
10 15 12
32 53 25
21 24 16
15 22 15
14 26 19
36 38 24
10 15 11
45 57 28
10 15 11
13 9 10
46 45 24
19 13 14
46 32 24
51 39 24
33 33 19
37 39 23
18 12 13
23 15 24
73 56 35
38 28 27
46 30 24
24 16 16
97 46 53
16 11 12
65 54 31
46 36 24
20 13 14
79 44 45
53 40 30
19 12 14
18 12 13
41 31 25
18 12 13
38 20 18
18 12 13
51 25 22
19 12 14
38 23 23
65 41 32
52 35 27
18 12 13
19 13 14
54 42 31
75 78 46
31 19 22
29 21 21
19 13 14
66 34 65
50 26 34
50 29 29
42 22 28
37 35 25
115 56 37
20 13 15
53 47 28
19 12 14
38 25 21
43 23 23
37 19 19
20 13 14
70 30 46
35 33 27
21 16 23
40 33 26
51 41 44
20 13 15
49 42 33
36 30 25
44 36 29
50 27 33
21 14 15
20 13 15
35 26 19
22 14 16
69 35 34
79 58 37
58 40 32
21 14 15
50 42 24
52 27 36
84 64 39
47 22 27
39 30 30
48 42 42
22 14 16
34 26 37
60 48 36
25 17 18
21 14 15
83 66 55
27 18 30
31 21 18
31 23 23
77 51 39
53 35 28
51 50 60
45 38 31
79 39 36
26 16 16
36 30 31
54 61 44
78 73 55
38 46 32
35 31 25
66 51 37
50 41 28
23 23 17
80 104 59
86 77 46
82 56 30
51 66 31
25 25 18
42 62 40
25 25 21
48 39 27
41 49 27
36 36 25
24 24 17
38 33 26
68 50 36
24 24 18
24 24 17
25 25 18
51 41 28
22 22 14
83 64 57
80 65 45
81 69 35
36 31 22
37 33 22
31 36 22
59 47 41
34 39 23
31 30 33
80 104 66
52 57 29
71 54 40
40 50 27
38 47 33
43 35 29
23 23 16
43 32 24
75 92 48
43 50 28
50 61 32
22 22 16
45 36 25
90 108 61
57 50 33
21 21 16
43 49 24
66 66 31
45 45 56
28 28 20
41 34 23
48 59 37
21 21 16
30 36 25
22 22 16
35 30 21
42 36 23
64 82 47
19 19 14
41 52 28
78 116 41
28 27 29
23 24 18
33 41 22
58 67 39
26 26 19
26 30 21
59 81 35
19 19 14
33 37 31
54 42 29
56 83 35
21 21 15
24 24 16
112 139 52
18 18 13
46 70 35
23 23 16
167 243 111
16 16 12
18 18 13
41 32 22
16 16 12
15 15 12
15 15 11
40 62 30
28 23 15
20 17 24
9 14 16
9 13 16
12 20 20
41 53 44
43 65 54
38 36 29
9 13 15
31 38 52
9 14 16
58 79 56
96 114 57
28 38 28
18 25 31
65 49 73
43 42 48
9 14 16
31 35 50
161 241 241
10 16 30
24 54 40
50 82 45
26 35 35
24 47 39
9 14 16
9 14 16
13 24 20
37 47 42
9 14 16
14 23 23
55 98 65
9 14 16
29 32 36
30 59 41
29 38 29
36 49 40
34 34 43
15 23 25
35 56 51
9 13 16
38 57 54
9 14 16
22 34 27
51 25 32
23 12 19
7 9 20
5 6 17
7 7 21
14 14 39
5 6 16
3 4 19
5 7 17
9 12 24
12 12 9
19 23 12
66 42 33
20 14 78
5 4 17
0 0 0
20 14 14
7 7 7
3 3 3
7 11 9
9 13 9
60 70 66
16 21 14
8 12 8
38 46 21
21 31 16
36 22 16
28 17 35
24 16 20
31 27 27
14 9 11
34 30 26
132 126 88
55 36 28
58 25 29
15 10 11
19 13 14
28 15 19
76 37 42
14 9 11
59 33 28
39 20 27
49 28 37
15 10 11
21 14 15
15 10 11
92 44 34
38 35 27
43 19 22
50 34 30
15 10 11
84 65 46
14 9 12
39 33 35
242 161 161
23 21 18
34 37 21
65 43 34
56 42 25
76 43 38
32 25 20
48 36 23
20 11 11
33 18 18
34 34 20
13 9 10
50 88 29
11 17 12
65 69 58
136 204 136
11 17 13
11 17 12
10 15 12
11 16 12
72 102 48
26 35 20
21 26 41
12 19 17
11 17 12
45 55 39
12 19 20
16 26 26
26 39 22
11 17 13
11 16 12
50 120 28
26 47 21
11 17 13
55 83 41
14 21 15
12 18 13
11 17 13
82 81 46
15 22 16
11 17 13
39 67 50
14 21 15
43 64 33
27 32 29
14 22 22
18 27 19
38 60 27
119 236 83
20 31 18
31 38 25
52 79 39
11 17 13
133 139 133
22 42 26
74 66 57
15 23 17
31 55 38
56 85 44
23 35 23
29 43 30
108 140 76
24 36 25
2 2 5
2 2 5
2 2 5
2 2 5
2 2 5
2 2 5
2 2 5
2 2 5
2 2 5
2 2 5
2 2 5
2 2 5
2 2 5
2 2 5
2 2 5
2 2 5
2 2 5
2 2 5
2 2 5
2 2 5
2 2 5
2 2 5
2 2 5
2 2 5
2 2 5
2 2 5
2 2 5
2 2 5
43 45 32
17 25 18
41 56 28
63 71 39
42 22 26
48 40 30
25 17 17
13 19 14
32 38 24
59 101 59
38 47 29
28 32 22
34 39 25
14 21 15
12 19 21
35 34 36
34 44 26
28 32 19
25 45 22
47 49 29
25 41 28
45 73 34
23 28 17
18 32 21
27 31 22
84 184 86
10 15 11
39 40 20
161 242 161
30 38 21
64 45 27
27 21 17
43 30 22
19 15 13
16 10 12
14 9 10
33 22 16
33 34 25
26 21 18
255 61 116
28 16 16
27 22 23
36 20 21
17 11 12
17 11 13
33 22 18
17 11 13
26 21 18
17 11 13
46 32 25
43 28 23
30 18 15
17 11 13
81 47 35
50 33 26
28 21 17
38 30 31
20 13 14
243 162 111
41 22 29
188 182 90
27 15 19
30 21 20
34 23 20
19 13 14
38 32 26
23 15 16
32 18 18
29 21 20
169 78 44
66 44 29
40 30 24
50 35 26
38 19 19
24 16 17
45 30 23
81 31 39
19 13 14
104 50 40
51 34 27
19 12 14
45 39 40
45 39 40
20 13 15
20 13 15
33 27 25
21 14 15
39 26 24
21 14 15
79 44 35
34 26 26
20 13 15
61 52 36
33 22 20
21 14 16
21 14 15
26 20 21
43 42 39
31 25 21
114 67 55
101 73 48
79 44 50
28 19 20
27 18 19
21 14 15
27 18 18
50 28 28
20 13 15
21 14 15
52 27 25
30 20 18
79 52 46
41 34 36
39 26 38
24 15 20
57 32 24
21 14 16
33 26 20
27 18 19
48 32 26
28 18 19
25 25 18
47 59 30
48 37 28
35 41 24
205 153 76
36 36 42
25 25 18
77 59 34
36 42 25
45 56 31
48 72 41
33 33 23
111 99 47
27 27 19
28 28 20
24 24 17
36 40 26
37 38 49
49 49 27
24 24 17
52 52 44
39 33 23
45 40 25
59 47 32
85 61 34
70 59 34
24 24 18
24 24 17
37 34 23
45 37 25
22 22 16
23 23 17
181 255 124
85 120 47
40 34 23
76 79 45
71 84 39
250 250 167
23 24 25
32 36 21
38 34 66
30 30 21
25 25 16
73 91 37
64 83 43
29 26 18
39 32 22
22 22 16
20 20 15
23 23 17
58 77 45
32 38 26
57 41 35
58 67 34
22 22 16
28 28 25
57 72 30
20 20 15
34 44 22
17 17 11
20 20 15
45 36 22
26 26 18
20 20 14
19 19 14
43 39 23
27 26 21
19 19 14
16 16 12
57 58 41
19 19 14
108 57 33
25 31 22
58 90 32
31 40 22
29 24 17
46 69 34
143 200 133
46 72 41
61 46 33
27 27 19
33 42 29
40 53 23
23 34 18
18 18 17
20 23 13
17 16 20
51 38 26
36 43 24
68 105 63
67 61 39
28 39 54
9 13 16
27 31 31
31 29 34
17 26 24
9 13 16
75 68 55
37 54 40
26 28 33
32 58 50
35 44 51
15 23 19
83 99 70
19 23 30
59 94 44
34 37 37
55 65 69
34 51 40
24 53 31
21 32 27
58 72 81
51 77 56
29 47 35
9 14 16
9 14 16
16 27 27
28 43 34
32 58 40
14 21 20
12 19 19
50 75 51
12 19 20
29 67 46
15 21 23
36 43 36
9 14 16
9 13 16
16 22 22
24 34 31
56 57 37
33 39 32
23 25 31
36 67 51
7 4 7
16 17 48
1 1 8
3 3 10
1 1 6
5 5 15
2 3 8
0 0 4
0 0 4
4 6 17
13 11 35
13 13 9
12 11 38
5 4 22
10 10 30
4 5 16
12 17 12
7 7 7
6 6 6
6 6 8
7 10 9
6 10 8
19 29 14
87 100 51
18 20 17
6 6 29
17 11 48
7 9 30
28 15 13
40 28 24
23 18 18
19 12 11
38 22 25
13 9 10
14 9 10
70 39 34
14 9 11
36 28 33
53 46 27
50 20 25
24 16 15
32 24 20
31 28 24
35 17 18
14 9 10
69 48 36
14 9 11
59 22 37
14 9 11
19 11 11
30 23 19
24 13 13
63 31 43
11 7 7
14 9 10
18 11 11
25 14 14
69 46 27
49 45 27
50 30 39
18 12 13
24 13 13
48 53 28
13 9 10
18 12 13
70 34 29
11 16 12
62 122 38
12 18 13
12 18 13
23 45 28
12 18 13
15 22 22
11 17 13
11 16 12
42 93 30
10 16 12
20 38 26
64 115 49
14 21 15
24 44 27
23 31 19
10 16 13
38 46 24
28 37 20
28 56 26
47 78 38
12 18 13
11 17 13
33 52 26
79 118 57
10 16 12
59 62 34
12 19 14
42 57 28
42 47 36
17 25 18
55 90 42
15 22 16
48 60 76
26 51 31
19 25 17
31 66 40
23 28 19
27 33 23
33 65 26
12 18 17
80 131 80
23 34 20
21 31 22
41 61 31
24 36 24
175 255 175
42 60 34
33 48 32
87 121 59
2 2 5
2 2 5
2 2 5
2 2 5
2 2 5
2 2 5
2 2 5
2 2 5
2 2 5
2 2 5
2 2 5
2 2 5
2 2 5
2 2 5
2 2 5
2 2 5
2 2 5
2 2 5
2 2 5
2 2 5
2 2 5
2 2 5
2 2 5
2 2 5
2 2 5
2 2 5
2 2 5
2 2 5
2 2 5
2 2 5
25 17 18
38 25 24
40 32 27
29 19 21
25 17 18
56 27 30
26 17 19
28 19 20
20 13 15
19 32 19
40 30 27
42 23 24
15 20 13
18 34 17
27 30 18
11 17 12
10 15 12
33 43 23
16 22 30
14 21 13
10 16 12
30 61 37
10 15 12
68 131 58
16 30 21
10 15 11
26 42 21
9 14 11
85 131 62
51 34 26
15 10 11
16 10 11
31 23 21
14 9 10
59 42 45
15 10 11
53 46 25
37 35 23
15 10 12
22 18 16
52 23 31
69 50 36
16 10 12
24 16 14
40 21 21
16 10 12
29 24 25
33 25 21
16 11 12
29 19 21
52 28 35
89 61 43
17 11 13
70 34 48
78 36 43
60 23 32
17 11 13
19 13 17
44 32 24
33 18 23
43 33 22
44 45 36
71 35 44
21 14 15
17 11 13
19 12 14
38 33 22
163 157 109
20 13 15
68 53 35
69 23 30
47 47 39
31 18 22
42 31 23
100 53 42
52 38 29
20 13 14
43 44 30
73 67 51
19 12 14
40 34 27
60 39 28
98 57 47
64 42 31
45 25 31
20 13 15
31 25 21
19 13 14
45 37 34
61 40 32
163 156 78
52 38 45
22 14 14
40 33 24
35 28 23
63 28 36
20 13 15
38 21 21
20 13 15
21 14 15
37 21 26
74 47 36
53 28 35
37 31 25
54 47 30
21 14 15
21 14 15
21 14 15
28 18 21
28 18 35
21 14 15
33 18 33
56 45 33
20 13 15
113 66 48
248 165 165
38 29 26
58 36 44
36 24 21
28 23 28
67 129 65
25 25 18
56 49 42
49 79 41
49 55 38
198 105 98
168 241 81
67 73 52
24 24 18
39 47 27
49 60 32
101 75 44
94 58 44
25 25 18
40 50 28
33 29 20
204 143 95
66 66 36
37 34 52
29 29 21
24 24 17
30 36 20
23 23 17
24 24 17
25 26 20
32 30 41
53 61 48
29 29 20
29 29 20
65 50 31
57 63 30
45 45 26
34 41 28
52 62 28
51 42 22
39 45 31
40 49 27
29 26 21
23 23 17
23 23 16
53 58 36
30 30 21
28 32 19
53 50 36
39 60 52
250 250 166
42 53 27
21 21 15
38 47 26
249 249 166
67 57 36
31 31 24
21 21 15
34 37 28
21 21 15
50 52 29
160 113 75
58 44 40
26 26 25
56 49 33
41 53 36
72 54 30
37 40 27
23 23 17
36 45 25
47 62 32
23 23 26
40 44 33
20 20 15
18 18 13
19 19 14
25 25 18
17 17 13
32 35 18
24 24 17
31 26 18
29 36 20
36 29 20
40 28 21
40 48 22
51 38 26
29 24 21
24 24 17
15 15 11
39 29 33
47 61 31
59 71 24
14 14 11
27 34 19
33 37 22
53 76 31
19 23 26
8 13 15
26 40 43
33 61 33
16 25 23
8 13 15
9 13 15
21 42 24
40 37 43
20 24 32
26 51 44
9 13 15
38 55 59
36 40 50
51 93 62
33 42 34
9 14 16
20 23 25
9 13 16
32 45 34
160 241 241
8 13 15
9 13 16
21 26 26
29 51 38
10 15 26
26 49 49
19 26 29
9 14 16
25 46 37
27 49 57
14 22 22
56 85 53
9 14 16
136 204 142
14 24 24
25 28 30
16 28 28
19 37 30
18 33 33
8 12 15
14 21 23
31 30 30
8 12 14
18 17 25
4 4 14
7 6 33
6 6 19
6 4 24
2 3 11
0 0 8
2 2 10
3 6 13
8 11 31
90 65 59
46 40 31
9 9 9
0 0 3
4 4 6
6 6 6
26 33 22
9 6 6
134 198 134
141 209 141
7 7 7
4 4 6
9 14 9
10 9 44
6 6 28
6 6 27
8 11 35
20 15 25
60 46 36
33 16 21
54 26 29
29 28 25
107 146 146
21 19 14
56 64 43
61 36 26
28 21 17
17 13 11
50 24 33
14 9 11
14 9 11
38 20 30
13 8 8
24 20 31
14 9 10
25 16 14
103 40 49
44 24 23
44 25 33
14 9 11
47 31 23
22 14 12
36 32 20
38 20 24
14 9 11
49 25 19
14 9 11
105 84 56
13 9 10
17 11 12
25 18 16
59 25 29
44 29 23
14 9 11
13 8 10
18 21 28
50 70 32
32 36 33
33 50 26
35 48 24
10 15 12
39 50 47
30 42 23
16 24 27
131 197 131
49 54 29
25 32 25
21 32 18
15 23 17
30 45 23
12 18 13
11 17 12
19 29 16
39 55 84
94 126 52
11 17 13
41 46 33
34 35 27
23 52 23
42 48 138
17 22 16
11 17 13
33 71 30
23 41 19
19 24 20
25 52 25
16 25 14
13 20 14
36 41 27
29 32 21
11 16 12
48 53 49
58 53 39
165 248 165
25 42 25
18 27 19
2 2 5
21 32 23
2 2 5
21 32 22
2 2 5
26 39 27
2 2 5
2 2 5
2 2 5
2 2 5
2 2 5
2 2 5
2 2 5
2 2 5
2 2 5
2 2 5
2 2 5
2 2 5
2 2 5
2 2 5
2 2 5
2 2 5
2 2 5
2 2 5
2 2 5
2 2 5
2 2 5
2 2 5
2 2 5
2 2 5
2 2 5
2 2 5
2 2 5
2 2 5
2 2 5
2 2 5
2 2 5
2 2 5
2 2 5
2 2 5
64 33 43
32 21 23
55 30 32
38 25 26
31 20 22
67 47 41
28 18 20
26 17 19
29 19 20
64 37 49
40 25 26
21 14 15
19 34 19
77 48 35
51 75 30
34 67 26
152 157 104
55 58 36
20 31 17
11 17 12
10 15 11
18 22 15
26 27 21
21 41 27
18 32 24
18 22 16
16 21 15
20 24 17
69 46 34
43 31 29
14 9 11
22 15 12
15 10 11
43 36 34
24 16 13
24 18 32
55 31 31
31 18 18
27 20 17
20 13 14
29 16 33
15 10 12
77 56 40
36 23 20
16 10 12
55 37 28
244 163 163
23 18 16
61 41 135
22 14 15
17 11 13
30 19 21
40 32 20
18 12 13
244 163 163
18 12 13
69 52 35
35 19 23
24 18 20
87 52 39
19 13 14
19 13 14
18 12 13
18 12 13
19 13 14
46 32 34
29 24 19
253 116 116
18 12 14
33 28 23
46 40 27
35 21 18
20 13 14
40 31 26
143 97 95
28 18 20
117 62 41
98 40 47
110 43 62
19 13 14
20 13 15
60 33 46
69 27 37
143 134 134
83 41 43
91 57 39
59 25 25
122 59 35
63 42 38
19 13 14
80 60 32
40 32 24
54 48 29
45 27 22
23 15 17
39 21 25
35 29 29
33 19 23
30 23 21
76 51 39
43 26 26
31 24 21
20 13 15
50 33 27
20 13 15
20 13 15
21 14 16
29 19 20
25 18 20
116 37 44
24 16 17
58 30 40
163 204 81
170 163 113
69 31 36
46 25 25
65 36 43
77 46 38
49 27 32
69 53 33
34 30 22
57 50 42
28 28 20
36 38 25
54 60 40
55 63 57
30 30 21
167 240 160
24 24 17
43 50 29
71 52 38
24 24 18
24 24 17
43 36 24
107 76 55
25 25 18
44 56 28
24 24 17
23 23 17
23 23 17
46 59 32
77 58 34
32 32 19
23 23 17
29 29 20
23 23 17
31 31 22
28 28 20
67 46 39
31 31 22
31 35 21
145 102 82
63 47 34
27 31 22
47 58 32
23 23 16
67 51 31
87 62 48
21 21 16
58 45 26
38 38 22
23 23 17
21 21 15
54 43 33
28 25 17
28 28 20
45 47 33
22 22 16
18 18 13
68 70 63
25 25 19
42 54 26
28 28 20
40 55 27
21 21 15
19 19 14
84 62 35
45 56 36
20 20 15
44 75 35
66 57 53
36 44 23
19 19 14
48 51 32
18 18 14
19 19 14
72 72 36
18 19 17
41 32 28
45 88 35
246 246 164
21 25 15
17 17 13
244 244 163
31 30 35
17 17 22
52 40 27
25 25 15
17 17 13
23 23 16
20 20 14
25 31 17
65 65 28
33 44 29
16 16 12
41 59 30
94 57 40
16 16 12
14 14 11
75 58 40
36 26 40
32 69 44
44 79 59
12 18 20
18 21 26
9 13 15
54 92 58
34 33 36
26 31 56
14 18 23
35 40 48
8 13 15
21 42 33
20 31 22
23 32 23
9 13 15
8 13 15
27 31 31
9 13 16
11 16 18
63 52 68
7 11 11
21 24 24
21 34 39
9 13 15
24 48 39
11 17 18
26 42 54
8 13 15
12 17 39
8 13 15
15 28 28
8 12 15
19 35 35
26 45 52
35 34 46
8 12 15
8 12 15
24 48 48
32 30 38
45 48 56
18 23 27
18 19 21
20 16 48
7 7 22
5 7 28
18 14 33
7 8 21
11 8 29
0 0 4
0 0 4
0 0 4
0 0 4
7 11 21
13 13 29
0 0 4
40 40 31
8 8 10
10 10 13
7 7 9
27 20 20
9 9 11
8 8 10
31 18 25
18 14 14
18 26 26
9 9 9
10 8 41
6 6 27
55 39 222
6 6 28
6 5 21
39 20 20
24 20 20
61 46 26
29 22 22
19 15 17
14 9 10
67 45 33
33 24 16
60 52 26
51 28 39
31 16 16
35 20 23
229 152 104
48 40 29
14 9 11
24 20 16
38 31 31
14 9 11
14 9 10
15 9 9
14 9 11
14 9 10
13 9 10
72 50 32
14 9 10
16 10 10
35 27 23
234 156 106
56 43 34
30 28 21
27 24 24
42 21 29
12 8 9
93 74 46
18 12 13
13 9 10
12 8 9
11 16 32
11 16 11
38 52 44
24 29 20
13 20 14
17 26 18
10 15 12
11 16 12
24 45 32
11 17 13
96 65 46
19 28 20
11 16 12
10 15 11
11 17 13
23 34 19
45 39 35
11 17 13
32 55 44
21 38 21
15 20 14
15 22 16
26 39 21
49 65 32
17 26 15
45 50 27
29 52 27
33 31 21
14 20 24
11 17 13
52 76 34
16 24 24
26 39 21
13 19 14
42 54 30
14 21 15
15 23 17
93 118 47
30 42 28
2 2 5
2 2 5
2 2 5
2 2 5
2 2 5
2 2 5
2 2 5
2 2 5
2 2 5
2 2 5
2 2 5
2 2 5
2 2 5
2 2 5
2 2 5
2 2 5
2 2 5
2 2 5
2 2 5
2 2 5
2 2 5
2 2 5
2 2 5
2 2 5
2 2 5
2 2 5
2 2 5
2 2 5
2 2 5
2 2 5
2 2 5
2 2 5
2 2 5
2 2 5
2 2 5
2 2 5
2 2 5
2 2 5
2 2 5
2 2 5
2 2 5
2 2 5
2 2 5
2 2 5
52 41 43
212 115 94
67 37 44
67 43 35
30 20 21
30 20 22
44 35 29
80 46 38
97 42 63
21 14 14
22 15 16
35 23 19
100 62 40
67 48 31
23 29 24
10 15 11
10 15 11
9 14 11
9 14 11
161 242 161
30 71 30
36 36 24
107 235 157
32 36 33
18 22 15
80 59 32
42 43 25
78 64 42
85 49 34
73 43 33
20 14 33
141 71 53
39 33 21
22 18 15
55 36 27
18 12 13
34 24 19
49 32 23
15 10 11
16 10 12
210 140 140
59 48 46
16 11 12
18 12 13
16 10 12
34 19 22
16 10 12
17 11 13
53 35 27
23 15 30
53 41 31
18 12 13
37 28 21
15 10 10
34 29 24
34 18 18
19 12 14
35 19 24
34 22 20
55 26 36
32 18 17
89 51 62
18 12 13
189 87 87
18 12 13
24 16 17
33 20 20
45 33 33
56 30 40
51 21 22
32 21 19
19 13 14
23 15 15
84 56 42
68 51 33
69 51 34
19 13 14
37 22 22
57 29 31
26 17 18
63 32 38
37 29 25
39 23 23
36 37 25
20 13 15
24 16 17
25 16 18
72 66 54
206 137 137
214 73 103
47 44 28
21 14 16
80 34 45
20 13 14
29 23 19
33 26 28
40 27 27
33 20 20
24 16 17
20 13 15
29 20 34
39 21 27
21 14 15
37 21 21
20 13 15
50 33 27
53 35 30
91 49 55
21 14 15
21 14 15
67 39 44
81 54 41
40 34 28
21 14 15
36 28 28
21 14 15
20 13 19
61 56 37
50 60 30
24 24 17
251 251 167
65 89 35
26 26 28
40 55 29
56 50 35
214 214 142
24 24 17
78 65 37
30 34 21
29 29 21
73 56 44
42 37 25
38 45 44
33 29 20
43 36 22
33 33 23
166 158 61
35 35 24
44 44 26
32 40 21
42 48 28
36 43 27
32 32 19
48 48 29
23 23 17
39 33 23
74 52 45
24 24 17
48 58 38
78 88 61
250 250 166
25 28 23
23 23 17
28 28 20
31 31 22
23 23 17
33 39 23
23 23 17
22 22 16
29 26 21
21 21 15
21 21 17
21 21 16
27 27 19
27 27 35
60 50 48
65 71 36
104 79 47
30 26 18
26 29 19
21 21 15
54 48 28
194 181 90
35 29 20
172 172 114
29 25 40
20 20 14
44 58 26
35 41 22
180 124 118
28 33 23
31 30 32
38 48 26
39 44 30
22 26 19
152 156 73
60 49 27
57 45 28
53 42 36
16 16 14
34 29 20
36 47 24
21 21 18
43 45 22
34 44 23
49 62 28
32 26 18
45 55 31
72 44 35
15 15 12
64 41 30
65 43 50
17 17 13
32 49 24
12 12 11
38 52 36
13 13 10
32 42 22
11 7 13
19 37 37
22 24 31
35 38 49
58 54 30
16 21 65
26 34 39
14 17 23
32 49 38
46 41 34
29 48 44
28 45 29
21 24 24
39 66 64
8 12 15
17 23 23
22 29 25
26 29 41
23 46 46
12 18 20
15 19 25
8 12 14
33 43 56
8 13 15
160 240 240
82 85 83
72 82 53
19 28 22
54 41 36
22 26 27
8 12 15
50 69 61
21 42 33
14 21 23
154 114 114
21 54 37
41 44 61
8 12 14
46 51 38
8 12 14
67 67 73
8 12 14
8 12 14
10 12 29
1 1 6
1 1 7
6 4 23
1 1 8
2 2 7
2 2 20
1 2 25
6 4 19
2 3 10
51 34 136
0 0 4
0 0 4
10 10 12
23 28 23
7 7 7
23 27 27
41 30 32
20 17 17
15 12 12
36 26 38
29 21 21
43 30 21
10 12 48
6 6 27
6 6 27
6 6 28
6 6 27
5 6 23
12 8 10
25 13 13
77 26 32
40 37 30
43 32 23
47 36 32
62 22 32
23 15 15
28 20 39
13 9 10
27 20 16
16 11 12
23 20 17
91 88 43
20 16 13
72 34 26
17 11 12
31 21 33
25 13 16
13 9 10
42 42 22
25 15 13
19 13 12
13 8 10
67 32 23
12 8 8
41 19 23
197 62 68
119 74 44
14 10 16
95 63 44
13 8 10
77 51 37
39 22 28
26 17 14
13 8 10
43 34 28
48 78 38
39 78 27
10 15 11
76 75 62
17 25 28
33 55 25
10 16 12
50 84 44
20 30 17
34 54 31
11 16 12
32 36 33
51 87 35
37 45 23
23 45 25
17 22 20
143 152 56
45 68 51
84 124 60
45 71 31
10 16 12
60 94 43
11 16 12
11 17 13
15 23 17
11 17 13
36 50 25
13 20 15
20 24 15
22 27 21
11 17 12
31 56 25
11 17 13
16 24 17
32 52 26
38 68 35
144 79 47
2 2 5
2 2 5
2 2 5
2 2 5
2 2 5
2 2 5
2 2 5
2 2 5
2 2 5
2 2 5
2 2 5
2 2 5
2 2 5
2 2 5
2 2 5
2 2 5
2 2 5
2 2 5
2 2 5
255 255 255
255 255 255
2 2 5
2 2 5
2 2 5
2 2 5
2 2 5
2 2 5
2 2 5
2 2 5
2 2 5
2 2 5
2 2 5
2 2 5
2 2 5
2 2 5
2 2 5
2 2 5
2 2 5
2 2 5
2 2 5
2 2 5
2 2 5
2 2 5
2 2 5
2 2 5
2 2 5
2 2 5
58 32 40
36 24 26
34 23 24
80 53 43
72 39 48
65 53 60
61 45 34
31 20 22
93 62 47
82 55 37
33 22 22
249 166 166
33 24 22
21 14 15
10 15 11
154 158 105
25 30 27
20 24 20
9 14 11
40 63 40
45 49 26
20 39 20
10 15 10
29 35 22
9 14 11
55 53 29
14 9 11
20 16 14
37 30 19
57 36 25
26 15 15
25 21 17
62 58 48
42 28 22
15 10 11
24 16 17
20 13 14
33 24 20
28 23 19
16 11 12
52 39 22
31 18 49
53 35 27
28 24 19
32 21 18
47 31 25
17 11 13
64 68 54
17 11 13
41 36 23
36 22 20
19 13 13
79 57 38
95 74 50
17 11 13
31 20 17
18 12 13
38 32 26
50 42 36
44 23 31
23 17 16
30 20 17
39 20 20
19 12 14
38 33 29
53 27 36
26 17 19
33 25 31
35 21 23
38 37 33
78 58 38
22 16 14
19 12 14
20 14 18
38 25 21
37 39 27
19 12 14
122 54 60
54 54 39
48 40 40
20 13 15
43 39 32
34 20 20
19 13 14
22 15 22
67 44 35
42 30 24
20 13 15
25 17 22
62 29 37
44 23 28
54 36 29
27 23 21
251 115 115
71 28 32
32 18 46
247 165 165
42 36 25
78 38 52
19 13 14
20 13 14
39 22 26
143 39 27
21 14 15
47 25 32
20 13 15
21 14 15
21 14 21
20 13 15
20 13 15
154 102 69
21 14 15
24 16 17
30 20 21
22 14 16
44 27 24
42 53 36
45 63 32
47 40 29
79 53 41
89 95 49
69 64 37
40 51 24
40 50 28
31 35 23
47 41 25
84 112 41
90 82 33
46 41 30
23 23 17
23 23 17
251 251 167
63 90 53
29 29 21
82 112 47
151 186 91
58 46 31
25 25 18
57 75 42
62 48 42
43 59 35
67 55 32
30 30 21
48 53 33
77 106 42
46 38 26
22 22 16
69 59 33
34 41 28
37 45 25
57 52 33
52 66 32
26 26 18
41 41 24
27 27 19
35 46 30
21 21 15
119 64 50
26 28 25
44 49 33
40 51 24
21 21 16
69 51 38
42 34 23
35 42 21
21 21 15
31 39 26
23 23 16
33 28 19
34 34 20
32 45 25
34 42 23
42 47 37
169 245 113
87 91 40
52 56 27
42 47 28
62 59 41
19 19 14
19 19 14
27 27 19
20 21 22
87 54 41
19 19 17
36 29 20
43 45 24
46 41 24
33 42 22
14 14 11
17 17 12
16 16 14
88 66 29
47 61 42
58 49 32
35 28 19
21 19 16
15 15 12
242 242 161
38 50 35
254 124 116
41 28 18
27 30 16
15 15 11
24 28 15
17 20 13
12 12 8
47 37 23
10 7 12
18 22 28
32 43 32
44 48 39
29 35 25
33 58 68
10 15 17
12 19 20
8 12 14
32 33 55
8 12 14
37 64 41
47 66 77
11 16 16
25 27 53
131 197 197
8 13 15
16 27 29
11 17 19
7 10 10
8 12 15
67 87 55
12 20 20
17 25 19
8 12 14
8 12 15
63 61 58
66 78 84
11 17 19
49 71 45
14 21 17
17 23 21
29 30 40
159 239 239
25 44 28
24 36 25
40 43 34
8 12 14
145 105 105
66 62 70
30 25 29
7 11 14
2 2 7
6 7 17
7 4 28
12 11 27
1 1 7
10 14 31
16 17 39
0 0 9
11 10 35
4 2 11
2 2 17
10 7 24
10 10 40
2 1 6
16 10 48
13 13 15
19 16 16
23 18 18
24 18 18
17 13 13
7 7 9
7 11 7
5 5 7
12 10 52
9 11 57
32 26 74
6 6 28
53 37 150
14 11 50
11 14 56
7 8 36
33 17 16
12 8 9
54 43 30
62 38 31
42 40 40
18 10 10
19 12 13
17 11 11
20 11 11
13 8 10
222 101 71
12 8 9
38 19 25
38 32 20
30 18 13
57 28 24
33 16 17
30 26 22
26 23 24
38 25 20
40 41 23
103 43 55
19 12 12
30 15 21
44 22 19
30 16 16
26 22 18
50 39 24
240 160 160
32 24 18
12 8 9
15 10 10
21 19 19
42 33 21
48 29 22
21 14 14
10 15 11
32 37 33
25 43 19
15 22 16
21 31 18
29 44 23
18 27 19
33 51 28
14 21 15
65 72 48
23 46 23
12 20 19
25 38 21
10 15 11
22 33 19
17 21 17
31 30 26
18 23 18
23 28 20
27 45 24
18 34 24
11 17 12
26 46 20
16 25 15
26 47 31
24 46 32
21 26 21
10 16 12
40 43 36
45 68 90
10 16 12
41 44 34
21 42 21
27 41 21
28 57 38
54 63 36
2 2 5
2 2 5
2 2 5
2 2 5
2 2 5
2 2 5
2 2 5
2 2 5
2 2 5
2 2 5
2 2 5
2 2 5
2 2 5
2 2 5
2 2 5
2 2 5
2 2 5
255 255 255
2 2 5
255 255 255
255 255 255
255 255 255
255 255 255
2 2 5
2 2 5
2 2 5
2 2 5
2 2 5
2 2 5
2 2 5
2 2 5
2 2 5
2 2 5
2 2 5
2 2 5
2 2 5
2 2 5
2 2 5
2 2 5
2 2 5
2 2 5
2 2 5
2 2 5
2 2 5
2 2 5
2 2 5
2 2 5
2 2 5
40 26 28
110 79 60
35 23 25
39 26 28
66 40 38
95 63 49
64 46 35
56 32 38
97 63 49
29 19 21
89 42 54
47 38 32
46 38 32
76 60 38
24 16 17
52 24 30
18 12 13
21 26 16
32 73 39
49 56 29
37 57 31
21 28 17
42 70 29
17 20 13
18 24 16
25 17 14
33 37 37
14 9 11
14 9 11
21 15 15
23 15 17
21 17 15
34 27 21
27 14 19
39 28 19
15 10 11
22 17 14
35 23 32
32 17 17
16 11 12
41 29 27
46 29 23
28 22 23
15 10 12
17 11 13
39 30 27
16 10 12
34 18 18
29 19 17
32 17 21
21 14 15
44 34 25
26 22 18
47 52 37
126 82 49
41 33 21
245 163 163
65 39 30
103 44 39
18 12 13
36 20 25
34 32 30
58 31 28
18 12 13
19 12 14
102 92 66
31 24 21
30 17 20
84 60 49
45 24 30
26 17 18
19 13 14
50 31 28
37 22 20
19 12 14
20 13 15
36 20 25
88 58 60
118 84 54
20 13 15
232 107 107
49 25 23
54 37 28
22 15 35
19 12 14
19 13 14
65 28 33
43 25 25
33 18 23
29 19 20
19 13 14
37 31 32
28 25 23
21 14 15
56 45 45
53 47 30
29 23 25
60 62 34
20 13 23
41 22 29
68 55 32
21 14 15
30 19 36
61 28 33
22 15 15
84 41 35
248 165 165
21 14 15
20 13 15
32 18 18
22 15 16
47 23 29
21 14 15
60 44 37
21 14 15
30 24 25
29 29 20
37 39 22
63 48 30
40 52 33
86 62 60
44 46 29
53 52 33
39 33 37
65 46 39
63 43 33
44 62 26
23 23 17
74 49 40
27 27 19
50 42 27
23 23 17
61 47 45
30 35 24
36 31 25
250 250 167
240 233 85
39 48 26
35 49 29
43 46 24
250 250 166
77 95 41
60 69 47
47 38 26
58 52 27
71 75 35
22 22 16
22 22 16
22 22 16
47 52 35
21 21 16
23 23 16
22 22 16
25 25 18
45 40 24
38 48 33
31 31 22
33 40 22
28 28 17
22 22 16
45 58 25
21 21 15
32 37 26
106 202 135
21 21 16
51 40 27
36 32 20
61 58 28
207 207 138
32 38 26
54 78 45
40 53 31
41 41 29
62 72 30
28 34 24
18 18 13
246 246 164
20 20 18
18 18 14
17 17 13
19 19 14
32 40 21
18 18 14
24 28 16
64 72 33
44 45 31
18 18 24
45 42 33
29 32 19
20 21 22
46 36 25
110 74 58
47 64 40
39 31 32
29 41 22
22 27 15
49 37 34
43 50 32
27 31 16
92 58 50
41 41 34
14 14 11
12 12 10
17 16 16
13 13 10
35 40 20
30 28 36
59 38 52
17 29 33
8 12 14
25 31 31
7 11 14
22 24 36
21 25 25
29 52 50
65 114 62
19 34 28
14 23 17
16 29 27
23 34 30
8 12 14
13 19 21
29 44 34
8 12 14
8 12 14
12 17 17
21 24 27
17 34 27
37 67 57
15 19 19
27 63 47
65 68 62
56 100 66
27 29 40
9 14 16
40 46 54
11 17 19
16 27 21
21 48 48
19 29 24
8 12 14
50 53 103
9 14 16
31 41 41
25 28 42
16 25 21
25 33 25
13 20 20
11 16 18
11 11 32
5 6 14
1 1 6
2 2 9
1 1 6
7 9 25
17 12 30
7 6 16
35 19 76
8 5 18
4 6 17
0 0 4
0 0 4
4 3 12
0 0 4
4 4 6
3 3 3
37 45 53
34 34 24
18 26 18
3 3 5
18 22 22
23 18 18
11 11 40
8 10 42
21 27 56
13 14 41
6 6 27
11 10 38
6 6 27
10 9 35
3 3 16
12 8 9
20 12 13
66 31 28
77 32 30
23 12 12
12 8 10
42 31 21
22 12 14
70 27 35
18 12 13
18 12 13
84 72 54
12 8 10
13 8 10
38 33 41
12 8 10
16 12 10
19 14 13
123 63 36
50 21 25
12 8 10
34 19 19
40 36 26
12 8 10
44 29 22
23 15 13
12 8 9
30 17 17
61 57 43
94 51 40
35 36 31
12 8 9
22 17 15
239 159 159
21 16 14
38 56 25
27 30 24
14 21 15
10 15 11
21 39 21
26 46 20
8 13 11
31 44 23
19 33 19
159 170 78
10 16 12
21 29 19
162 243 162
10 16 12
10 15 11
19 26 20
19 29 18
10 16 16
26 45 25
52 60 44
44 71 37
32 41 22
55 88 44
11 16 12
35 52 27
14 22 16
19 24 16
20 25 17
17 30 18
10 15 11
40 61 136
54 62 39
180 78 65
38 25 27
2 2 5
2 2 5
2 2 5
2 2 5
2 2 5
2 2 5
2 2 5
2 2 5
2 2 5
2 2 5
2 2 5
2 2 5
2 2 5
2 2 5
2 2 5
2 2 5
2 2 5
255 255 255
255 255 255
255 255 255
255 255 255
255 255 255
255 255 255
255 255 255
255 255 255
255 255 255
2 2 5
2 2 5
2 2 5
2 2 5
2 2 5
2 2 5
2 2 5
2 2 5
2 2 5
2 2 5
2 2 5
2 2 5
2 2 5
2 2 5
2 2 5
2 2 5
2 2 5
2 2 5
2 2 5
2 2 5
2 2 5
2 2 5
2 2 5
2 2 5
2 2 5
87 58 45
58 44 46
70 46 40
39 26 27
104 72 57
40 27 28
73 62 42
35 23 25
35 23 25
47 27 33
33 22 23
126 57 70
28 19 20
28 18 18
44 27 29
66 75 38
36 31 23
17 21 15
23 35 18
35 52 28
21 27 30
9 14 11
9 14 10
23 30 17
49 69 29
21 18 18
27 20 16
28 19 14
13 9 10
53 31 24
27 23 18
19 13 14
15 10 11
36 31 21
16 11 12
32 30 19
25 17 14
45 32 23
16 11 12
15 10 11
46 34 20
16 10 12
20 13 14
37 26 19
17 11 12
54 36 28
68 51 38
52 31 22
16 10 12
18 12 13
35 20 21
72 65 33
50 45 36
51 32 28
39 22 22
39 32 30
56 28 39
18 12 13
68 42 32
41 22 26
34 34 23
35 32 23
18 12 13
72 31 48
26 21 18
55 33 25
30 23 27
32 24 20
34 23 20
28 23 20
19 13 14
38 20 21
19 13 14
31 25 20
87 37 51
58 47 39
20 13 15
90 60 42
25 15 15
19 12 14
81 49 31
55 54 46
19 13 14
40 23 24
25 17 18
22 15 16
35 30 31
54 32 28
112 106 75
19 13 14
247 165 165
27 18 19
19 13 14
35 22 22
42 23 30
69 27 38
41 27 64
29 16 17
20 13 15
20 13 15
248 165 165
52 36 25
26 17 19
20 13 15
39 30 22
20 13 14
21 14 15
34 25 20
47 36 31
40 25 20
46 30 25
40 31 27
25 16 18
20 13 15
20 13 15
33 39 21
23 23 17
169 177 118
38 43 24
68 91 50
45 54 36
24 24 17
83 76 44
48 39 27
55 47 34
60 71 35
42 35 24
32 32 22
38 47 26
249 249 166
23 23 17
74 95 40
22 22 16
67 56 46
65 50 51
33 40 28
21 21 16
23 23 17
40 40 25
57 48 39
23 23 16
45 33 22
41 33 22
122 81 60
27 27 19
22 22 16
72 74 34
49 46 26
28 32 19
37 34 23
88 57 43
21 21 15
19 19 16
21 21 15
51 44 28
51 48 28
21 21 15
20 20 15
34 37 20
21 21 15
21 21 15
21 21 15
98 90 49
21 21 15
20 20 15
63 51 34
41 53 35
18 18 13
85 109 65
32 32 22
59 45 27
18 18 14
34 42 23
23 23 14
18 18 13
29 32 39
66 46 44
17 17 13
52 41 31
22 26 16
31 40 28
18 18 14
28 34 21
22 22 19
72 47 45
65 81 41
20 20 18
17 17 12
53 39 31
55 75 42
15 15 11
27 32 22
16 16 12
15 15 11
197 197 131
91 62 30
27 29 16
54 32 79
30 33 20
13 13 10
22 22 16
33 36 38
15 15 19
23 23 16
36 50 21
241 241 160
52 25 49
13 17 20
17 31 35
31 40 36
37 35 45
8 12 14
29 50 50
20 38 55
21 32 26
36 37 51
18 21 29
7 11 14
18 20 20
20 35 32
18 20 20
8 12 14
8 12 14
13 16 16
17 18 20
25 28 29
20 39 55
10 15 16
19 26 26
103 228 155
49 46 53
11 14 14
20 53 45
11 16 18
20 24 24
23 35 54
15 18 24
8 12 14
27 23 23
10 15 16
24 36 29
13 28 28
18 33 30
21 31 25
18 24 21
28 35 35
33 50 38
1 1 7
4 4 13
8 7 23
1 1 6
4 4 11
40 27 160
1 1 6
1 1 7
1 2 7
7 6 30
17 24 50
0 0 4
2 3 9
13 11 36
1 1 6
0 0 4
3 5 15
50 76 51
24 26 24
20 38 25
67 76 46
14 21 14
18 18 12
22 12 12
14 12 44
6 6 26
5 5 25
16 14 76
8 10 41
17 13 60
12 20 69
10 16 36
9 13 35
9 6 6
228 103 152
12 8 9
30 17 15
21 15 14
70 45 28
12 8 9
11 7 9
116 65 70
28 25 21
14 9 9
12 8 9
25 13 13
60 21 26
71 57 43
47 25 21
12 8 9
12 8 9
28 25 22
40 16 20
14 9 11
38 25 19
45 22 30
108 43 54
15 10 11
25 15 15
75 35 38
29 19 17
24 20 15
56 38 29
27 26 22
42 28 21
18 11 11
56 33 22
11 7 8
35 56 20
10 15 11
8 13 11
13 21 20
135 203 135
127 139 57
10 15 11
9 14 11
100 215 71
69 86 39
39 68 33
14 21 23
9 14 11
27 41 22
18 35 18
11 17 33
12 18 13
12 20 12
22 26 23
35 73 37
58 52 34
14 22 16
42 56 41
35 64 24
23 45 22
13 20 14
10 16 12
11 16 12
13 17 18
18 31 23
56 81 40
60 48 40
38 25 27
2 2 5
2 2 5
2 2 5
2 2 5
2 2 5
2 2 5
2 2 5
2 2 5
2 2 5
2 2 5
2 2 5
2 2 5
2 2 5
2 2 5
2 2 5
2 2 5
2 2 5
255 255 255
255 255 255
255 255 255
255 255 255
255 255 255
255 255 255
255 255 255
255 255 255
255 255 255
255 255 255
255 255 255
2 2 5
2 2 5
2 2 5
2 2 5
2 2 5
2 2 5
2 2 5
2 2 5
2 2 5
2 2 5
2 2 5
2 2 5
2 2 5
2 2 5
2 2 5
2 2 5
2 2 5
2 2 5
2 2 5
2 2 5
2 2 5
2 2 5
2 2 5
2 2 5
40 26 28
46 32 30
98 59 54
42 28 29
74 52 44
36 24 26
37 24 26
89 59 43
97 45 61
32 21 21
34 23 24
32 21 23
28 19 20
255 176 124
42 26 49
51 30 34
23 15 17
80 60 38
54 36 28
33 68 37
9 14 11
29 40 19
56 51 31
15 20 14
23 28 19
187 169 85
114 63 51
37 27 18
23 20 16
20 16 14
37 26 23
51 40 38
40 31 23
14 9 11
65 50 40
33 26 20
14 9 11
43 29 23
46 27 25
19 12 13
75 52 37
27 18 16
53 35 109
70 42 31
91 65 47
46 26 29
26 17 18
38 21 26
42 25 21
21 16 15
20 13 14
29 16 20
49 31 26
16 10 12
55 37 29
89 59 43
68 26 30
38 33 32
34 18 24
48 50 30
17 11 11
18 12 13
26 20 35
18 12 13
25 16 17
233 155 107
28 21 22
50 47 41
37 31 28
60 32 44
33 26 26
19 12 14
39 26 22
29 21 21
30 18 18
53 47 29
46 26 24
88 52 39
18 12 13
74 38 51
23 15 17
37 30 28
38 37 32
94 67 36
185 93 69
151 66 48
19 13 14
29 25 36
19 13 14
62 56 47
91 33 50
28 23 23
63 44 49
58 39 30
32 19 19
185 179 89
43 29 24
41 25 25
35 20 20
37 21 21
31 24 25
43 23 24
252 67 89
36 30 24
32 25 22
20 13 14
40 34 34
53 27 36
20 13 15
58 32 32
52 34 27
21 14 15
30 22 20
37 20 21
20 13 15
32 34 31
28 28 20
62 46 29
23 23 17
32 30 20
31 36 25
48 35 29
61 43 29
251 251 167
40 49 27
24 24 17
35 45 30
67 95 42
22 22 16
45 45 27
22 22 16
36 44 25
21 21 16
21 21 17
42 36 29
33 43 26
22 22 16
51 41 26
61 82 35
27 30 19
33 28 19
42 47 30
30 35 21
61 61 37
48 39 27
43 52 36
169 162 69
41 61 31
22 22 16
21 21 15
36 45 25
35 30 21
51 55 26
40 37 26
53 52 34
59 59 32
21 21 15
26 29 29
20 20 15
29 34 24
49 35 48
49 48 33
19 19 14
24 27 16
61 59 33
18 18 13
38 42 23
20 20 14
32 39 25
50 37 24
52 42 26
42 37 27
19 19 14
19 19 14
17 17 13
35 31 23
19 19 14
17 17 13
66 70 36
46 36 25
57 41 31
17 17 13
48 58 42
157 229 105
18 18 14
16 16 12
16 16 12
35 27 48
22 22 16
15 15 13
15 15 13
74 48 43
38 29 20
16 16 12
20 25 13
44 50 25
64 90 33
14 14 11
22 28 16
23 18 30
46 34 23
35 35 23
21 26 15
100 105 43
38 55 26
13 13 10
10 6 12
17 19 25
10 16 18
10 15 17
20 39 31
37 45 31
181 255 140
7 11 14
7 11 14
17 22 22
11 17 18
9 14 16
102 154 59
43 61 42
33 40 75
40 47 74
7 11 13
12 18 15
45 60 50
16 19 26
15 17 20
41 105 44
24 42 31
10 15 17
7 11 13
7 11 13
14 26 26
11 17 18
7 11 13
7 11 14
16 33 33
22 51 46
7 11 13
7 11 13
11 16 14
30 41 31
7 11 13
46 49 51
91 84 44
15 18 25
4 3 18
4 4 14
5 7 23
16 18 51
7 6 17
5 5 15
1 1 7
1 1 6
1 1 4
22 13 30
3 3 9
3 2 8
10 13 36
0 0 4
2 3 8
0 0 4
0 0 4
4 5 18
19 20 23
19 39 26
10 7 10
37 37 38
21 31 54
206 137 206
6 6 26
6 6 27
7 7 32
6 6 26
9 9 38
10 10 37
21 15 73
14 11 51
5 4 19
7 9 31
38 30 22
14 9 10
46 43 54
11 7 9
13 9 10
37 18 14
44 31 53
22 12 15
11 7 8
15 10 11
12 8 9
43 33 24
100 66 71
58 31 43
56 20 37
239 159 159
15 9 9
49 27 30
23 21 16
41 42 26
12 8 9
35 28 20
202 134 134
14 9 16
54 28 22
14 9 10
24 25 19
35 37 20
22 12 12
49 33 25
47 31 24
11 7 9
41 27 28
28 26 25
11 7 9
17 31 21
54 39 34
9 14 14
9 13 10
22 45 31
29 33 30
17 34 24
20 26 15
9 14 10
10 15 11
10 15 11
10 15 11
47 58 30
43 98 45
22 23 18
45 41 38
30 37 20
24 29 25
10 16 11
132 137 91
12 18 13
136 205 136
10 16 12
33 50 26
47 90 35
26 27 17
25 42 19
31 35 24
11 17 13
21 27 18
96 64 137
47 31 31
2 2 5
2 2 5
2 2 5
2 2 5
2 2 5
2 2 5
2 2 5
2 2 5
2 2 5
2 2 5
2 2 5
2 2 5
2 2 5
2 2 5
2 2 5
2 2 5
2 2 5
2 2 5
255 255 255
255 255 255
255 255 255
255 255 255
255 255 255
255 255 255
255 255 255
255 255 255
255 255 255
255 255 255
255 255 255
255 255 255
2 2 5
2 2 5
2 2 5
2 2 5
2 2 5
2 2 5
2 2 5
2 2 5
2 2 5
2 2 5
2 2 5
2 2 5
2 2 5
2 2 5
2 2 5
2 2 5
2 2 5
2 2 5
2 2 5
2 2 5
2 2 5
2 2 5
2 2 5
2 2 5
38 25 27
72 48 43
82 51 42
41 27 29
67 61 51
62 45 46
36 24 25
35 23 24
60 40 34
67 45 36
67 45 36
28 19 20
28 18 20
29 19 21
66 47 44
204 136 136
48 26 34
24 16 17
30 24 22
9 14 11
28 44 23
27 32 18
11 17 13
16 20 13
37 30 25
28 18 18
13 9 10
74 46 35
52 24 33
14 9 11
31 21 17
33 29 30
53 36 33
26 20 16
38 37 34
13 8 10
242 161 161
16 11 11
15 10 11
59 49 42
54 27 37
16 10 12
21 12 24
73 47 55
37 25 20
15 11 14
16 11 12
16 11 12
17 11 13
15 10 20
16 11 12
17 11 13
25 20 38
18 12 13
88 51 43
49 25 34
57 41 33
46 23 34
47 27 21
17 11 13
40 34 77
18 12 14
67 28 33
50 33 27
18 12 14
62 27 31
17 11 13
18 12 13
18 12 13
19 13 14
36 24 21
64 50 33
24 16 17
55 28 38
59 42 34
41 32 26
32 23 19
102 52 60
18 12 14
41 28 22
27 22 23
20 13 14
54 24 32
38 23 24
103 85 52
32 18 23
71 53 35
63 50 30
41 33 24
46 40 89
32 18 21
20 13 14
111 53 85
61 35 41
37 24 22
20 13 14
44 28 24
20 13 14
65 32 44
41 30 35
20 13 15
20 13 14
108 73 52
55 28 38
44 32 25
27 21 18
131 54 57
98 60 73
41 27 23
176 62 71
27 18 19
20 13 15
41 22 21
21 14 15
43 36 24
46 58 40
40 58 56
40 50 28
210 210 140
33 40 23
55 61 37
77 90 37
46 37 32
22 22 16
44 45 26
61 92 61
29 26 18
37 31 22
146 154 103
58 48 30
22 22 16
92 235 117
36 52 28
22 22 16
29 29 20
28 32 22
146 109 66
31 31 22
248 248 165
38 47 24
33 37 21
53 83 33
47 38 26
55 43 29
22 22 16
25 28 20
58 41 30
33 40 23
21 21 16
26 30 21
39 49 34
69 47 41
248 248 165
21 21 15
21 21 15
21 21 14
46 43 30
43 55 29
33 43 22
20 20 15
21 21 15
23 24 32
29 29 20
46 37 25
126 99 42
41 41 22
18 18 14
28 24 17
50 50 28
25 25 18
60 45 25
68 51 31
18 18 13
22 23 23
19 19 14
61 83 33
52 61 26
17 17 13
16 16 12
46 78 38
62 76 36
40 25 17
36 27 22
48 37 25
28 30 17
23 24 33
56 51 29
16 16 12
21 25 16
48 65 28
36 25 48
27 44 23
27 27 18
21 21 23
77 52 45
29 28 24
27 27 15
14 14 11
15 15 11
42 47 32
29 38 20
32 43 20
13 13 10
13 13 10
24 24 17
15 25 25
16 20 26
7 11 13
10 15 36
11 15 17
37 41 32
36 46 39
11 15 17
7 11 11
10 15 17
29 36 44
79 80 60
10 16 17
7 11 13
29 57 62
7 11 13
17 21 25
9 14 16
22 34 25
9 14 16
22 25 27
25 33 33
23 32 34
21 33 41
17 21 21
18 27 23
28 31 32
7 11 13
25 41 54
37 46 40
39 61 55
24 32 32
26 28 35
5 8 8
35 61 38
158 238 238
23 24 26
30 37 33
18 21 23
4 6 14
11 8 22
7 6 18
5 5 13
1 1 6
1 1 6
3 3 12
1 1 7
4 4 12
0 0 4
11 12 32
6 12 33
0 0 4
4 5 15
0 0 2
4 8 23
6 6 18
0 0 4
12 10 26
0 0 6
33 49 132
133 200 200
61 61 42
70 47 33
55 55 154
11 9 48
10 10 39
56 56 156
5 5 25
19 18 55
49 38 128
6 6 26
8 9 38
56 56 226
10 9 29
57 27 39
181 82 82
100 52 66
26 23 17
40 33 24
231 104 154
10 6 9
29 15 19
27 21 21
16 10 11
13 9 10
22 12 11
40 30 30
44 41 34
49 32 29
30 24 18
16 9 9
11 7 9
41 47 20
12 8 9
12 8 9
16 11 12
23 12 12
22 13 13
21 16 14
49 24 34
185 123 84
37 34 35
239 159 159
49 46 23
52 35 34
55 35 21
41 21 18
39 19 19
68 33 25
11 16 12
30 31 33
28 32 18
10 15 11
17 26 15
21 26 18
14 27 19
11 17 18
46 65 32
168 252 115
57 65 47
161 241 161
9 14 9
17 26 14
14 21 16
34 39 35
10 15 12
10 15 12
17 33 23
12 18 23
30 45 21
9 14 11
38 42 39
10 15 11
12 19 14
131 196 131
12 18 13
28 32 30
29 19 19
54 42 42
28 18 20
2 2 5
255 255 255
2 2 5
2 2 5
2 2 5
2 2 5
2 2 5
2 2 5
2 2 5
2 2 5
2 2 5
2 2 5
2 2 5
2 2 5
2 2 5
2 2 5
2 2 5
2 2 5
2 2 5
2 2 5
2 2 5
255 255 255
255 255 255
255 255 255
255 255 255
255 255 255
255 255 255
255 255 255
255 255 255
255 255 255
255 255 255
255 255 255
2 2 5
2 2 5
2 2 5
2 2 5
2 2 5
2 2 5
2 2 5
2 2 5
2 2 5
2 2 5
2 2 5
2 2 5
2 2 5
2 2 5
2 2 5
2 2 5
2 2 5
2 2 5
2 2 5
2 2 5
2 2 5
2 2 5
2 2 5
44 29 29
255 110 153
40 26 28
65 43 37
90 77 66
58 32 35
61 52 43
37 24 26
39 26 27
59 34 41
34 23 24
29 19 21
44 34 29
50 33 28
29 19 21
47 34 33
45 38 33
54 29 37
79 43 58
20 13 15
18 12 13
13 20 15
22 44 18
25 21 33
18 15 13
14 9 11
55 21 34
34 21 16
47 34 31
13 9 10
15 10 11
14 9 11
20 13 14
26 19 17
14 9 11
242 161 161
91 35 48
14 9 10
27 15 19
19 13 14
25 16 15
90 39 24
242 161 161
51 34 26
23 18 15
28 23 19
25 18 28
39 30 24
21 14 15
16 11 12
75 81 33
23 15 16
32 26 17
17 11 12
40 28 45
32 30 23
17 11 12
27 16 17
57 25 32
130 103 62
231 106 154
18 12 13
18 12 13
61 34 45
48 21 33
186 158 67
31 27 20
23 16 24
28 22 23
46 37 33
36 22 63
23 15 17
93 53 42
18 12 14
53 37 28
43 23 27
25 16 17
47 46 35
79 51 36
45 30 25
79 36 41
19 12 14
71 63 45
19 13 14
33 22 19
19 12 14
48 26 21
31 25 26
20 13 19
24 16 17
47 26 27
19 13 14
23 15 16
30 25 28
147 52 51
19 13 14
20 13 15
24 16 17
23 15 16
21 14 15
77 36 61
106 58 34
55 51 55
37 29 53
34 26 23
57 47 32
19 13 14
20 13 14
20 13 15
155 149 106
59 30 40
46 24 32
59 30 40
20 13 15
23 23 16
23 23 16
23 23 17
53 62 37
28 28 20
33 33 23
53 80 31
121 75 58
23 23 16
42 34 24
63 52 35
46 59 32
28 28 20
22 22 16
43 41 25
42 40 23
27 27 19
30 30 21
23 23 16
47 57 38
57 56 32
71 73 37
49 46 40
52 71 37
21 21 16
22 22 16
78 54 31
30 26 21
68 79 48
22 22 16
248 248 165
86 134 46
21 21 15
62 69 31
111 213 99
27 27 19
42 37 25
32 36 20
50 35 29
71 57 42
51 42 31
116 66 46
21 21 15
27 31 19
23 23 29
77 50 30
60 46 27
33 26 37
22 22 16
57 71 38
19 19 14
31 26 18
47 41 27
18 18 14
67 106 46
178 168 112
77 58 45
192 134 89
30 40 21
54 40 31
72 36 26
17 17 15
16 16 17
47 71 35
57 46 32
51 38 23
16 16 12
53 39 28
26 31 19
44 38 22
25 25 18
26 24 28
16 16 14
23 27 19
93 54 31
39 61 30
15 15 11
59 92 33
15 15 11
42 70 23
26 25 33
14 14 11
22 27 15
26 21 17
95 69 37
51 49 36
25 32 17
13 13 10
24 32 14
102 77 63
14 14 11
40 34 43
29 35 26
22 34 27
15 20 26
7 10 13
17 23 27
20 26 23
9 14 16
30 37 30
28 51 29
7 11 13
15 25 29
15 19 19
29 35 25
41 37 46
7 11 13
7 11 13
7 11 13
8 13 15
10 15 17
7 11 13
38 41 37
13 22 22
28 28 33
21 56 55
7 11 13
39 35 29
23 42 27
22 38 39
23 32 32
34 42 42
7 10 13
15 18 18
31 38 28
64 53 67
7 10 13
34 151 88
20 30 24
9 14 16
1 1 7
10 8 27
3 4 12
4 4 13
6 6 21
3 3 11
5 5 15
4 3 13
4 5 12
4 6 18
0 0 4
7 8 28
0 1 14
7 14 30
1 1 5
12 7 25
0 0 4
1 1 6
2 2 10
1 1 8
1 0 17
0 0 4
23 16 17
17 16 16
15 13 53
5 5 25
54 39 153
30 21 97
5 5 25
15 13 55
5 5 25
12 12 42
19 11 73
15 15 50
8 12 35
7 10 27
7 10 32
10 7 8
34 39 26
33 29 18
29 16 14
67 39 33
21 18 14
76 48 50
33 15 33
18 12 13
30 13 13
210 67 97
26 17 14
22 14 11
11 7 9
11 7 9
89 27 25
38 19 25
14 9 9
47 44 45
65 20 27
42 26 20
26 13 13
63 30 56
43 24 24
55 30 41
14 9 11
53 19 19
99 32 35
31 17 15
11 7 8
52 51 30
39 19 20
44 29 22
9 14 11
9 13 12
21 43 30
15 23 17
8 12 13
29 33 27
40 61 137
25 43 23
17 30 33
60 96 39
37 46 30
10 15 11
31 48 28
160 164 160
10 15 11
15 27 19
12 18 13
14 21 15
19 28 25
22 35 19
25 42 25
10 15 11
33 50 37
13 19 14
13 19 14
28 47 26
32 57 45
45 26 28
34 22 24
19 29 31
2 2 5
255 255 255
2 2 5
2 2 5
2 2 5
2 2 5
2 2 5
2 2 5
2 2 5
2 2 5
2 2 5
2 2 5
2 2 5
2 2 5
2 2 5
2 2 5
2 2 5
2 2 5
2 2 5
2 2 5
2 2 5
2 2 5
2 2 5
2 2 5
255 255 255
255 255 255
255 255 255
255 255 255
255 255 255
255 255 255
255 255 255
255 255 255
255 255 255
2 2 5
2 2 5
2 2 5
2 2 5
2 2 5
2 2 5
2 2 5
2 2 5
2 2 5
2 2 5
2 2 5
2 2 5
2 2 5
2 2 5
2 2 5
2 2 5
2 2 5
2 2 5
2 2 5
2 2 5
2 2 5
2 2 5
2 2 5
2 2 5
45 29 36
41 27 29
44 29 31
63 35 40
63 42 35
40 27 28
125 70 72
178 104 74
255 174 174
39 30 27
94 59 52
31 21 22
74 41 48
112 68 64
30 20 21
71 40 31
68 45 45
25 16 18
57 48 34
80 52 34
24 19 16
17 11 13
57 47 23
255 179 122
76 29 32
92 47 30
13 8 10
47 43 26
22 12 12
26 22 16
20 13 14
14 9 11
14 9 11
14 9 10
19 12 14
30 23 18
27 13 30
35 21 26
221 81 74
15 10 11
43 31 21
51 45 40
79 52 39
49 32 25
30 25 21
65 53 30
43 26 30
87 38 42
17 11 12
50 26 23
15 10 12
20 13 15
41 21 20
32 25 25
69 46 35
42 32 25
49 30 25
17 11 13
18 13 20
16 11 12
17 11 13
27 20 22
56 32 43
51 39 35
17 11 13
42 37 24
25 19 17
64 44 27
46 35 35
33 22 19
45 46 35
46 39 27
45 39 27
19 12 14
108 55 43
47 44 33
32 24 20
18 12 13
131 125 87
57 38 30
53 36 43
19 12 14
38 29 32
42 35 36
247 164 164
18 12 14
24 18 18
63 32 43
19 13 14
25 15 15
44 23 29
41 33 26
157 139 73
39 21 22
26 16 34
36 20 21
19 13 14
31 18 18
22 15 16
20 13 15
46 35 46
58 26 33
20 13 15
48 25 33
46 30 28
20 13 15
43 35 49
20 13 14
136 130 90
99 47 44
20 13 15
19 13 14
18 12 13
44 36 24
22 22 16
34 41 29
22 22 16
48 56 30
37 31 26
38 39 41
27 30 19
24 25 29
38 47 25
249 249 166
22 22 16
22 22 16
22 22 16
21 21 16
22 22 16
45 58 40
57 37 29
61 50 43
67 58 52
42 34 29
22 22 16
48 55 27
21 21 15
21 21 15
55 41 30
41 46 26
44 36 25
21 21 15
83 75 38
57 44 37
32 39 22
208 208 138
46 68 33
79 58 51
33 39 27
29 32 40
20 20 15
21 21 15
85 45 42
75 52 37
42 50 26
50 39 27
41 36 27
61 69 53
33 41 23
19 19 14
20 20 15
50 39 27
28 28 24
169 245 163
46 65 35
40 40 24
67 44 39
19 19 14
42 57 27
31 26 18
35 32 23
32 27 19
41 63 30
16 16 12
71 108 51
18 18 23
45 35 24
69 150 59
24 24 17
26 28 27
39 35 20
29 24 17
16 16 12
21 24 33
81 67 41
24 24 17
42 33 22
14 14 10
15 15 12
32 42 22
68 43 28
25 31 16
35 54 36
13 13 10
241 241 161
20 20 15
23 23 16
40 47 31
26 33 22
66 104 42
13 13 10
51 42 22
46 48 28
12 12 9
15 10 32
19 22 28
9 14 16
21 30 32
7 10 13
23 35 22
7 10 13
12 16 18
18 22 22
43 65 47
19 22 23
33 36 40
58 80 51
11 20 20
14 25 25
37 56 42
30 43 39
69 57 70
20 39 34
17 18 20
7 10 13
9 13 15
11 17 19
20 30 24
31 63 40
8 13 15
7 10 12
9 13 15
16 28 28
19 36 36
22 27 27
19 24 29
10 15 16
67 54 62
20 44 44
57 57 45
61 39 61
28 29 29
1 1 6
2 2 10
16 12 28
2 2 12
43 22 74
6 7 20
16 16 46
7 8 20
12 8 64
6 6 19
5 8 16
12 6 32
13 21 36
12 23 36
0 0 1
8 8 26
4 6 16
0 0 6
15 11 29
0 0 4
0 0 0
0 0 6
0 0 2
12 8 8
57 38 28
56 56 224
5 5 25
5 5 25
5 5 25
11 9 42
15 11 74
5 5 25
5 5 25
5 5 25
14 11 38
6 9 38
6 5 20
53 53 215
40 53 41
252 114 168
67 30 25
11 7 8
129 126 126
69 26 24
11 7 9
124 64 51
25 25 25
56 32 45
53 61 54
11 7 9
38 40 40
24 13 16
24 18 15
48 39 39
11 7 9
29 23 19
36 31 29
21 12 12
23 13 19
16 10 11
23 15 25
15 10 10
39 28 36
14 9 10
44 23 29
41 32 23
26 23 37
14 9 10
32 19 15
12 8 9
15 10 11
12 19 14
29 40 25
46 71 24
21 34 17
9 14 10
35 43 32
9 14 10
16 24 14
9 13 10
13 20 12
10 15 11
8 13 9
62 53 41
10 15 11
15 27 16
53 40 26
26 48 25
12 18 13
11 15 17
26 27 23
28 45 24
23 35 19
161 242 161
10 15 12
10 15 11
17 26 16
34 45 39
28 19 20
37 46 46
17 26 29
2 2 5
255 255 255
2 2 5
2 2 5
2 2 5
2 2 5
2 2 5
2 2 5
2 2 5
2 2 5
2 2 5
2 2 5
2 2 5
2 2 5
2 2 5
2 2 5
2 2 5
2 2 5
2 2 5
2 2 5
2 2 5
2 2 5
2 2 5
2 2 5
255 255 255
255 255 255
255 255 255
255 255 255
255 255 255
255 255 255
255 255 255
255 255 255
255 255 255
255 255 255
255 255 255
2 2 5
2 2 5
2 2 5
2 2 5
2 2 5
2 2 5
2 2 5
2 2 5
2 2 5
2 2 5
2 2 5
2 2 5
2 2 5
2 2 5
2 2 5
2 2 5
2 2 5
2 2 5
2 2 5
2 2 5
2 2 5
2 2 5
45 30 31
41 27 29
49 30 33
40 26 28
40 26 34
53 35 31
34 22 22
36 24 26
40 28 29
37 24 26
49 39 30
35 25 25
200 87 59
36 22 24
31 20 21
28 19 20
28 18 20
52 35 32
64 57 53
24 16 17
18 12 14
18 12 13
36 24 18
21 17 19
20 14 27
13 9 10
19 15 13
19 12 14
41 30 27
14 9 10
56 27 38
20 13 15
60 30 21
85 80 39
14 9 11
148 58 61
14 9 11
33 28 28
93 44 46
16 11 12
106 57 59
42 21 29
231 154 105
53 48 25
54 25 33
25 14 16
15 10 12
18 12 13
15 10 12
16 11 12
63 26 33
19 13 14
15 10 12
17 11 13
54 37 36
48 26 33
107 49 55
244 162 162
15 10 10
36 22 26
16 10 12
35 23 19
17 11 13
32 27 22
60 36 34
54 40 42
61 65 48
17 11 13
18 12 13
75 36 29
17 11 13
24 16 17
101 45 35
24 16 16
56 24 32
26 15 15
30 21 20
246 164 164
36 31 26
71 38 39
53 26 26
40 29 27
51 23 26
72 48 37
34 27 28
91 47 46
18 12 14
19 13 14
246 164 164
43 35 30
19 13 14
38 21 22
68 33 29
19 12 14
28 22 19
103 62 46
19 12 14
46 24 32
35 18 21
19 13 14
33 27 29
48 26 26
61 40 32
39 36 28
41 24 36
100 34 53
52 45 31
68 45 35
20 13 14
19 13 14
19 13 14
20 13 15
74 49 38
22 22 16
27 27 19
22 22 16
37 54 24
22 22 16
39 39 23
22 22 16
25 25 18
21 21 16
51 43 35
48 38 26
22 22 16
27 27 19
22 22 16
26 26 19
85 73 40
27 27 19
55 79 50
21 21 16
54 40 28
21 21 15
46 44 28
25 25 18
21 21 15
36 36 24
35 35 22
32 31 34
28 25 31
20 20 15
32 28 18
58 45 37
161 232 107
51 77 46
45 61 36
28 33 18
32 26 20
20 20 15
53 41 36
136 65 39
75 44 33
20 20 14
34 34 21
46 46 25
33 31 22
71 44 32
28 34 19
20 20 14
18 18 13
19 19 14
51 39 27
20 20 23
74 81 41
19 19 14
18 18 15
46 40 31
213 213 142
17 17 13
30 26 77
24 24 17
19 19 14
75 71 34
17 17 16
77 54 42
42 66 33
17 17 12
18 18 13
26 22 15
39 31 21
48 36 25
16 16 12
15 15 11
54 60 43
27 25 26
28 41 16
78 51 32
14 14 11
39 54 27
243 243 162
54 54 85
45 40 27
17 18 17
15 17 17
46 35 24
13 13 10
57 57 28
33 25 23
51 38 16
12 12 9
26 21 14
13 13 10
47 54 24
12 21 21
7 10 12
18 28 27
23 30 31
24 27 28
11 16 15
16 22 19
37 53 58
7 10 13
23 35 24
15 30 23
89 66 68
10 16 18
72 88 67
23 37 25
12 22 22
29 67 46
14 19 22
7 10 12
25 32 24
15 23 20
130 195 195
11 21 21
16 24 27
21 32 25
17 21 21
40 40 33
17 26 21
10 15 16
26 24 24
36 38 40
17 25 18
28 34 40
38 35 39
127 130 191
6 10 12
12 21 21
32 50 50
6 8 18
5 5 14
3 3 10
14 13 34
3 2 14
5 5 17
3 3 19
0 0 5
1 1 6
3 2 11
7 5 19
10 10 18
0 0 4
2 3 11
2 4 15
0 0 4
0 0 4
0 0 4
1 2 5
8 9 16
4 4 14
2 2 8
0 0 1
58 20 28
5 5 25
9 8 37
20 18 52
23 20 104
5 5 25
19 14 56
7 7 29
16 9 53
8 9 37
21 16 72
14 15 74
6 8 33
10 6 26
3 3 14
6 8 21
10 6 8
53 27 28
87 34 47
10 6 8
75 43 56
36 18 17
58 30 48
27 16 14
81 47 33
23 18 18
35 16 16
18 10 12
16 9 9
30 22 16
63 35 42
156 153 153
11 7 8
23 23 20
79 78 69
53 25 35
73 28 35
26 15 15
89 50 57
125 121 83
13 9 10
113 41 33
39 14 14
10 7 8
31 18 14
15 10 11
27 29 18
10 7 8
39 63 27
38 52 26
51 81 34
47 45 22
12 18 13
9 13 10
24 36 19
9 14 11
8 13 10
9 14 11
9 14 11
11 20 19
34 43 22
58 58 26
43 51 23
28 38 21
9 14 11
22 30 18
50 81 34
161 242 161
28 51 26
45 68 25
26 40 20
10 15 12
16 27 15
42 30 24
25 16 18
17 26 29
2 2 5
2 2 5
255 255 255
2 2 5
2 2 5
2 2 5
2 2 5
2 2 5
2 2 5
2 2 5
2 2 5
2 2 5
2 2 5
2 2 5
2 2 5
2 2 5
2 2 5
2 2 5
2 2 5
2 2 5
2 2 5
2 2 5
2 2 5
2 2 5
2 2 5
2 2 5
2 2 5
255 255 255
255 255 255
255 255 255
255 255 255
255 255 255
255 255 255
255 255 255
255 255 255
255 255 255
255 255 255
2 2 5
2 2 5
2 2 5
2 2 5
2 2 5
2 2 5
2 2 5
2 2 5
2 2 5
2 2 5
2 2 5
2 2 5
2 2 5
2 2 5
2 2 5
2 2 5
2 2 5
2 2 5
2 2 5
2 2 5
2 2 5
2 2 5
103 50 63
39 26 28
94 71 65
40 26 28
35 23 25
39 26 27
82 40 46
34 23 24
213 142 102
45 32 32
99 62 48
34 22 24
36 24 24
57 31 38
50 33 26
55 41 41
32 21 25
48 42 40
48 25 30
41 31 31
82 51 37
38 29 25
19 12 14
44 32 27
12 8 9
13 9 10
14 9 10
44 21 26
14 9 11
18 14 12
14 9 10
49 45 26
45 30 23
34 21 18
30 26 18
30 23 19
14 9 11
40 27 21
14 9 11
26 16 32
47 30 26
15 10 11
243 162 162
15 10 11
19 12 14
107 29 32
24 20 17
15 10 11
37 22 17
15 10 12
17 11 19
43 32 28
16 11 12
27 19 18
17 11 13
17 11 13
244 162 162
32 26 26
47 42 96
189 88 88
47 31 28
20 13 14
47 24 25
16 11 12
47 42 35
31 26 26
23 15 16
16 10 10
86 48 52
26 17 18
18 12 13
93 41 51
18 12 14
29 21 19
35 26 21
78 54 46
245 163 163
43 23 23
62 41 32
246 164 164
33 27 28
19 12 14
18 12 13
26 17 19
136 52 69
27 15 16
19 12 14
19 12 14
19 12 14
52 30 29
26 17 18
71 71 43
76 45 36
42 41 41
40 40 23
54 28 29
54 31 27
37 31 32
50 30 30
33 23 46
84 66 44
20 13 14
33 18 19
37 32 26
46 30 25
29 19 20
52 35 29
67 51 49
37 34 34
246 164 164
20 13 14
19 13 14
48 37 28
22 22 16
46 49 35
58 72 39
62 63 42
24 24 17
52 54 41
32 29 35
57 44 29
30 30 21
32 39 21
44 63 37
48 43 32
28 30 43
40 59 31
36 35 20
60 40 40
26 29 20
21 21 16
54 64 33
26 26 26
47 41 26
44 36 22
33 40 28
116 110 46
30 26 17
40 36 30
20 20 15
21 21 15
202 202 96
36 51 34
32 32 18
42 34 23
34 39 21
62 63 52
20 20 14
52 49 22
23 26 23
42 54 29
247 247 165
19 19 14
31 39 21
19 19 14
39 44 29
26 31 22
72 97 55
51 46 29
179 255 87
37 30 21
39 44 23
71 53 31
40 32 21
81 53 48
18 18 13
19 19 14
23 27 15
46 36 25
18 18 13
33 40 23
41 37 21
26 26 18
37 37 21
66 73 38
33 41 26
35 30 21
33 43 23
15 15 12
17 17 12
19 19 26
106 109 63
20 23 14
53 37 27
16 16 14
15 15 11
54 45 30
25 25 14
70 91 37
241 241 161
14 14 10
26 33 18
56 78 42
52 64 49
82 90 43
66 44 34
13 13 10
104 71 37
14 14 14
17 21 12
15 15 10
68 56 44
39 37 23
13 13 10
26 23 31
10 16 18
27 26 33
16 31 31
15 19 25
14 25 17
11 14 17
25 35 35
6 10 12
24 48 34
18 27 20
20 22 24
17 26 26
24 34 36
11 19 19
9 13 12
11 17 17
6 10 12
27 52 38
13 26 26
39 67 47
21 36 28
33 37 49
6 10 12
31 67 36
14 25 26
45 37 67
14 24 24
8 13 14
55 43 49
14 16 20
11 21 21
8 11 13
16 37 29
10 15 17
12 15 15
7 7 9
1 1 7
6 6 19
6 4 29
2 2 8
6 8 18
2 2 8
1 1 6
15 15 44
2 2 11
21 21 44
1 1 6
0 0 4
6 8 28
7 8 23
1 1 5
2 1 6
19 31 58
9 12 27
4 2 16
6 4 24
4 7 17
5 8 23
6 3 21
8 5 17
6 6 27
13 10 55
14 8 45
7 8 34
10 8 36
13 17 38
7 7 28
9 9 35
17 12 64
8 8 30
13 12 122
5 5 25
56 56 225
6 9 29
4 6 21
8 12 32
20 10 11
24 21 18
27 24 15
34 29 29
118 84 40
179 81 81
38 20 25
22 15 12
8 5 7
10 6 8
25 13 13
23 11 11
20 11 11
81 38 45
56 35 20
16 9 9
98 43 52
80 26 42
33 16 22
46 24 19
10 7 7
8 5 5
15 10 11
16 13 10
11 7 8
10 7 8
10 7 8
10 7 8
43 22 27
39 28 19
41 33 19
14 9 9
40 55 48
18 25 18
25 41 19
24 36 19
12 18 13
9 13 10
8 12 12
19 28 21
9 14 10
28 43 23
46 84 58
13 17 12
16 20 13
10 16 12
13 19 14
27 41 22
98 214 74
39 39 30
43 51 29
69 77 40
21 26 18
23 39 19
39 43 34
18 24 16
19 12 12
22 14 14
45 59 59
24 36 38
2 2 5
2 2 5
2 2 5
2 2 5
2 2 5
2 2 5
2 2 5
2 2 5
2 2 5
2 2 5
2 2 5
2 2 5
2 2 5
2 2 5
2 2 5
2 2 5
2 2 5
2 2 5
2 2 5
2 2 5
2 2 5
2 2 5
2 2 5
2 2 5
2 2 5
2 2 5
2 2 5
2 2 5
255 255 255
255 255 255
255 255 255
255 255 255
255 255 255
2 2 5
2 2 5
2 2 5
2 2 5
2 2 5
2 2 5
2 2 5
2 2 5
2 2 5
2 2 5
2 2 5
2 2 5
2 2 5
2 2 5
2 2 5
2 2 5
2 2 5
2 2 5
2 2 5
2 2 5
2 2 5
2 2 5
2 2 5
2 2 5
2 2 5
2 2 5
37 25 26
66 54 50
88 59 48
45 33 31
80 45 51
124 76 59
42 28 26
123 65 48
67 37 46
61 35 35
77 41 53
44 28 29
39 32 45
61 34 42
66 54 41
212 141 141
64 52 46
26 17 19
27 18 19
35 28 29
121 53 63
85 56 43
54 32 41
25 15 29
22 19 14
65 55 36
13 8 10
76 56 37
30 26 28
20 16 14
23 16 28
113 61 49
33 25 18
14 9 11
15 10 11
15 10 11
31 27 22
22 17 15
15 10 15
16 10 12
54 30 26
52 35 27
59 40 22
58 40 26
42 31 27
15 10 11
40 18 21
15 10 12
31 17 22
31 23 20
52 45 29
27 20 16
16 10 12
16 11 12
62 41 31
16 10 12
48 30 26
75 47 36
58 41 29
15 10 11
53 39 29
244 163 163
17 11 13
18 12 13
31 18 18
30 16 16
17 11 13
18 12 13
82 48 38
35 22 20
38 20 27
36 31 21
46 45 31
57 47 28
245 163 163
84 41 49
27 18 18
53 30 42
24 14 14
29 26 26
19 12 14
21 14 12
68 38 31
59 31 47
24 16 17
72 32 36
57 38 30
19 12 14
41 32 30
41 30 36
30 25 26
72 51 42
114 58 45
24 16 17
18 12 14
42 24 22
56 25 33
41 27 23
52 27 36
55 39 37
84 49 36
41 22 27
52 27 34
64 43 30
42 26 31
35 29 31
19 13 14
19 13 14
20 13 14
66 33 29
82 59 40
19 12 14
109 67 49
22 22 16
40 43 31
27 28 25
22 22 16
22 22 16
174 251 116
47 47 27
21 21 16
41 45 30
42 32 26
44 56 30
86 68 36
82 54 49
55 73 43
41 34 29
21 21 15
65 46 26
50 36 31
21 21 15
26 25 23
41 51 37
21 21 15
41 53 36
64 64 40
42 84 50
67 68 36
66 75 47
38 49 26
29 29 20
19 19 15
37 37 23
30 30 20
31 28 47
31 31 18
54 62 43
242 167 161
88 68 37
210 210 140
26 30 22
30 34 20
24 29 30
46 52 25
19 19 14
230 159 106
77 41 23
110 84 36
19 19 14
65 53 31
246 246 164
17 17 13
43 35 25
18 18 14
18 18 14
53 72 32
16 16 15
170 247 113
21 21 15
63 42 28
35 32 34
33 48 28
139 201 134
27 40 18
21 21 24
17 17 12
36 29 20
32 44 21
58 58 30
32 42 22
64 64 32
42 38 20
15 15 11
20 24 14
27 32 42
37 43 23
68 56 37
36 47 21
27 35 23
12 12 8
16 16 12
36 42 22
15 15 11
238 162 108
14 14 11
32 67 24
15 14 21
29 38 27
11 11 10
82 82 47
46 50 30
68 90 36
23 30 15
17 19 23
23 30 36
6 10 12
36 36 54
18 20 20
39 41 52
10 13 13
15 19 19
23 39 23
10 20 17
14 18 21
6 10 12
21 24 24
6 10 12
44 35 29
9 16 16
126 129 129
8 12 14
25 45 25
24 40 35
22 25 21
15 18 22
25 38 24
8 8 10
6 6 8
42 70 55
68 43 54
21 30 44
16 10 11
27 20 20
7 7 9
44 27 30
19 24 24
20 13 20
32 23 24
8 11 11
3 4 11
1 1 9
6 7 18
3 3 11
4 4 14
5 6 15
3 4 16
3 3 11
2 3 19
1 1 4
4 4 17
22 25 51
3 4 12
4 6 18
0 0 4
7 6 18
1 2 6
3 5 15
48 32 129
9 9 24
12 9 39
3 5 14
2 2 7
3 4 33
5 5 40
5 5 24
7 9 38
10 8 42
14 17 52
21 14 71
10 16 51
13 14 43
9 11 46
5 5 24
10 12 40
11 8 56
11 9 39
12 10 55
6 7 31
4 4 24
9 9 34
6 4 19
11 7 8
13 7 7
40 32 18
10 6 7
39 20 20
16 8 8
125 50 32
14 8 8
56 39 38
17 11 9
34 14 19
8 5 7
33 17 24
13 8 10
19 10 12
17 13 15
10 6 8
45 34 24
14 11 13
10 7 8
67 24 30
49 28 36
15 10 11
44 26 21
10 7 8
33 18 24
25 21 15
38 20 20
16 16 12
19 10 34
52 34 26
14 17 28
8 13 10
11 16 11
21 42 29
21 36 19
59 40 24
17 20 18
26 26 20
18 22 18
11 17 12
160 241 160
18 24 16
13 20 14
19 23 21
9 14 11
20 36 18
9 13 14
9 14 11
44 40 26
13 23 13
20 32 18
15 27 15
40 58 21
31 26 26
76 38 32
40 65 60
32 55 49
67 100 83
2 2 5
2 2 5
2 2 5
2 2 5
2 2 5
2 2 5
34 34 24
149 89 52
44 44 31
144 102 64
2 2 5
2 2 5
2 2 5
2 2 5
2 2 5
2 2 5
2 2 5
2 2 5
2 2 5
2 2 5
2 2 5
2 2 5
2 2 5
2 2 5
2 2 5
2 2 5
2 2 5
2 2 5
255 255 255
2 2 5
2 2 5
2 2 5
2 2 5
2 2 5
2 2 5
2 2 5
2 2 5
2 2 5
2 2 5
2 2 5
2 2 5
2 2 5
2 2 5
2 2 5
2 2 5
2 2 5
2 2 5
2 2 5
2 2 5
2 2 5
2 2 5
2 2 5
2 2 5
2 2 5
2 2 5
2 2 5
2 2 5
2 2 5
2 2 5
54 36 32
38 25 27
106 75 58
32 21 23
68 45 38
36 24 25
58 34 39
255 176 176
35 23 25
44 27 31
31 21 22
62 48 37
31 21 22
56 31 37
55 33 40
66 69 49
55 30 26
59 43 33
35 21 23
56 42 33
24 16 18
40 34 28
103 58 42
21 14 15
39 24 20
17 11 13
27 21 16
41 42 22
21 17 18
12 8 10
17 11 12
17 11 12
33 24 21
33 22 17
43 43 25
48 44 104
57 28 39
50 33 26
25 21 17
48 35 24
242 161 161
16 10 12
46 24 22
15 10 12
48 26 23
15 10 12
34 17 18
53 36 27
58 39 29
29 19 17
28 24 20
77 40 42
58 30 35
18 13 19
49 33 23
53 31 26
17 11 12
31 26 21
48 25 30
38 21 22
39 19 17
25 20 17
17 11 13
23 15 16
17 11 13
17 11 12
26 20 18
63 48 34
135 177 66
108 79 50
28 22 19
43 22 21
68 63 39
25 18 47
18 12 13
20 13 15
106 60 50
104 52 45
36 24 19
18 12 13
35 19 21
52 26 36
25 20 17
239 109 159
33 28 20
68 45 34
47 34 32
20 13 14
44 29 30
23 15 16
55 43 33
62 29 37
45 34 35
53 32 25
188 130 51
42 22 28
245 163 163
49 21 30
18 12 13
32 37 33
19 12 14
71 62 42
247 164 164
31 18 44
24 18 20
69 49 32
32 26 28
25 15 18
51 28 29
69 42 31
38 20 20
19 12 14
71 32 28
23 23 16
22 22 16
72 105 44
21 21 16
20 20 16
22 22 16
33 33 20
46 48 32
21 21 16
21 21 15
21 21 15
64 76 36
21 21 16
21 21 15
104 72 62
79 63 42
30 28 18
112 68 53
58 51 31
53 46 34
39 49 34
54 42 32
20 20 15
31 31 18
26 22 29
52 38 25
85 85 52
24 24 23
47 37 26
29 36 19
20 20 14
101 55 41
19 19 14
25 27 25
114 61 49
50 60 40
48 45 26
19 19 14
24 23 31
19 19 14
53 35 27
25 25 18
25 25 18
110 69 34
18 18 19
23 26 18
52 43 27
66 36 22
219 107 100
26 26 18
42 38 21
18 18 13
18 18 13
38 55 21
17 17 13
19 19 14
18 18 13
17 17 13
47 39 31
44 38 23
47 36 25
27 23 16
104 63 46
24 28 17
57 52 30
35 28 20
63 104 38
46 57 24
72 52 37
50 37 24
63 56 30
26 33 22
37 50 29
41 55 23
81 66 38
49 63 42
22 19 13
14 14 11
13 13 10
63 40 28
28 43 25
241 241 161
22 20 24
13 13 10
11 11 10
39 61 35
16 16 16
13 13 10
15 15 10
19 19 14
17 16 14
15 8 12
23 52 29
7 7 9
15 21 21
7 7 9
9 13 15
19 21 23
4 4 6
24 40 30
17 10 17
12 15 15
45 43 55
22 26 26
117 173 173
208 208 208
15 20 21
17 24 20
16 23 23
8 8 10
22 29 24
43 37 26
54 48 43
27 39 45
38 27 27
174 122 182
7 7 9
42 31 44
6 6 8
5 5 8
27 46 39
6 6 8
52 52 39
11 17 11
206 139 206
16 13 16
15 19 19
3 3 12
1 1 6
7 8 23
1 1 6
0 0 5
2 2 12
4 5 14
1 1 6
11 11 42
5 5 16
13 13 32
2 2 8
14 7 37
41 40 111
4 6 29
6 11 34
1 1 5
0 0 4
0 0 4
9 11 22
0 0 4
2 3 8
5 4 18
0 0 4
16 13 62
5 5 23
5 5 24
5 5 24
7 7 32
20 23 66
12 15 68
5 5 23
14 11 56
5 5 23
22 15 112
23 17 77
5 5 23
10 10 36
10 9 36
5 7 23
3 3 14
7 5 23
2 2 4
8 6 6
27 18 11
12 6 6
12 8 9
6 4 4
5 3 3
26 15 12
13 12 14
49 16 16
10 7 8
22 12 14
15 8 11
33 13 15
7 4 6
28 20 22
17 11 12
22 11 11
50 46 28
24 21 17
60 29 26
26 13 13
22 13 12
118 41 46
18 12 12
38 25 20
74 33 27
16 11 12
19 17 13
45 35 21
10 6 8
53 41 30
24 43 24
28 46 21
30 59 28
30 57 31
33 50 25
23 33 16
16 19 17
50 63 36
46 59 33
49 52 44
32 37 33
48 65 60
18 33 20
9 13 10
49 105 28
12 18 13
8 12 10
11 17 12
31 30 20
57 86 35
13 23 17
21 14 14
34 24 21
43 52 65
43 60 55
31 50 47
70 159 84
2 2 5
2 2 5
2 2 5
2 2 5
30 30 22
246 174 116
60 67 40
124 133 64
47 47 33
68 68 47
58 58 40
72 72 49
2 2 5
2 2 5
2 2 5
2 2 5
2 2 5
2 2 5
2 2 5
2 2 5
2 2 5
2 2 5
2 2 5
2 2 5
2 2 5
2 2 5
2 2 5
2 2 5
2 2 5
2 2 5
2 2 5
2 2 5
2 2 5
2 2 5
2 2 5
2 2 5
2 2 5
2 2 5
2 2 5
2 2 5
2 2 5
2 2 5
2 2 5
2 2 5
2 2 5
2 2 5
2 2 5
2 2 5
2 2 5
2 2 5
2 2 5
2 2 5
2 2 5
2 2 5
2 2 5
2 2 5
2 2 5
2 2 5
2 2 5
59 33 41
31 21 22
39 26 27
38 25 26
91 55 44
34 22 22
101 53 58
46 30 28
48 36 36
121 97 65
65 32 36
78 57 63
39 30 32
84 62 57
82 39 50
78 44 44
35 23 22
45 36 50
109 40 54
53 52 33
26 17 19
152 59 65
100 54 47
43 36 38
75 48 36
18 12 13
28 23 20
37 26 20
43 33 21
19 14 13
29 19 16
65 42 43
49 24 31
14 9 14
43 23 48
27 19 43
42 33 25
39 41 21
93 54 44
21 12 12
14 9 11
242 161 161
15 10 12
65 43 39
39 35 23
47 21 22
32 27 22
59 48 33
41 36 29
49 50 34
55 43 31
16 10 12
22 18 39
37 32 25
19 13 14
41 41 23
71 54 35
71 47 36
16 11 12
16 11 12
31 21 18
44 34 34
30 35 27
22 15 16
41 22 28
26 15 27
22 16 19
41 27 22
49 26 34
89 56 41
53 35 27
132 126 88
34 24 22
32 20 20
69 50 34
73 48 37
25 19 21
64 27 36
25 18 16
22 15 23
32 29 20
18 12 13
255 93 66
79 60 43
243 162 111
49 31 29
31 26 21
38 32 34
22 14 24
19 12 14
32 18 23
45 30 24
35 20 20
66 48 34
31 16 17
17 11 12
32 19 19
19 12 14
19 13 14
69 41 35
63 42 33
37 29 25
17 11 12
19 13 19
27 18 19
18 12 14
96 63 45
49 34 24
19 12 14
246 164 164
60 26 33
35 18 22
99 39 31
21 21 16
32 38 22
34 29 18
21 21 15
29 29 20
31 34 23
22 22 16
38 33 22
21 21 15
34 38 25
96 59 43
44 56 34
52 41 28
20 20 15
26 26 18
60 54 36
63 86 33
53 42 28
20 20 15
40 45 26
65 42 31
20 20 15
20 20 15
52 52 28
20 20 14
26 26 19
72 67 34
20 20 15
53 47 36
39 49 27
29 38 25
62 73 44
25 24 28
71 64 34
27 32 18
28 28 20
19 19 14
38 32 21
28 27 32
78 78 40
20 20 14
59 37 27
56 49 28
76 61 31
47 63 37
26 30 17
49 49 26
30 37 22
75 87 38
151 154 101
17 17 13
45 52 39
25 25 31
27 29 29
52 85 30
98 70 40
110 58 33
27 27 25
52 82 39
17 17 12
20 20 14
16 16 12
40 32 21
42 54 29
31 27 48
15 15 12
15 15 12
243 243 162
28 35 19
16 16 12
53 49 24
15 15 11
41 58 26
15 15 11
18 16 26
43 54 29
15 15 11
13 13 12
14 14 11
19 19 13
12 12 9
98 103 31
21 21 19
29 34 18
190 92 88
12 12 9
12 12 9
13 15 15
24 19 13
47 67 25
42 37 20
19 23 21
10 13 15
20 13 17
7 7 9
33 23 24
25 17 21
34 34 32
39 22 30
11 14 14
14 17 15
7 7 9
6 6 8
14 17 18
7 7 9
5 5 7
25 25 28
36 25 27
16 20 22
11 15 17
9 9 11
52 72 52
25 30 28
57 34 48
10 13 13
34 19 27
98 56 66
52 59 38
25 33 29
43 45 51
5 5 7
16 15 35
32 39 39
11 8 10
41 40 34
6 6 8
3 3 9
5 5 16
4 4 26
11 8 26
17 22 32
3 3 10
2 2 9
8 8 25
6 6 14
10 5 18
11 8 28
1 1 8
9 6 24
6 9 34
0 0 0
3 3 10
12 7 43
5 11 19
5 8 17
15 8 52
0 0 4
2 3 7
0 0 4
1 2 7
14 8 29
13 14 70
20 22 68
13 10 50
5 5 23
15 11 51
7 7 28
5 5 23
5 5 23
13 10 56
7 7 33
5 5 24
15 13 59
10 10 34
5 5 23
10 10 35
2 2 13
7 7 25
15 10 37
19 29 29
134 201 134
24 27 39
21 36 16
92 197 131
14 7 6
20 13 10
3 3 5
5 7 5
9 6 7
68 27 33
59 106 108
9 6 6
13 9 9
20 13 13
17 10 10
9 6 7
43 21 17
135 64 51
78 78 27
64 32 44
58 45 36
10 6 8
11 7 9
33 14 18
38 17 24
9 6 8
16 12 25
33 28 20
81 47 29
29 31 20
8 12 10
17 30 15
160 240 160
22 40 17
9 13 10
29 44 23
32 53 24
48 73 35
59 86 45
8 12 10
20 35 16
8 12 9
9 13 10
8 13 11
9 13 10
36 61 26
12 18 15
40 72 28
14 21 14
21 49 20
52 48 38
9 14 10
69 39 29
50 130 80
21 32 34
24 37 39
21 31 34
148 76 82
2 2 5
2 2 5
2 2 5
42 36 24
42 44 28
37 37 26
86 104 47
164 123 84
94 87 59
64 64 44
92 119 81
71 71 49
2 2 5
2 2 5
2 2 5
2 2 5
2 2 5
2 2 5
2 2 5
2 2 5
2 2 5
2 2 5
2 2 5
2 2 5
2 2 5
2 2 5
2 2 5
2 2 5
2 2 5
2 2 5
2 2 5
2 2 5
2 2 5
2 2 5
2 2 5
2 2 5
2 2 5
2 2 5
2 2 5
2 2 5
2 2 5
2 2 5
2 2 5
2 2 5
2 2 5
2 2 5
2 2 5
2 2 5
2 2 5
2 2 5
2 2 5
2 2 5
2 2 5
2 2 5
2 2 5
2 2 5
2 2 5
2 2 5
2 2 5
62 53 47
60 45 48
102 45 57
122 51 69
212 101 141
63 35 43
32 21 22
94 56 45
53 43 41
89 39 45
33 22 23
42 30 28
81 59 71
62 33 42
28 19 20
59 31 37
255 170 170
27 18 19
42 28 24
44 23 27
253 168 168
24 16 17
69 34 43
89 52 36
22 14 16
29 19 20
20 13 15
28 30 23
12 8 9
18 12 13
39 31 22
13 8 10
20 13 15
15 10 11
25 12 12
52 47 27
24 21 17
23 15 16
14 9 11
25 14 29
18 14 15
14 9 11
19 12 14
25 19 16
23 15 17
54 25 26
18 12 13
128 124 85
31 25 26
15 10 12
15 10 12
160 156 76
28 23 20
16 10 11
15 10 11
107 78 56
95 104 47
33 25 27
45 36 27
19 14 22
16 10 12
40 22 22
36 24 20
75 38 31
82 36 29
90 60 38
16 10 12
31 23 23
72 40 38
17 11 13
21 14 15
17 11 13
60 40 31
33 23 23
17 11 13
31 22 20
17 11 13
22 16 17
53 28 28
17 11 13
27 22 22
68 31 41
97 38 43
151 42 74
19 13 14
245 163 163
17 11 13
18 12 13
20 13 14
77 91 39
33 22 21
19 12 14
31 20 18
60 42 38
18 12 14
247 164 164
52 26 36
49 56 37
38 20 19
18 12 13
72 57 42
27 18 19
167 111 78
29 17 17
28 20 20
246 164 164
18 12 13
19 13 14
19 12 14
69 58 45
49 44 33
19 12 14
66 44 142
34 42 29
115 134 42
21 21 15
55 62 36
46 40 25
35 39 23
38 48 26
119 71 45
21 21 15
28 33 23
21 21 15
21 21 15
20 20 14
42 34 21
125 89 64
71 105 47
100 96 63
21 21 19
57 73 50
41 53 28
26 24 35
39 34 27
20 20 14
41 53 36
62 56 52
24 24 17
21 21 15
52 40 28
59 45 40
46 33 30
33 41 25
39 43 28
35 33 22
19 19 14
56 56 29
37 41 30
37 47 25
19 19 14
17 17 14
44 35 24
41 41 20
87 89 44
18 18 13
18 18 13
65 90 35
128 77 32
35 43 28
66 44 38
35 28 20
22 20 30
21 21 17
34 28 19
23 21 32
81 58 41
36 46 23
17 17 13
28 23 16
31 34 27
22 22 15
50 40 35
37 35 20
50 52 29
29 25 20
232 159 106
46 41 27
24 24 17
255 131 119
29 24 16
57 47 24
15 15 12
37 40 30
88 59 44
41 32 22
18 21 14
11 11 7
23 23 17
32 28 33
21 18 13
79 41 32
61 48 25
13 13 10
35 60 24
13 13 10
13 13 10
22 19 25
13 13 10
33 30 17
13 13 13
59 59 37
24 19 13
27 34 17
17 23 23
28 16 22
41 19 41
46 31 36
26 17 22
32 19 30
21 15 41
19 15 19
20 16 22
9 9 11
16 22 17
210 210 210
55 51 36
49 55 31
12 16 16
173 117 173
16 12 16
8 8 10
30 23 26
28 20 30
9 11 11
36 27 31
132 195 195
16 12 16
36 30 43
23 29 29
56 71 41
27 19 20
64 46 40
8 8 10
22 19 26
14 14 16
43 50 32
50 29 50
4 4 13
1 1 6
6 6 30
17 13 39
9 9 27
14 14 25
9 7 35
17 16 40
1 1 7
11 10 31
10 7 40
5 6 14
5 6 20
1 1 5
0 0 4
0 0 4
0 0 4
2 3 12
18 10 50
0 0 4
0 0 4
25 14 37
5 10 42
5 10 21
3 4 12
9 9 33
17 16 47
19 19 61
15 11 54
10 10 44
10 12 40
15 11 58
12 10 44
14 12 36
10 11 47
9 8 33
9 7 33
12 14 46
5 5 23
9 11 47
11 11 36
2 2 13
3 3 14
5 7 24
4 5 18
34 49 30
12 17 12
11 7 7
2 2 4
15 13 12
13 21 12
2 2 4
0 0 0
16 13 13
205 205 205
36 26 17
7 4 4
21 27 14
35 58 46
3 3 5
2 2 4
36 19 15
16 9 9
13 9 10
21 14 12
8 5 5
15 8 20
13 8 10
27 16 14
17 10 10
39 21 15
67 32 25
19 13 11
36 19 17
11 7 9
7 11 8
13 20 14
11 17 11
65 88 31
18 32 22
35 53 23
122 184 84
24 44 18
98 215 104
9 15 15
8 13 10
11 17 13
9 13 10
73 56 34
24 30 24
13 19 14
29 48 21
71 153 41
9 13 10
47 54 43
10 18 20
73 31 41
2 2 5
15 23 26
19 28 31
42 28 39
67 52 65
68 49 63
2 2 5
2 2 5
59 67 45
35 35 25
39 39 27
70 65 43
49 49 34
116 109 65
88 77 52
67 64 43
86 86 59
71 71 49
78 78 54
2 2 5
2 2 5
2 2 5
2 2 5
2 2 5
2 2 5
2 2 5
2 2 5
2 2 5
2 2 5
2 2 5
2 2 5
2 2 5
2 2 5
2 2 5
2 2 5
2 2 5
2 2 5
2 2 5
2 2 5
2 2 5
2 2 5
2 2 5
2 2 5
2 2 5
2 2 5
2 2 5
2 2 5
2 2 5
2 2 5
2 2 5
2 2 5
2 2 5
2 2 5
2 2 5
2 2 5
2 2 5
2 2 5
2 2 5
2 2 5
2 2 5
2 2 5
2 2 5
2 2 5
2 2 5
2 2 5
37 24 26
49 40 41
29 19 21
71 37 49
35 23 24
68 49 40
65 56 48
114 76 57
255 255 142
72 42 48
69 52 37
30 20 21
34 22 23
47 27 34
32 21 23
67 28 39
69 44 35
50 32 26
51 34 46
26 17 19
66 39 58
40 37 30
30 21 19
65 49 37
21 14 16
30 17 17
39 28 23
18 12 13
39 34 27
72 57 37
22 12 27
30 16 20
31 28 23
13 9 10
15 10 11
16 9 17
26 26 20
14 9 11
124 30 48
242 161 161
27 25 25
83 50 41
111 105 74
24 16 14
14 9 11
23 15 14
18 12 12
71 34 31
15 10 11
97 56 46
68 40 35
31 23 18
36 29 25
36 21 20
42 21 22
47 37 28
50 27 21
16 11 12
17 11 12
70 51 28
49 25 43
35 30 24
244 162 162
31 26 23
17 11 13
198 132 132
29 23 24
86 37 45
79 43 32
91 73 49
16 11 12
17 11 16
44 29 33
89 55 48
94 49 45
48 26 34
166 161 110
70 40 35
18 12 13
37 20 20
33 27 22
25 14 15
23 15 16
39 32 29
54 42 25
38 33 26
17 11 13
56 34 32
17 11 13
103 54 41
57 29 36
16 10 10
18 12 14
50 46 35
42 22 29
18 12 13
18 12 13
46 41 37
38 21 21
158 96 47
19 12 14
23 15 17
26 21 18
138 80 88
26 16 31
19 12 14
18 12 13
168 162 112
19 12 14
24 18 16
86 36 46
24 16 17
29 21 23
53 70 33
68 47 35
47 41 32
29 28 34
34 29 35
21 21 15
120 58 55
52 41 28
20 20 15
65 47 38
21 20 27
31 37 21
49 73 37
34 38 30
46 36 25
26 26 18
71 55 31
20 20 15
41 31 27
20 20 15
40 54 29
45 36 25
206 206 137
57 47 29
48 50 26
20 20 14
19 19 14
117 54 45
46 56 30
80 49 39
29 29 33
19 19 14
19 19 14
38 36 39
18 18 13
31 36 19
49 53 27
56 50 25
34 40 23
34 44 23
42 54 24
28 27 23
19 19 16
51 58 28
19 19 14
17 17 13
43 55 27
17 17 13
17 17 13
24 29 20
59 64 43
16 16 12
23 28 20
33 39 30
17 17 13
24 21 14
27 23 19
96 60 45
27 27 19
34 30 18
25 21 15
21 21 15
16 16 12
16 16 12
24 20 14
43 33 23
78 53 33
29 24 20
26 26 22
14 14 11
14 14 11
94 58 46
14 14 11
43 58 40
14 14 11
42 32 22
19 19 14
22 19 12
28 26 18
21 21 15
12 12 10
14 14 10
13 13 10
37 46 32
32 43 22
17 14 23
31 24 17
51 37 57
23 19 13
42 42 23
27 35 19
30 18 14
211 142 142
6 6 9
32 28 37
6 6 8
4 4 7
41 85 48
29 36 39
31 23 45
33 20 26
7 7 10
22 23 27
46 54 34
20 24 24
36 22 55
11 11 13
57 57 41
45 63 52
84 50 43
28 22 24
14 10 10
20 26 30
31 31 24
22 26 25
23 23 28
34 37 40
17 21 21
20 16 17
41 43 35
12 12 14
36 43 31
58 58 43
12 18 13
7 7 9
1 1 5
0 0 5
8 7 19
2 2 9
8 6 22
7 4 23
6 5 20
4 4 13
10 8 20
9 10 28
12 12 33
6 5 14
0 0 5
7 6 21
6 10 22
2 2 9
20 11 53
13 15 40
9 9 26
0 0 4
9 6 37
1 1 18
32 48 129
1 2 7
0 1 9
17 13 74
14 11 53
15 11 44
5 5 25
11 10 33
52 36 208
5 5 23
5 5 23
9 10 47
7 7 27
5 5 23
8 8 28
11 12 61
7 7 27
11 13 56
8 10 42
12 13 44
9 8 32
2 2 13
2 2 13
33 22 23
2 2 4
36 18 18
51 48 32
23 12 18
222 215 104
21 28 20
2 2 4
8 5 5
26 29 29
69 35 28
12 15 15
17 14 14
13 10 10
7 7 9
170 114 114
6 6 8
14 20 15
35 43 30
11 8 8
15 12 12
19 15 15
11 9 9
18 14 21
31 36 44
28 41 28
20 15 12
41 36 25
34 30 18
34 24 17
11 16 12
15 23 13
8 12 10
12 25 27
10 15 11
54 52 38
8 12 8
13 19 23
72 48 47
39 80 31
30 45 21
12 16 26
13 17 32
54 48 37
16 24 17
12 16 11
9 13 10
35 37 18
17 30 22
20 34 20
9 13 10
15 10 11
44 43 50
46 61 49
26 42 36
132 48 85
94 67 77
48 32 51
68 41 59
29 29 20
31 31 22
39 39 27
46 46 32
66 75 50
48 48 33
87 73 51
64 64 44
64 64 44
85 81 54
73 73 50
114 96 70
143 171 97
121 108 77
2 2 5
2 2 5
2 2 5
2 2 5
2 2 5
2 2 5
2 2 5
2 2 5
2 2 5
2 2 5
2 2 5
2 2 5
2 2 5
2 2 5
2 2 5
2 2 5
2 2 5
2 2 5
2 2 5
2 2 5
2 2 5
2 2 5
2 2 5
2 2 5
2 2 5
2 2 5
2 2 5
2 2 5
2 2 5
2 2 5
2 2 5
2 2 5
2 2 5
2 2 5
2 2 5
2 2 5
2 2 5
2 2 5
2 2 5
2 2 5
2 2 5
2 2 5
2 2 5
2 2 5
2 2 5
31 20 22
28 19 20
30 20 21
35 23 25
98 65 51
38 28 26
32 21 23
30 19 28
57 45 45
123 40 54
31 20 22
29 19 21
57 31 37
42 25 25
86 55 43
27 18 19
75 35 44
26 17 19
76 50 40
59 35 35
50 27 30
23 15 17
38 29 29
22 15 16
22 15 16
27 20 19
46 23 28
57 30 38
15 10 11
22 18 15
44 44 24
26 17 15
67 30 45
44 20 20
17 11 12
28 15 15
28 18 16
38 49 29
22 13 13
21 17 15
51 50 27
72 52 43
34 35 40
52 38 28
47 23 32
27 15 19
28 16 16
15 10 12
26 15 15
158 154 154
36 38 40
15 10 11
15 10 12
18 13 21
44 36 24
240 109 109
15 10 11
58 33 33
23 15 16
20 13 15
22 16 16
30 25 18
103 56 35
36 18 18
243 162 162
36 20 24
48 32 27
52 35 29
46 31 35
17 11 13
66 75 52
83 35 42
125 47 74
86 62 46
31 19 19
33 22 19
24 16 17
71 42 32
17 11 13
17 11 13
117 75 45
30 25 21
41 32 32
33 21 18
26 17 18
41 31 21
51 29 35
28 21 19
37 22 20
30 24 25
48 49 29
23 18 16
210 140 140
77 33 46
47 22 22
18 12 13
52 24 26
18 12 13
156 74 67
67 45 34
18 12 13
44 38 38
18 12 13
27 21 22
27 16 19
116 107 111
18 12 13
25 18 19
19 12 14
23 15 16
50 39 24
18 12 14
25 23 42
27 27 18
42 55 22
21 21 15
57 75 36
27 27 19
43 50 29
64 61 46
30 32 22
36 30 18
65 49 31
111 55 44
41 61 38
50 63 29
56 43 30
48 38 26
22 22 24
87 54 47
247 247 165
29 29 20
19 19 14
50 44 29
65 100 35
68 59 38
31 31 19
41 47 23
17 17 12
34 38 28
58 41 31
37 47 33
19 19 14
19 19 14
56 48 32
54 52 32
29 33 23
23 24 15
23 23 16
37 43 29
53 63 42
18 18 13
38 38 40
17 17 13
41 30 23
21 21 21
144 206 72
52 44 27
24 24 17
19 19 14
29 29 20
22 23 30
228 157 104
17 17 13
17 17 12
46 35 24
105 114 56
53 49 31
47 52 31
29 29 18
242 242 161
16 16 12
57 66 38
41 37 19
14 14 12
15 15 11
37 51 27
65 76 39
16 16 15
64 51 34
20 19 20
32 28 19
14 14 11
22 22 16
19 19 14
19 19 21
15 15 11
38 29 20
59 55 32
22 27 16
80 41 32
12 12 9
43 52 32
46 40 24
47 31 24
21 27 15
42 49 25
45 33 19
85 174 56
16 16 12
28 22 17
23 36 18
8 8 5
10 10 12
12 15 25
36 36 42
44 26 32
94 45 53
9 9 11
59 31 40
9 9 11
8 8 10
31 22 21
72 42 63
8 8 10
43 35 43
7 7 9
9 9 11
72 56 72
28 33 24
29 29 22
19 15 19
33 27 38
47 47 32
12 12 14
32 18 25
26 28 28
74 47 53
65 46 51
34 41 41
68 66 61
21 19 19
65 29 36
45 56 51
57 38 30
23 33 33
9 11 20
6 6 14
7 10 31
0 0 5
11 9 26
7 5 21
1 1 6
6 5 19
1 1 7
3 3 9
4 5 23
16 9 64
6 3 20
1 1 5
0 0 2
1 2 6
2 3 10
2 3 8
8 10 23
2 3 10
2 2 8
0 0 0
14 13 34
0 0 0
0 0 4
4 7 16
4 4 22
12 15 53
15 18 47
18 13 55
10 12 58
12 21 64
20 15 50
8 7 29
37 30 158
6 6 25
13 13 53
55 55 222
8 6 29
15 20 49
9 9 32
6 6 27
5 5 23
2 2 11
3 4 15
12 10 37
4 5 17
3 3 17
2 2 4
58 32 42
14 8 8
25 13 13
21 31 33
19 23 15
3 3 5
85 69 47
6 6 8
8 11 9
18 14 15
26 18 26
13 10 10
61 51 51
17 21 14
58 50 45
6 6 8
29 33 29
3 3 5
13 10 11
11 8 8
18 21 16
25 15 17
32 26 19
255 150 107
11 15 12
53 74 36
24 17 14
40 38 20
48 54 29
53 80 38
33 50 25
23 34 18
12 15 19
35 41 35
13 20 12
8 12 10
17 38 21
13 17 12
30 33 23
19 24 17
13 20 14
12 21 13
153 229 104
29 30 21
23 23 16
30 34 26
8 13 10
27 22 18
0 0 0
20 31 27
18 27 29
29 19 32
41 28 52
82 120 83
46 33 46
55 70 40
31 31 22
42 42 29
35 35 25
73 61 70
52 52 36
88 106 51
67 67 46
87 98 59
68 68 46
161 136 78
76 76 52
83 83 56
172 159 100
88 99 67
78 78 53
2 2 5
2 2 5
2 2 5
2 2 5
2 2 5
2 2 5
2 2 5
2 2 5
2 2 5
2 2 5
2 2 5
2 2 5
2 2 5
2 2 5
2 2 5
2 2 5
2 2 5
2 2 5
2 2 5
2 2 5
2 2 5
2 2 5
2 2 5
2 2 5
2 2 5
2 2 5
2 2 5
2 2 5
2 2 5
2 2 5
2 2 5
2 2 5
2 2 5
2 2 5
2 2 5
2 2 5
2 2 5
2 2 5
2 2 5
2 2 5
2 2 5
2 2 5
17 26 29
26 17 19
65 43 35
58 37 38
29 19 20
29 19 21
35 23 25
55 43 36
68 38 34
44 32 32
33 22 24
51 34 49
67 37 37
29 20 29
29 19 20
63 50 49
27 18 19
27 18 19
83 44 37
26 16 19
65 34 43
25 17 18
40 25 25
88 64 44
23 15 17
37 28 28
54 55 47
22 14 16
54 28 26
27 22 18
27 18 15
22 13 31
13 8 10
14 9 14
13 9 10
45 32 25
13 10 15
38 22 22
50 40 38
29 22 17
15 10 16
14 9 10
33 25 20
21 13 13
15 10 11
19 12 12
29 24 20
15 10 11
14 9 11
50 37 26
58 38 32
24 16 14
20 13 14
60 30 28
62 21 24
136 76 47
61 57 34
27 23 19
152 78 60
16 10 12
33 31 26
15 10 11
165 110 76
15 10 11
43 24 22
16 11 12
56 34 39
40 18 23
19 13 14
29 23 19
43 42 75
79 32 37
16 11 12
34 25 24
61 33 33
88 30 39
24 19 21
20 13 15
24 16 17
44 39 25
243 111 117
31 26 27
83 38 30
17 11 13
245 163 163
28 23 19
35 21 23
53 35 27
17 11 13
42 22 28
17 11 13
18 12 13
30 20 17
41 22 22
44 29 24
18 12 13
62 43 28
33 26 23
44 33 28
19 13 13
48 32 26
45 37 32
18 12 13
27 15 19
53 43 30
19 13 14
43 28 23
47 31 29
19 12 14
18 12 14
18 12 14
39 34 33
39 21 22
71 39 56
18 18 13
49 74 43
78 65 38
20 20 15
75 53 50
64 43 32
36 41 30
29 34 20
45 69 35
88 68 35
77 54 29
20 20 15
19 19 14
30 37 25
66 43 31
65 49 34
40 45 26
20 20 15
28 24 34
19 19 14
42 63 31
25 24 33
19 19 14
26 26 18
27 27 19
18 18 15
29 29 20
102 77 48
245 245 163
58 69 36
19 19 14
54 72 39
19 19 14
64 102 50
18 18 13
25 25 18
59 56 30
30 30 21
18 18 13
18 18 13
20 20 24
65 47 42
18 18 13
18 18 13
25 31 21
20 21 19
31 36 26
22 22 16
59 72 32
17 17 12
45 47 32
27 31 18
95 148 75
40 31 25
17 17 13
33 48 29
101 77 41
23 26 17
93 66 35
26 26 19
16 16 12
53 53 80
18 22 24
60 71 49
21 21 15
49 37 26
73 90 37
85 56 32
47 36 23
13 13 10
39 53 21
14 14 11
34 37 44
39 39 20
12 12 10
52 53 36
11 11 7
46 41 21
15 15 14
47 35 73
51 44 36
11 11 10
13 13 10
93 103 65
24 24 16
11 11 9
54 69 24
11 11 9
26 21 15
10 10 8
144 76 52
34 37 25
14 19 21
205 205 205
44 39 40
5 5 7
24 15 24
49 43 54
9 9 11
13 13 15
61 56 65
30 20 20
52 35 44
44 36 50
22 36 36
16 20 22
7 7 9
5 5 7
19 19 15
9 9 11
13 18 18
47 27 39
24 19 20
5 5 7
208 208 208
9 9 11
9 9 11
115 60 67
18 14 14
31 31 22
38 29 29
195 135 195
8 8 10
0 0 5
0 0 5
2 2 8
3 3 9
4 4 11
16 16 42
21 14 80
8 8 21
59 59 113
0 0 3
0 0 5
1 1 6
1 1 7
3 3 11
32 14 72
0 0 4
5 3 33
11 15 34
5 5 20
8 14 29
0 0 4
0 0 8
0 0 4
0 0 4
0 0 0
2 3 9
9 9 32
18 14 67
8 8 32
13 11 45
6 6 29
17 16 59
28 33 89
16 13 57
12 16 60
15 18 44
21 20 62
9 8 57
22 16 54
5 5 23
12 9 40
5 5 22
5 5 22
58 29 169
17 16 46
8 6 26
2 2 12
10 6 32
2 2 12
8 6 23
5 5 7
9 6 7
45 65 31
3 3 5
3 3 5
18 25 26
2 2 4
33 33 24
35 26 24
6 6 8
18 26 18
21 17 15
10 10 12
7 7 9
28 21 17
25 16 16
34 25 25
8 8 10
26 18 26
208 208 208
14 19 14
5 5 7
19 14 14
58 67 32
6 6 8
14 18 14
11 9 9
22 27 16
26 31 35
44 69 32
12 19 14
86 56 75
66 67 36
8 11 21
37 40 23
13 23 15
57 64 27
9 14 15
13 19 14
8 13 10
36 43 24
8 12 10
41 50 29
8 13 14
30 33 31
10 16 12
11 16 12
25 16 16
19 30 57
6 6 29
46 60 65
31 21 33
123 96 102
80 84 86
49 52 32
49 60 33
40 47 31
58 65 36
255 156 110
62 71 60
66 89 51
81 71 45
118 103 70
56 56 39
60 60 41
93 88 55
108 95 64
83 83 57
151 119 95
89 82 55
101 114 67
69 69 47
249 255 173
2 2 5
2 2 5
2 2 5
2 2 5
2 2 5
2 2 5
2 2 5
2 2 5
2 2 5
2 2 5
2 2 5
2 2 5
2 2 5
2 2 5
2 2 5
2 2 5
2 2 5
2 2 5
2 2 5
2 2 5
2 2 5
2 2 5
2 2 5
2 2 5
2 2 5
2 2 5
2 2 5
2 2 5
2 2 5
2 2 5
2 2 5
2 2 5
2 2 5
2 2 5
2 2 5
2 2 5
2 2 5
22 33 35
47 81 71
53 62 59
18 27 30
36 29 30
63 33 43
59 44 52
39 30 30
29 19 21
56 31 39
28 19 20
51 34 29
46 37 38
28 19 20
75 65 42
81 54 43
99 57 42
43 32 31
25 17 18
59 31 28
214 100 142
31 20 20
255 170 170
41 27 25
65 71 39
56 31 36
49 45 50
44 37 38
22 15 16
41 43 27
52 35 32
58 30 40
33 27 27
39 26 23
57 38 29
17 14 12
56 40 24
12 8 10
28 24 19
13 9 10
43 52 21
21 17 28
29 23 19
29 19 16
20 16 14
31 29 25
25 20 17
71 72 45
241 161 161
14 9 11
33 29 30
24 22 20
14 9 11
42 28 22
15 10 11
44 34 34
16 11 12
15 10 11
42 31 24
15 10 11
15 10 12
18 12 13
15 10 12
16 10 12
81 35 43
58 48 30
39 22 22
16 10 11
16 11 12
34 20 24
28 24 22
29 17 18
140 91 66
45 26 23
112 45 53
38 33 26
17 11 13
77 41 30
29 17 18
18 11 22
88 58 48
44 31 30
73 75 45
64 46 35
48 43 27
153 106 77
31 16 20
26 20 17
41 35 35
42 58 52
17 11 13
39 26 22
245 163 163
44 57 45
51 34 27
17 11 13
32 26 22
38 30 26
31 26 21
18 12 13
245 163 163
47 42 36
49 23 27
23 17 15
30 24 25
84 32 38
22 15 16
27 22 17
238 114 81
97 39 45
18 12 13
50 33 26
38 29 20
18 12 14
31 25 21
64 42 33
18 12 14
20 20 15
60 44 33
20 20 15
44 40 27
23 24 24
49 41 33
84 124 62
192 134 89
35 31 19
19 19 14
247 247 165
42 44 27
20 20 15
20 20 14
19 19 14
229 114 78
35 33 22
20 20 14
40 32 28
28 28 20
19 19 14
70 137 51
40 61 32
50 74 46
66 96 30
38 33 22
26 26 18
41 56 23
19 19 14
65 76 35
37 32 26
33 37 22
26 28 34
24 24 17
35 38 21
18 18 14
19 19 14
56 76 31
20 21 25
52 44 29
31 37 38
26 32 22
86 89 33
71 68 41
37 48 25
34 38 27
17 17 13
26 32 18
24 22 23
37 48 33
160 233 107
20 20 15
60 71 51
55 72 38
22 19 14
15 15 12
49 45 25
21 21 15
17 17 19
31 37 25
52 57 30
26 22 15
27 27 16
15 15 11
16 16 12
21 23 35
60 70 33
29 38 26
45 52 35
42 52 25
49 37 25
14 14 11
35 32 22
34 32 17
36 38 18
42 57 29
202 202 134
73 72 55
44 39 20
40 46 38
18 17 23
90 69 33
27 36 16
57 47 33
240 240 160
202 202 135
28 38 20
28 27 19
25 30 16
27 30 23
38 45 21
212 212 212
43 37 29
57 70 39
9 7 7
9 9 11
84 44 50
204 138 204
91 57 53
24 17 24
40 30 38
24 18 24
7 7 9
27 19 29
3 3 5
17 20 20
32 41 37
33 31 25
29 29 23
25 21 28
24 18 18
33 33 24
38 38 29
8 8 10
10 10 12
40 25 40
47 75 59
42 32 45
17 20 19
24 46 46
6 6 8
10 10 12
9 6 36
1 1 6
51 51 206
4 6 18
18 12 31
7 8 20
8 10 27
4 4 12
4 4 12
0 0 5
14 16 41
51 51 206
0 0 5
6 8 22
2 2 7
12 14 38
0 0 4
14 15 35
0 0 4
10 10 36
3 4 14
5 4 17
3 4 12
1 1 5
2 3 8
0 0 4
18 13 51
12 12 40
11 12 47
6 6 28
26 25 69
14 12 40
18 18 67
9 8 40
8 10 43
5 5 22
8 9 34
8 8 30
10 8 35
7 7 29
22 13 65
11 8 42
5 5 22
8 7 36
55 31 114
8 7 31
3 3 14
13 19 41
7 6 21
11 23 37
5 7 22
2 2 4
27 24 21
17 14 14
52 52 36
11 14 11
35 42 35
19 28 20
206 206 206
14 11 12
10 10 17
43 32 19
51 28 35
8 8 16
36 50 31
28 25 21
26 45 62
19 23 18
29 24 19
77 37 37
16 16 16
5 5 7
24 26 18
76 55 34
29 32 22
7 7 9
17 12 12
18 13 11
7 11 8
43 72 31
9 14 10
28 23 20
27 40 21
48 72 35
14 25 14
8 12 9
73 73 55
12 18 13
42 74 29
8 12 9
19 38 16
10 13 19
7 10 9
14 17 12
12 18 13
11 16 12
41 70 34
19 12 10
51 29 51
17 12 76
41 52 52
24 16 26
55 50 67
49 28 42
73 44 55
59 44 31
54 59 39
76 70 45
59 55 33
53 63 36
53 53 44
69 64 40
47 47 33
53 53 37
112 109 66
70 64 42
85 91 59
106 85 70
65 65 45
101 85 64
118 118 63
83 78 49
84 80 52
104 105 67
84 95 60
2 2 5
2 2 5
2 2 5
2 2 5
2 2 5
2 2 5
2 2 5
2 2 5
2 2 5
2 2 5
2 2 5
2 2 5
2 2 5
2 2 5
2 2 5
2 2 5
2 2 5
2 2 5
2 2 5
2 2 5
2 2 5
2 2 5
2 2 5
2 2 5
2 2 5
2 2 5
2 2 5
2 2 5
2 2 5
2 2 5
41 68 52
37 55 48
2 2 5
22 33 36
21 32 36
42 53 53
20 31 33
27 37 37
25 42 36
29 52 40
17 26 28
44 57 52
43 24 29
26 17 19
31 21 22
33 22 21
34 20 20
27 18 20
27 18 19
24 16 17
56 37 38
29 19 20
110 63 50
31 23 23
26 17 19
83 40 55
81 55 45
40 32 32
24 16 17
102 42 40
42 28 24
46 25 32
24 16 17
40 33 33
23 15 17
68 45 35
19 12 12
42 21 23
32 24 19
19 12 14
36 24 20
15 10 11
13 8 10
38 22 22
255 68 51
17 13 11
27 24 17
34 27 20
14 9 11
111 88 42
94 53 32
13 9 10
31 21 20
34 22 18
66 49 32
62 34 32
29 19 16
14 9 11
39 19 21
45 34 27
68 47 27
77 46 34
15 10 12
35 27 27
24 20 17
25 24 19
15 10 11
41 21 22
46 36 41
33 28 23
15 10 12
36 32 29
59 44 37
201 134 134
66 41 30
160 155 107
70 49 41
124 69 46
29 16 21
61 46 45
22 17 17
61 50 60
47 24 33
40 21 21
24 19 20
22 15 13
16 11 16
33 18 19
16 11 12
50 33 26
69 35 40
34 18 23
17 11 13
37 21 21
17 11 13
90 31 47
17 11 13
38 18 22
17 11 13
17 11 12
24 16 17
42 22 28
18 12 13
18 12 13
34 28 26
19 12 20
193 89 128
43 24 34
18 12 13
55 37 44
59 35 27
33 19 19
40 21 22
56 56 43
25 16 18
19 12 14
53 35 28
52 41 41
48 25 33
89 53 52
18 12 13
24 19 30
31 24 23
53 41 28
82 67 38
25 25 18
20 20 15
27 24 19
35 30 20
20 20 14
24 28 16
25 29 19
20 20 15
26 26 18
201 201 134
52 61 35
33 40 22
24 22 30
34 43 29
62 62 34
66 95 43
19 19 14
29 29 21
21 21 23
53 61 42
50 57 29
27 23 16
26 30 21
46 46 92
43 34 23
19 19 14
22 23 27
96 60 39
25 25 18
50 39 34
18 18 12
27 33 17
20 20 23
61 36 25
245 245 163
25 23 37
23 25 34
18 18 13
16 16 12
87 59 32
46 39 26
17 17 13
60 53 33
31 36 21
29 39 24
42 56 25
50 41 26
46 41 25
92 81 44
17 17 13
16 16 12
70 65 45
15 15 12
21 21 14
43 33 23
77 93 33
51 35 23
54 71 31
59 35 23
47 50 22
41 46 39
32 26 18
56 77 31
34 39 26
61 45 29
13 13 11
23 23 16
34 38 25
22 28 20
29 36 17
92 65 33
57 57 117
55 155 59
118 75 43
21 21 13
13 13 10
137 144 96
154 218 72
157 231 154
35 46 20
239 239 159
22 32 26
12 12 11
28 47 24
50 59 31
48 68 36
43 38 20
37 27 19
80 85 58
51 30 41
50 31 45
13 13 15
9 9 11
30 23 30
12 12 14
38 69 39
21 27 27
63 68 30
13 13 15
136 96 59
11 11 11
4 4 6
15 19 21
30 23 21
31 46 33
12 12 14
24 19 26
11 11 13
17 21 17
8 8 10
35 47 38
10 10 12
17 13 13
40 35 47
10 10 12
12 12 14
8 8 10
210 210 210
6 6 8
23 30 32
7 7 32
4 4 11
2 2 9
1 1 6
3 3 9
3 3 8
7 6 17
4 4 14
0 0 5
3 3 15
2 2 11
0 0 5
9 10 29
1 1 6
11 10 23
10 10 27
61 28 112
3 5 16
10 5 27
10 6 33
0 0 16
7 8 31
20 21 50
18 11 61
0 0 4
0 0 17
10 8 30
15 17 60
6 6 25
19 19 59
11 8 44
4 4 21
55 55 221
6 6 25
8 7 30
10 12 53
56 41 156
7 7 27
11 12 39
4 4 21
9 10 43
32 28 68
8 8 29
8 10 32
12 16 40
7 8 35
2 2 13
6 10 29
6 5 22
5 6 22
4 4 18
19 24 19
7 7 9
157 120 111
8 8 10
210 210 210
8 8 10
30 24 30
70 61 75
42 30 42
27 31 22
5 5 7
54 33 30
6 6 8
43 40 34
7 7 9
28 17 17
22 31 28
24 21 19
4 4 7
15 19 16
26 16 15
12 16 14
3 3 5
6 6 8
15 12 12
29 35 35
63 49 36
18 27 14
15 31 38
24 32 21
7 11 9
11 18 28
32 42 26
25 35 21
8 12 9
29 44 22
45 73 34
16 32 22
12 22 13
22 42 28
47 42 36
6 10 6
22 23 15
30 33 25
10 15 10
32 38 21
42 45 32
20 29 53
6 6 27
89 77 106
27 18 27
36 24 36
46 36 54
20 20 15
51 59 35
60 48 41
255 255 173
51 64 35
137 106 56
42 42 29
48 48 33
51 51 35
63 70 44
77 69 47
66 75 51
59 59 41
97 83 58
111 94 58
84 71 44
138 94 64
81 89 59
65 59 39
50 50 35
37 37 26
54 54 34
46 46 32
2 2 5
2 2 5
2 2 5
2 2 5
2 2 5
2 2 5
2 2 5
2 2 5
2 2 5
2 2 5
2 2 5
2 2 5
2 2 5
2 2 5
2 2 5
2 2 5
2 2 5
2 2 5
2 2 5
2 2 5
2 2 5
2 2 5
2 2 5
2 2 5
2 2 5
2 2 5
37 49 56
23 35 38
24 37 39
39 81 70
25 37 40
41 54 79
90 91 70
52 78 65
21 32 34
20 31 33
21 31 34
18 27 30
19 28 31
37 59 44
44 88 62
20 28 54
40 32 33
144 175 96
74 78 58
52 31 37
56 29 34
25 17 18
46 25 30
24 16 17
74 44 35
45 25 30
27 18 20
51 38 38
177 58 69
56 32 26
30 20 21
42 23 29
38 29 31
44 24 29
61 43 37
32 28 37
100 88 44
23 15 16
35 21 21
91 38 41
203 135 135
77 38 65
18 12 13
47 47 33
58 50 32
19 16 13
52 29 29
19 15 13
39 48 23
19 13 14
13 8 10
34 17 23
32 25 19
72 64 29
115 99 63
25 21 22
55 31 28
32 32 25
32 30 30
30 17 16
82 56 63
14 9 11
59 27 19
16 11 30
15 10 11
14 9 11
15 10 11
18 12 13
38 19 20
242 161 161
67 44 33
34 37 27
16 10 12
54 28 47
20 15 31
15 10 11
53 25 30
61 25 29
20 15 23
33 34 25
127 109 112
35 27 21
33 22 18
45 25 22
27 15 19
15 10 12
16 11 12
15 10 10
106 144 99
48 37 28
133 128 88
17 11 13
43 22 29
208 138 138
77 47 41
88 35 37
67 31 46
49 33 23
38 20 20
27 15 15
60 51 44
38 33 27
18 12 13
27 22 24
27 18 19
21 14 15
18 12 13
61 32 39
230 105 105
43 33 33
19 14 22
33 26 21
41 32 32
244 163 163
48 24 23
18 12 14
40 26 22
58 56 35
18 12 13
80 33 53
29 16 29
75 50 37
40 22 22
41 27 23
53 27 36
74 47 38
34 40 27
236 163 109
41 45 34
33 40 28
41 36 29
38 34 27
36 45 21
62 52 33
21 21 24
50 50 29
43 34 24
50 80 28
46 39 27
25 29 17
37 30 21
85 94 55
207 207 138
62 91 50
25 25 18
19 19 14
31 38 26
47 61 27
58 42 32
29 29 20
45 65 46
23 23 30
40 53 28
19 19 14
18 18 13
49 38 26
34 36 20
31 35 21
29 35 20
41 41 23
26 24 33
48 42 23
59 39 49
52 38 22
27 33 23
47 40 33
17 17 13
37 31 19
24 24 17
211 148 98
41 75 30
16 16 12
17 17 13
52 42 33
45 37 25
25 25 18
16 16 12
68 52 30
27 33 19
26 26 15
40 54 22
18 18 13
37 48 29
158 231 154
59 54 42
31 40 24
29 37 20
46 34 22
23 22 44
45 31 20
32 25 18
32 41 29
51 38 26
18 16 26
32 25 18
222 162 77
30 41 27
28 28 16
21 21 15
49 45 30
33 27 22
12 12 11
29 33 17
30 51 17
54 40 27
12 12 13
15 15 11
14 16 25
18 17 17
80 36 30
38 47 28
11 11 8
12 12 9
11 11 9
58 45 40
10 10 8
10 10 12
143 138 138
80 65 35
43 34 43
8 8 10
40 28 49
11 8 11
61 61 45
4 4 6
10 10 12
16 22 24
62 62 45
28 39 41
22 26 23
8 8 10
10 10 12
25 22 29
98 107 69
50 53 60
6 6 8
33 33 25
51 36 38
60 62 47
15 15 12
12 16 16
40 30 40
4 4 6
55 57 50
25 20 27
13 13 15
4 4 11
6 7 19
10 14 39
1 1 8
2 2 9
3 4 12
5 7 23
5 8 30
48 48 129
3 3 11
3 4 14
11 10 27
0 0 5
9 9 19
7 10 28
9 10 25
7 6 17
0 0 4
51 51 204
6 4 16
41 41 167
23 15 42
5 7 22
1 2 7
0 0 4
7 6 59
4 4 20
4 4 20
4 4 21
4 4 21
7 9 53
29 30 120
5 5 24
4 4 21
19 25 115
8 6 33
26 17 83
18 27 42
9 11 48
19 16 81
9 9 31
13 13 42
11 9 46
5 5 24
11 9 42
8 7 36
17 16 43
5 5 24
5 6 20
4 5 16
2 2 12
9 11 37
15 9 31
36 42 34
39 46 34
52 31 31
77 47 49
23 14 16
5 5 7
9 9 11
6 6 8
45 89 56
6 6 8
8 8 10
19 15 15
22 33 24
19 15 16
67 64 49
8 8 10
7 7 9
27 30 22
88 86 39
32 23 19
10 10 12
33 23 23
22 18 15
37 35 29
48 45 31
31 46 23
34 40 22
7 11 8
22 25 23
7 10 10
26 31 28
8 12 9
10 16 12
59 62 37
47 60 31
7 10 9
20 35 24
6 10 6
8 12 9
10 16 12
22 33 18
9 13 14
18 27 15
15 22 13
49 91 51
25 22 17
4 3 17
38 47 69
39 34 43
48 27 41
74 43 55
70 52 33
44 41 33
30 26 17
37 43 25
29 29 21
47 44 31
35 35 25
89 122 53
44 44 31
45 45 31
167 96 81
77 75 48
74 86 47
83 100 63
72 81 55
63 63 43
105 87 70
69 62 47
203 255 183
73 91 51
85 74 52
47 45 30
44 44 30
42 42 29
2 2 5
2 2 5
2 2 5
82 79 96
2 2 5
2 2 5
2 2 5
2 2 5
2 2 5
2 2 5
51 34 53
2 2 5
42 28 44
2 2 5
2 2 5
2 2 5
2 2 5
2 2 5
2 2 5
2 2 5
2 2 5
2 2 5
2 2 5
2 2 5
26 40 42
25 39 46
57 75 86
33 47 47
48 61 75
22 34 36
25 37 39
62 87 75
34 61 53
24 36 38
189 198 149
68 79 89
29 46 43
29 49 49
20 30 32
35 44 44
16 25 27
16 24 27
15 23 25
48 37 37
43 37 38
24 16 17
23 15 17
43 24 30
87 41 51
61 44 38
50 28 35
25 17 18
48 29 29
87 51 44
39 22 27
26 17 19
65 43 34
23 15 17
24 16 17
60 30 45
53 38 46
57 34 27
43 23 23
100 36 50
22 14 16
255 88 91
36 24 36
20 13 15
63 35 50
31 28 26
64 31 56
18 12 13
42 39 26
26 14 16
31 16 16
48 28 22
13 9 10
12 8 10
26 17 17
14 9 11
19 15 12
26 14 14
45 25 34
14 9 11
14 9 11
54 36 35
14 9 11
47 29 22
22 18 15
46 41 24
25 17 17
46 33 40
15 10 11
45 25 31
34 22 20
28 19 16
41 35 24
15 10 11
15 10 11
37 25 21
15 10 11
50 19 21
15 10 12
16 10 12
26 17 18
13 8 8
38 42 39
22 18 18
41 24 21
75 41 47
16 10 12
16 11 12
24 19 16
24 16 16
17 11 12
53 30 41
38 20 23
101 62 45
59 53 31
22 14 15
21 17 29
37 20 18
63 47 33
17 11 13
244 163 163
21 16 15
68 27 33
45 49 49
53 44 36
19 12 14
21 14 15
25 16 15
48 28 38
44 34 26
30 16 21
54 48 29
40 21 28
103 63 46
66 30 40
18 12 13
87 39 37
17 11 13
18 12 13
52 44 48
23 15 16
28 16 29
83 41 36
26 22 22
55 32 29
49 32 25
33 25 25
67 102 40
208 144 101
19 19 14
23 27 19
44 35 24
33 33 20
24 24 17
19 19 14
82 75 42
37 44 24
19 19 14
45 51 34
207 169 121
46 37 46
39 53 35
255 107 95
30 37 21
34 36 26
39 58 26
67 86 46
42 31 22
22 22 16
70 50 39
21 23 32
18 18 13
55 40 23
19 19 17
89 73 37
26 26 19
48 52 33
43 37 22
34 34 20
34 53 24
27 35 23
38 45 30
18 18 13
17 17 13
70 87 65
56 45 27
16 16 15
16 16 12
17 17 12
60 50 33
16 16 12
63 74 44
78 57 32
46 54 36
16 16 12
28 35 19
23 23 16
16 16 14
24 32 16
44 44 22
243 243 162
38 50 34
24 24 18
28 39 20
16 16 12
16 16 12
21 25 15
25 31 20
14 14 11
66 48 29
27 28 27
29 23 16
29 26 17
15 15 17
40 32 19
63 53 28
28 26 15
23 19 13
20 25 13
22 21 19
88 48 34
19 17 24
75 56 27
53 74 29
35 54 36
36 54 22
49 36 25
11 11 9
46 37 20
51 61 23
80 60 23
18 22 16
50 49 24
11 11 9
14 14 9
21 17 12
55 111 29
26 34 18
9 9 11
14 14 16
143 102 102
78 58 37
8 8 10
121 177 177
40 30 32
14 14 16
67 59 47
10 10 13
39 27 37
173 173 117
36 36 26
55 46 39
51 30 41
25 21 27
11 11 13
13 13 15
37 34 27
11 11 13
13 13 15
10 10 12
13 13 15
19 25 27
23 18 25
59 67 72
15 15 17
44 51 33
11 11 13
8 8 10
5 7 16
8 8 21
5 6 12
7 9 27
3 3 12
1 1 6
1 1 6
16 11 28
14 17 30
8 6 36
7 5 19
1 1 6
3 3 12
24 24 52
5 5 11
5 5 16
0 0 4
6 7 27
7 8 38
4 2 11
14 10 31
7 11 22
0 0 4
6 4 17
0 0 4
8 8 29
23 12 68
13 9 41
16 16 50
16 14 51
11 10 32
15 12 63
4 4 21
6 6 28
4 4 21
11 9 31
13 8 42
9 8 41
10 10 37
25 29 82
6 6 25
4 4 21
18 47 134
13 9 46
9 7 32
16 10 59
23 17 54
4 4 21
2 2 12
6 9 28
5 7 20
2 2 10
34 22 24
31 39 26
74 75 62
62 87 42
45 48 39
98 141 60
20 24 24
13 13 15
6 6 8
6 6 8
22 51 23
27 20 20
11 17 11
8 8 10
12 9 9
7 7 9
35 23 26
8 8 10
21 17 27
57 32 33
27 25 19
40 68 26
29 71 25
5 5 7
9 9 11
33 46 29
10 13 10
10 16 10
11 16 12
9 14 9
21 37 21
36 33 30
11 17 13
7 11 9
8 14 15
36 55 27
7 11 9
19 25 19
10 16 12
9 13 15
9 14 17
16 25 14
10 13 16
23 26 24
19 19 15
2 2 4
22 29 29
5 6 21
36 54 53
156 56 80
43 34 41
41 27 36
16 16 12
72 48 36
62 66 35
63 77 38
29 29 20
60 66 40
51 60 42
51 51 32
52 59 41
242 242 117
78 66 45
57 62 41
69 73 57
60 60 41
139 104 62
255 255 181
49 49 34
48 48 33
43 43 30
72 60 49
61 56 41
86 76 57
69 62 46
32 32 23
102 74 67
221 192 206
45 30 47
45 30 47
73 42 64
54 36 52
40 27 43
140 67 93
65 50 76
78 45 67
55 36 57
53 35 55
255 191 205
45 30 47
99 77 76
32 21 34
33 22 35
32 21 34
43 26 39
2 2 5
20 30 32
24 36 38
26 40 42
29 44 46
26 39 41
44 67 57
36 62 52
32 57 57
176 255 255
23 34 36
47 65 62
23 35 37
60 70 59
23 35 37
170 255 255
19 29 32
42 66 52
33 61 55
25 38 39
18 28 30
44 64 64
20 35 32
23 32 47
172 165 165
71 42 36
45 34 34
26 17 19
24 16 18
25 16 18
27 18 19
252 168 168
64 40 31
44 24 31
66 38 41
46 35 39
23 15 17
98 45 39
23 15 17
23 15 17
22 15 16
38 32 33
22 14 16
20 13 15
40 20 24
22 14 16
91 55 39
76 55 38
25 15 17
19 12 14
57 29 25
17 11 13
52 39 34
18 12 12
13 8 10
13 8 10
44 31 25
92 48 51
17 14 15
40 30 32
15 11 22
25 14 14
14 9 10
16 11 12
30 20 17
13 9 10
41 27 24
61 35 26
30 24 24
50 38 36
50 41 41
26 21 21
19 11 11
31 16 16
20 13 14
31 17 22
15 10 11
15 10 11
76 51 37
48 32 31
57 38 29
30 18 19
55 29 38
38 21 25
95 63 94
16 10 12
15 10 11
54 29 22
30 17 23
32 17 18
63 36 33
16 11 12
24 19 16
19 12 22
37 22 22
17 11 12
47 47 35
161 73 60
63 30 37
207 138 138
17 11 12
40 33 20
94 52 40
17 11 13
127 43 29
28 23 22
22 15 13
92 35 40
23 17 17
32 25 21
199 132 132
34 18 22
17 11 13
75 32 38
41 36 27
17 11 12
24 19 17
116 48 58
71 50 35
17 11 13
39 20 27
21 15 27
60 42 34
27 21 22
244 163 163
78 39 34
18 12 13
31 25 21
45 23 25
37 27 34
18 12 13
16 10 10
247 247 164
32 39 28
39 31 22
22 22 25
246 246 164
64 46 36
246 246 164
43 40 25
246 246 164
51 39 29
43 36 24
131 102 56
43 56 26
24 23 33
40 51 27
18 18 14
28 24 17
42 34 31
18 18 13
27 27 19
36 29 20
39 39 24
25 21 34
18 18 13
18 18 13
18 18 14
56 35 20
29 29 20
18 18 13
22 22 16
17 17 13
40 50 26
24 25 36
59 86 46
26 22 18
50 36 31
36 30 24
17 17 13
32 41 28
21 20 25
202 202 135
54 41 37
57 42 34
17 17 13
37 37 19
16 16 12
22 19 14
62 62 31
16 16 12
46 53 35
33 37 24
82 68 43
243 243 162
49 70 46
19 22 44
15 15 11
34 40 22
36 34 21
26 26 18
27 34 19
17 17 13
21 19 29
34 33 24
31 41 18
40 34 19
57 40 35
99 103 40
13 13 10
14 14 11
46 60 26
18 20 33
107 67 40
12 12 9
12 12 10
22 27 14
13 13 9
12 12 10
41 35 21
21 21 14
19 16 31
32 32 17
28 28 14
40 30 21
70 54 29
11 11 9
35 39 18
45 54 44
11 11 9
18 14 20
38 27 25
16 19 14
67 45 53
24 19 25
115 95 62
17 15 15
8 8 10
40 33 30
26 22 28
10 10 12
6 6 8
44 33 33
45 33 40
17 17 19
38 34 29
89 56 68
8 8 10
10 10 12
8 8 10
219 219 219
10 10 12
34 24 31
69 80 48
13 13 15
6 6 8
4 4 6
25 27 21
20 20 19
4 4 6
83 47 68
48 34 50
38 29 38
30 40 31
8 10 39
18 11 57
33 69 89
5 7 18
2 3 11
12 9 48
1 1 6
6 4 17
2 2 8
5 6 16
1 0 12
5 5 15
41 41 167
4 5 12
1 1 6
7 4 31
6 9 21
0 0 4
0 0 4
6 8 22
4 8 18
3 4 12
1 2 5
3 5 15
6 9 26
24 15 74
4 4 20
6 6 27
23 23 57
16 21 82
4 4 20
9 7 37
4 4 20
17 18 42
4 4 20
9 8 41
6 6 29
14 14 46
10 15 38
9 11 60
4 4 21
8 8 31
17 22 72
7 9 33
10 7 36
14 9 49
37 37 148
4 4 20
15 28 57
5 7 23
2 2 10
6 8 26
3 3 16
22 30 32
26 18 28
57 40 37
9 9 11
40 49 38
12 16 13
27 37 36
6 6 8
11 11 13
47 26 32
28 21 26
35 39 35
29 22 23
40 28 29
29 21 20
4 4 6
8 8 10
9 9 11
30 38 29
8 8 10
6 6 8
7 7 9
206 206 206
10 13 12
8 8 10
15 18 12
22 32 24
32 35 33
7 11 8
39 47 24
54 62 54
7 11 9
12 18 13
19 43 19
8 13 8
37 61 29
19 35 15
24 48 30
8 12 9
47 66 40
48 47 40
32 28 23
19 28 16
11 19 19
20 20 62
8 8 30
15 10 17
29 19 25
35 19 29
13 13 14
57 36 29
38 48 33
22 22 16
60 49 36
113 100 68
32 32 23
98 76 45
39 39 27
69 74 48
40 40 28
83 125 64
39 39 28
64 56 38
85 97 68
74 63 55
76 69 46
82 110 53
93 93 45
45 45 31
61 52 36
58 50 33
38 38 27
34 34 24
24 24 17
63 42 55
111 62 76
49 32 51
85 52 59
66 50 77
85 55 74
144 74 96
71 37 60
45 30 47
48 32 50
58 48 67
51 34 53
79 43 75
50 30 47
43 29 46
33 22 35
56 46 71
45 30 48
101 47 71
29 19 31
25 38 50
74 95 100
54 62 77
49 62 58
37 65 57
55 83 65
21 31 33
28 43 45
22 34 36
24 37 39
20 31 33
25 34 41
77 85 103
18 28 30
22 33 36
47 52 52
55 117 69
43 59 59
61 80 67
38 49 49
16 25 27
131 255 109
43 50 54
21 37 31
72 47 36
27 20 19
21 14 15
23 15 17
46 26 27
41 27 24
39 28 23
23 15 17
22 14 16
37 30 31
23 15 17
61 41 33
23 15 17
39 33 27
39 23 22
77 36 32
22 15 19
40 21 25
29 19 21
56 34 29
57 67 45
20 13 15
21 14 15
36 30 28
45 22 27
19 13 14
80 69 35
117 87 60
35 22 18
12 8 10
30 17 17
76 36 31
26 17 16
60 34 47
42 27 26
50 33 25
28 26 16
42 20 19
13 9 10
13 9 10
42 23 24
33 23 19
13 9 10
24 14 15
13 9 10
32 26 24
18 12 13
15 10 11
36 24 24
74 29 37
29 17 17
242 161 161
37 19 20
241 161 161
28 23 18
42 28 22
28 18 16
15 10 11
43 34 29
83 53 38
16 10 12
15 10 11
16 10 12
26 21 23
25 15 15
29 16 16
16 11 12
16 11 12
34 30 24
16 10 12
16 11 12
244 162 162
26 21 18
112 49 52
24 18 16
17 11 12
42 21 21
39 21 20
45 37 32
127 41 46
81 43 48
86 84 41
109 73 49
17 11 13
77 51 38
85 59 43
16 11 12
45 30 24
19 14 20
24 15 16
17 11 12
25 16 18
38 18 18
18 12 13
17 11 13
52 43 31
17 11 13
31 23 17
188 116 168
68 43 41
43 25 29
20 13 14
22 15 16
53 37 23
38 20 25
18 12 13
18 12 13
19 19 14
57 41 27
19 19 14
45 35 21
56 51 44
19 19 14
32 39 22
47 35 27
153 100 50
71 67 56
43 37 30
196 196 92
47 50 32
18 18 14
18 18 14
30 26 20
52 40 28
78 47 26
29 32 21
62 52 39
23 23 16
62 50 35
38 47 24
245 245 163
27 27 25
24 23 19
18 18 13
24 28 19
17 17 13
18 18 13
17 17 12
90 58 35
52 37 27
17 17 13
34 28 19
25 25 32
59 75 31
76 49 37
16 16 12
17 17 13
76 47 40
47 64 39
41 41 23
17 17 13
40 40 24
16 16 12
17 17 13
16 16 12
16 16 12
51 39 35
14 14 13
19 19 14
44 65 37
89 143 66
15 15 11
15 15 11
47 36 32
25 25 17
23 19 16
21 19 20
33 38 25
15 15 11
44 44 26
59 38 59
17 17 13
25 28 14
16 16 12
22 22 15
24 24 18
40 32 22
35 30 17
33 23 15
12 12 9
36 27 19
12 12 9
32 25 17
62 67 52
53 36 36
11 11 9
10 10 6
12 12 9
16 17 20
11 11 9
101 87 30
34 24 17
12 12 9
20 21 23
134 200 65
11 11 9
11 11 9
22 17 30
21 18 19
10 10 12
41 29 43
72 61 51
10 10 12
13 13 15
35 42 25
10 10 12
51 44 32
39 59 34
38 31 24
15 15 17
70 70 52
58 28 35
186 186 127
13 13 15
66 57 44
11 11 13
93 81 64
117 64 77
11 11 13
11 11 13
6 6 8
48 39 29
139 206 206
23 30 23
215 215 215
13 13 15
58 63 34
8 8 10
11 11 13
23 23 20
11 11 13
13 13 15
112 152 152
77 72 39
71 71 53
9 12 34
18 14 45
1 1 5
4 3 10
10 10 22
5 4 14
3 3 9
0 0 5
12 6 50
12 12 28
7 5 20
5 5 18
2 1 6
7 11 31
5 7 21
2 4 10
3 2 26
30 43 173
16 12 42
4 4 20
12 10 39
13 13 52
44 29 69
4 4 19
9 8 32
4 4 20
4 4 20
7 7 26
15 20 74
12 10 56
8 8 28
8 7 33
7 6 33
12 11 36
4 4 21
55 55 220
16 13 58
8 8 29
4 4 20
8 6 34
14 10 56
35 28 77
3 3 15
2 2 12
9 9 27
2 2 10
24 11 43
62 56 40
7 7 9
32 36 27
19 25 21
19 28 19
198 134 134
27 44 24
23 26 23
35 30 22
83 83 69
27 36 25
28 29 33
30 35 26
9 9 11
25 25 22
9 9 11
23 26 19
35 42 33
14 18 12
17 13 14
15 19 15
5 5 7
42 34 21
87 186 87
19 27 29
32 35 25
23 34 18
17 34 17
18 27 14
32 35 33
17 20 13
7 11 9
43 52 20
130 195 130
10 15 11
12 21 12
13 20 87
20 27 18
7 11 11
11 17 12
7 11 9
9 13 9
7 11 9
36 19 27
2 2 13
15 13 61
97 61 69
18 12 18
14 14 11
46 60 36
32 26 17
28 29 26
22 22 16
49 41 24
28 28 20
61 49 31
57 84 45
38 38 26
77 127 58
66 85 49
49 57 41
39 39 27
43 43 30
53 46 32
71 60 36
103 80 51
40 40 28
114 88 66
104 95 57
71 61 47
35 35 25
83 67 53
35 35 25
65 53 44
45 30 45
234 156 234
142 90 115
118 72 87
43 28 45
66 44 62
46 30 48
57 38 56
40 26 42
41 27 44
40 26 42
112 53 89
89 62 77
84 38 78
41 27 43
42 28 44
38 25 41
75 41 63
81 38 63
33 22 35
48 59 54
64 70 84
51 71 58
82 111 92
24 36 39
24 36 39
25 37 40
24 36 38
28 46 43
45 70 58
36 66 56
24 37 39
172 255 255
18 28 30
44 63 55
22 33 35
25 32 34
169 178 178
36 49 49
43 73 70
141 212 212
111 90 80
47 102 58
140 210 210
31 25 26
22 14 16
56 52 46
40 33 27
68 34 31
23 15 17
43 23 30
39 26 33
25 16 18
35 25 25
28 17 20
45 38 36
47 36 31
32 26 24
43 23 23
22 15 16
20 13 15
72 48 38
37 22 22
21 14 15
21 14 16
53 31 25
58 38 29
32 18 18
31 29 26
35 39 30
25 17 28
62 35 27
15 10 11
13 8 10
51 34 26
28 28 22
25 22 23
36 24 20
21 12 12
39 29 23
35 31 29
59 39 23
13 8 10
42 32 28
71 26 32
23 15 14
31 25 19
44 26 26
200 92 133
42 30 28
14 9 11
38 26 26
14 9 11
14 9 11
19 13 14
34 19 19
87 30 49
24 19 16
15 10 11
31 23 18
31 17 17
25 21 22
22 16 28
17 11 15
28 24 19
20 15 14
130 58 56
242 161 161
32 27 29
41 21 19
41 35 23
17 10 16
97 57 41
243 162 162
58 31 40
34 27 20
16 11 12
16 10 12
38 21 24
16 10 12
16 11 12
46 23 41
24 20 17
16 10 15
39 20 20
30 20 21
23 13 13
35 17 16
244 162 162
99 51 59
17 11 13
17 11 13
23 13 26
35 21 19
56 28 31
52 40 35
24 19 16
54 47 42
17 11 13
39 22 22
30 16 17
22 16 16
18 12 13
17 11 13
58 42 28
24 19 17
62 41 32
18 12 13
25 20 17
63 31 33
55 36 30
49 59 39
50 47 31
50 57 29
45 53 36
54 44 37
53 58 30
40 45 24
34 28 19
44 43 29
48 32 21
48 48 26
65 54 33
42 49 26
21 21 15
18 18 13
44 57 27
35 29 20
63 51 40
18 18 13
37 44 29
52 52 30
56 40 28
28 28 20
35 29 21
40 32 22
36 30 19
17 17 13
63 108 51
25 25 18
17 17 13
17 17 13
42 48 23
28 31 22
47 56 28
17 17 13
20 20 14
36 29 18
38 33 22
17 17 12
49 49 24
50 49 56
28 24 20
55 61 27
22 22 16
32 41 22
16 16 12
47 30 24
30 30 17
16 16 12
41 45 33
15 15 11
32 41 21
21 21 34
15 15 11
40 34 18
21 21 15
50 29 22
70 51 29
157 154 73
67 60 36
74 60 30
13 13 12
36 28 19
39 56 33
14 14 11
51 43 23
20 20 30
13 13 10
23 37 15
58 60 33
46 39 28
29 34 19
14 14 10
44 65 37
37 35 18
77 44 28
37 35 20
47 35 24
40 51 20
13 13 14
13 13 15
29 34 17
17 15 22
38 53 22
11 11 12
17 21 11
23 36 15
30 25 13
9 9 8
14 14 18
9 9 8
8 8 10
16 16 15
28 33 33
34 46 38
46 56 32
11 11 13
14 11 11
36 48 31
58 39 68
28 23 23
45 75 51
23 20 17
34 30 23
60 92 52
8 8 10
57 47 54
8 8 10
52 64 41
28 52 52
34 35 36
41 51 35
68 72 50
45 45 33
25 25 18
8 8 10
38 57 31
39 46 31
11 11 13
11 11 13
41 60 50
12 12 14
24 30 25
8 8 10
22 29 25
26 34 28
8 8 10
61 49 61
8 8 10
25 25 21
11 11 13
15 15 17
1 1 6
5 5 21
22 29 50
13 14 38
6 8 20
12 13 43
0 0 4
2 3 9
0 0 4
0 0 4
93 50 64
21 27 19
8 6 18
16 16 17
9 8 40
4 4 20
6 7 31
8 6 30
23 21 92
4 4 19
8 8 28
20 30 98
11 12 36
6 6 26
7 7 29
4 4 19
53 53 148
4 4 20
10 8 34
4 4 21
7 6 33
8 9 40
20 10 49
11 17 59
4 4 21
7 7 42
4 4 20
11 11 37
9 10 29
9 10 30
11 11 36
8 9 28
6 6 22
11 10 42
214 214 214
7 7 9
15 21 13
30 24 21
4 4 6
61 71 68
4 4 6
8 8 10
22 22 18
22 30 31
14 19 15
42 50 31
78 69 56
29 17 20
8 8 10
6 6 8
208 208 208
68 77 64
22 25 22
8 8 10
24 17 17
32 23 24
24 16 17
51 26 46
6 10 9
15 23 14
13 20 14
10 20 29
8 13 14
43 58 33
36 51 24
20 30 16
20 32 19
7 11 9
47 39 47
7 11 12
38 47 23
20 23 16
10 13 12
44 57 37
11 16 12
4 4 4
0 0 0
2 2 13
11 7 13
14 9 16
45 27 32
28 21 14
40 51 26
38 58 30
19 19 16
110 59 53
65 106 46
59 59 32
55 45 31
54 50 29
52 45 36
32 32 23
31 31 20
50 50 43
53 53 38
43 46 27
39 39 27
54 64 44
34 34 24
60 54 34
69 56 47
60 86 41
38 44 29
34 34 24
42 49 28
46 54 37
64 42 56
42 29 61
66 40 63
101 52 66
233 155 233
46 30 48
64 48 60
47 31 49
71 39 56
42 28 44
57 33 51
66 45 60
96 51 78
40 27 42
60 52 63
53 44 68
45 31 47
32 21 34
55 31 45
73 49 60
155 168 233
66 105 124
71 124 63
22 33 36
47 62 56
28 42 44
38 66 52
21 31 34
19 29 31
19 29 31
32 53 43
24 37 39
34 62 53
45 59 59
57 87 72
18 28 30
18 28 30
21 31 33
47 51 48
94 129 99
17 25 28
39 51 51
57 48 66
48 63 76
31 38 40
14 22 24
74 57 35
42 23 34
47 35 35
41 32 25
50 38 38
59 32 26
159 42 61
21 14 15
20 13 15
28 18 20
19 13 13
47 31 36
20 13 15
53 30 24
54 32 33
51 44 47
62 32 43
21 14 15
19 13 14
22 15 16
31 25 27
63 38 33
69 57 32
28 16 33
19 12 14
29 24 25
17 11 13
55 35 43
155 151 103
47 31 25
12 8 9
48 35 27
13 9 14
29 25 20
37 26 22
26 15 29
34 31 24
44 23 19
248 113 165
13 8 10
45 33 32
44 22 30
14 9 11
25 21 22
72 37 25
23 14 21
50 37 34
52 23 34
42 19 25
42 24 22
38 21 30
40 43 38
45 30 24
46 28 25
15 10 11
36 32 25
29 23 20
53 33 24
127 96 77
29 25 23
75 50 58
54 32 42
23 15 17
17 11 11
49 29 26
23 15 16
16 11 12
78 74 35
38 22 22
16 10 12
24 13 14
33 26 27
16 11 12
60 41 43
27 23 24
20 15 14
37 19 26
86 60 44
16 10 12
35 21 25
45 25 22
35 36 23
47 31 25
16 11 12
16 11 12
16 11 12
38 29 25
17 11 13
17 11 13
29 19 16
18 12 12
27 15 19
27 22 22
43 44 32
68 41 33
17 11 12
73 36 44
17 11 13
33 18 22
17 11 13
34 19 24
160 75 75
66 31 34
177 172 120
75 56 31
105 46 58
43 54 36
21 21 17
32 30 18
19 19 14
35 31 39
32 26 18
40 52 36
91 79 38
48 54 33
38 33 22
38 28 21
32 28 42
43 34 23
18 18 14
70 48 25
18 18 14
18 18 13
37 29 20
59 85 40
29 36 20
54 82 30
18 18 13
32 34 23
29 24 17
109 81 43
72 69 41
60 115 34
17 17 13
33 28 27
17 17 13
73 61 29
23 23 16
25 25 14
17 17 15
23 23 16
29 36 25
45 34 24
19 19 14
126 123 82
17 17 13
54 61 34
37 29 25
52 49 36
40 28 23
55 52 37
24 24 17
56 77 30
20 20 15
23 20 14
243 243 162
57 42 33
40 40 21
29 41 21
20 20 14
31 31 24
24 25 20
13 13 12
30 28 24
37 30 21
21 28 14
31 24 49
45 34 23
109 77 41
84 55 29
20 22 15
62 56 42
21 21 15
36 39 30
156 156 72
53 39 27
13 13 10
226 151 105
15 19 10
13 13 9
63 54 36
12 12 9
17 17 12
15 15 15
13 15 22
34 29 16
22 18 12
22 26 15
33 45 31
27 23 15
11 11 9
49 73 40
36 40 20
65 103 43
29 22 20
13 13 10
23 30 21
61 52 38
17 17 19
32 50 44
210 210 210
6 6 8
35 33 28
35 28 29
43 43 29
21 27 22
28 20 31
6 6 8
13 13 15
27 20 29
11 11 13
13 13 15
33 29 21
40 37 25
8 8 10
10 10 12
28 25 25
14 14 14
23 17 25
15 15 17
32 23 34
6 6 8
46 36 47
8 8 10
13 13 15
22 27 29
18 26 19
44 36 44
59 36 52
60 42 30
18 18 14
52 76 47
4 4 6
29 26 20
15 15 17
79 56 46
25 20 21
19 23 26
10 10 12
8 8 10
23 25 27
78 54 60
10 10 12
1 1 6
17 23 16
64 45 49
38 71 45
39 69 32
10 10 12
21 21 19
54 40 58
8 10 37
9 8 29
11 23 69
14 19 66
9 8 30
18 18 56
6 6 24
11 8 46
15 10 57
9 9 30
4 4 20
11 9 34
12 12 58
8 8 35
11 10 33
16 17 52
4 4 20
12 14 48
11 10 32
29 31 64
11 9 49
10 9 30
11 9 49
13 10 48
20 19 55
29 30 88
6 5 19
6 9 22
5 6 28
3 4 15
4 4 18
16 14 36
13 15 34
56 47 31
10 10 12
12 15 13
201 134 93
28 19 22
205 205 205
4 4 6
31 49 39
9 13 9
77 59 68
19 16 34
39 28 41
20 20 76
145 59 76
7 7 9
37 37 137
8 7 16
9 8 20
9 9 12
8 8 10
27 19 23
6 6 8
40 79 27
8 12 9
23 26 18
7 11 9
41 59 28
11 16 12
28 67 27
7 11 8
24 47 18
7 11 9
44 38 30
48 68 57
43 55 26
33 66 51
15 29 13
16 19 13
20 30 15
20 20 13
2 2 11
18 14 39
18 26 63
12 8 15
25 15 25
75 80 31
36 26 17
27 27 18
23 24 30
34 29 18
106 60 35
27 27 36
38 44 33
28 28 20
45 55 32
39 39 26
255 255 171
38 39 48
33 33 23
32 32 21
66 50 33
42 39 29
44 58 38
197 193 73
35 35 25
90 62 44
45 40 27
90 81 44
60 71 42
226 107 161
32 21 32
255 177 255
34 22 36
101 72 115
70 39 60
49 32 44
99 73 93
40 27 42
75 42 64
69 46 60
44 29 47
124 72 74
37 25 39
103 64 77
71 39 58
50 40 51
81 44 61
57 38 52
54 45 61
25 16 27
51 29 44
19 29 31
19 28 31
22 33 35
68 74 86
76 132 88
23 34 36
81 88 115
23 35 37
42 53 65
19 28 31
58 62 77
58 88 68
22 33 33
20 31 33
62 79 61
169 253 253
38 62 62
53 67 60
32 57 48
44 51 47
167 251 251
15 23 26
25 36 38
14 22 24
23 29 31
26 34 34
93 74 47
63 46 69
21 14 15
31 25 26
38 36 32
20 13 14
57 27 35
72 41 34
51 25 31
41 31 29
52 40 28
80 47 49
42 23 29
21 14 15
68 38 30
41 22 22
63 42 33
151 55 131
20 13 15
65 31 44
29 22 19
19 13 14
37 23 23
36 31 25
70 31 35
25 21 22
15 10 11
51 47 37
55 37 27
13 8 15
15 10 11
12 8 10
66 29 40
65 30 37
34 23 17
13 8 10
37 34 27
13 8 10
202 135 135
44 20 23
56 29 25
30 27 28
46 23 29
14 9 11
68 42 24
37 26 22
20 16 13
75 70 34
42 36 23
28 20 16
15 10 11
15 10 11
48 31 27
15 10 11
15 10 11
99 49 46
14 9 11
52 42 39
15 10 11
15 10 11
24 20 17
15 10 11
45 25 30
45 45 31
16 10 12
49 24 28
16 10 12
34 18 24
26 14 14
67 44 33
139 53 96
88 31 33
30 20 16
16 10 12
16 11 12
21 15 14
36 19 26
14 9 9
18 12 14
21 13 37
16 11 12
16 10 13
16 11 12
40 24 24
38 18 22
65 49 32
28 23 25
48 39 44
44 30 22
30 18 20
17 11 13
27 21 18
61 33 32
40 37 28
23 16 35
32 28 22
62 31 43
55 26 31
79 36 44
17 11 13
24 16 18
20 13 14
27 20 18
27 15 15
35 19 22
61 32 22
55 42 29
55 51 44
18 18 13
19 19 14
45 71 34
51 36 30
24 21 14
131 62 59
42 54 25
25 30 17
22 20 13
18 18 13
27 32 19
29 29 17
68 58 45
18 18 13
22 22 16
18 18 13
69 40 27
46 54 28
22 24 27
65 47 24
17 17 13
108 91 48
17 17 13
29 36 20
54 63 38
48 43 32
33 43 25
24 24 17
30 25 17
19 19 14
35 41 26
60 62 44
16 16 12
25 28 44
31 31 18
34 27 24
16 16 12
38 30 26
16 16 12
41 32 20
67 62 65
50 43 29
16 16 12
69 35 26
60 60 132
34 34 20
15 15 11
15 15 11
153 109 53
47 40 26
15 15 11
15 15 11
13 13 12
15 15 11
85 90 47
85 79 39
30 40 21
46 34 23
14 14 10
14 14 11
104 56 40
14 14 10
38 31 20
38 34 17
13 13 10
13 13 14
21 21 15
12 12 9
32 39 20
15 15 10
13 13 10
51 34 26
28 46 25
12 12 10
12 12 12
19 17 25
17 16 22
25 31 20
11 11 9
11 11 9
10 10 9
11 11 9
10 10 10
42 54 26
16 16 11
11 11 41
12 12 16
19 19 14
13 13 15
14 14 16
12 12 14
10 10 12
58 37 48
12 12 14
38 25 28
46 35 29
10 10 12
9 8 28
82 48 58
23 27 21
49 50 50
60 93 73
82 78 55
11 11 13
39 39 31
69 48 32
22 17 24
42 42 32
8 8 10
11 11 13
11 11 13
129 188 188
37 40 25
14 14 17
85 71 71
8 8 10
38 29 27
13 13 15
35 28 21
46 33 40
71 49 38
6 6 8
33 23 21
8 8 16
52 36 40
195 195 131
8 8 10
8 8 10
19 25 23
47 54 46
16 16 18
6 6 13
12 12 14
6 6 8
8 8 10
16 16 27
6 6 8
34 35 27
8 8 10
210 210 210
9 10 16
4 4 19
17 17 54
6 5 26
4 4 19
11 7 37
10 10 33
8 9 34
9 11 46
54 54 219
25 27 73
11 18 60
20 10 75
4 4 19
11 11 35
8 6 35
6 6 29
4 4 20
4 4 19
19 14 60
8 8 28
6 6 27
4 4 20
18 11 53
14 18 49
6 6 28
7 7 26
17 20 74
18 38 73
3 4 16
8 10 25
9 6 28
52 52 210
10 11 31
29 23 24
8 8 10
9 9 11
6 6 8
11 11 13
8 8 10
22 36 20
17 21 20
196 132 132
109 161 109
68 60 47
9 9 11
8 8 10
41 55 27
8 8 10
5 5 7
15 21 16
20 27 18
43 48 35
24 18 20
47 64 29
12 15 13
29 20 31
8 13 10
6 11 12
13 20 15
53 51 50
28 29 19
11 17 12
27 64 43
12 22 12
29 53 27
6 9 8
22 42 18
7 11 9
9 14 10
45 48 27
17 22 17
7 11 13
17 34 20
78 91 83
9 7 28
44 48 144
57 22 38
33 24 28
44 40 58
54 40 26
27 33 18
39 39 38
158 154 73
21 21 15
28 28 19
22 22 16
34 30 21
25 25 18
87 55 44
92 74 58
55 46 31
47 52 38
34 38 22
35 40 35
71 55 43
27 27 19
29 29 21
84 73 53
38 35 24
73 70 49
110 82 65
36 43 53
52 43 36
71 60 61
33 22 35
56 45 69
91 47 64
39 26 41
36 24 39
108 72 97
72 42 64
34 22 36
35 23 37
36 24 38
74 51 61
113 64 76
34 23 36
30 20 32
255 172 255
31 20 33
77 45 61
31 20 33
79 48 75
47 25 42
28 18 30
27 54 44
20 31 33
45 57 127
38 45 47
20 31 33
49 67 74
40 69 49
54 73 65
29 40 43
35 64 53
20 31 33
19 29 32
30 39 39
49 86 61
59 78 62
17 26 29
30 41 41
18 27 29
17 25 28
48 51 54
16 24 26
50 74 53
23 29 29
48 79 60
64 65 55
14 21 23
19 35 31
55 36 29
47 24 32
25 17 17
21 14 15
40 40 34
18 12 14
37 20 26
21 14 15
108 39 58
246 164 164
49 28 28
61 43 31
39 31 24
35 20 20
37 23 21
32 23 20
54 34 33
47 41 35
86 44 50
43 29 24
36 19 24
54 28 37
19 12 14
18 12 13
29 23 19
243 162 162
15 10 12
19 13 13
27 18 16
45 30 23
26 27 14
21 14 13
33 21 18
40 43 23
26 14 15
40 29 19
23 22 26
28 15 15
13 9 10
72 53 65
28 19 16
60 46 33
14 9 10
125 62 79
130 126 87
35 31 29
54 29 22
26 21 15
34 29 20
21 14 15
164 160 109
49 28 28
39 20 27
17 11 12
76 47 32
90 32 46
23 15 13
31 19 17
26 17 19
102 134 92
15 10 11
38 18 20
45 22 30
54 28 32
15 10 12
45 35 35
87 34 56
22 18 16
21 17 18
53 33 46
29 21 18
16 10 12
92 33 35
16 11 12
143 66 66
34 18 19
94 66 45
16 10 12
32 26 23
30 17 15
18 12 13
30 26 27
69 60 48
17 11 12
48 32 30
25 20 17
62 27 36
56 43 28
48 42 32
31 20 33
32 24 41
60 42 45
53 23 30
17 11 13
94 45 38
47 27 27
44 41 27
50 43 43
25 21 21
42 28 23
17 11 13
52 29 19
33 25 20
34 18 19
37 46 33
19 19 14
21 21 20
18 18 14
18 18 13
18 18 14
18 18 14
52 50 28
18 18 13
54 51 23
31 27 16
25 25 17
43 34 19
25 25 18
29 29 17
22 22 16
36 36 20
37 48 33
17 17 13
17 17 13
17 17 13
27 27 19
39 33 27
54 91 52
38 38 22
29 29 24
81 63 31
28 32 18
24 24 17
26 22 15
38 38 22
49 31 25
33 41 19
17 17 11
71 54 31
62 54 36
47 36 25
48 50 32
137 115 81
39 33 22
52 46 24
22 25 34
85 61 34
39 52 23
41 54 22
27 23 44
25 25 32
59 51 30
20 20 14
75 39 29
94 124 46
18 18 13
15 15 11
60 105 31
31 40 28
41 31 22
36 27 17
15 15 11
21 21 14
23 29 14
41 29 20
26 29 20
32 25 17
13 13 10
14 14 15
30 39 21
41 46 34
20 20 15
44 60 26
20 24 14
25 37 24
37 56 33
28 28 16
13 13 10
16 16 12
19 19 14
23 18 16
14 14 9
42 65 24
45 51 22
88 62 34
11 11 9
49 37 22
67 37 26
19 24 13
17 17 13
9 9 7
16 14 20
15 15 11
31 43 30
12 12 11
25 25 21
83 48 53
32 30 32
8 8 10
21 16 23
17 17 19
44 36 44
56 30 32
10 10 13
12 12 14
18 14 18
210 210 210
15 15 17
10 10 12
37 40 28
13 13 15
54 72 35
21 21 15
37 37 29
4 4 6
8 8 10
24 24 19
35 28 29
6 6 8
31 25 27
10 10 12
41 49 36
19 15 15
13 13 15
79 46 67
28 26 34
32 32 24
11 11 13
39 51 38
10 10 12
31 47 32
12 12 14
8 8 14
14 15 20
48 53 48
19 24 13
8 8 25
8 8 10
3 3 5
12 12 34
15 15 23
13 13 13
41 74 47
36 30 26
13 13 19
9 9 13
13 12 28
72 67 35
5 5 23
27 55 158
7 8 36
4 4 19
45 45 181
11 13 35
15 12 42
10 11 38
20 14 48
4 4 19
7 6 31
16 12 43
4 4 19
4 4 20
10 14 47
11 10 50
4 4 20
4 4 20
7 7 30
10 8 42
4 4 20
4 4 19
7 9 40
9 9 52
15 10 53
4 4 19
14 14 31
2 2 13
8 13 31
2 2 12
9 11 33
3 3 16
10 6 24
41 48 34
8 8 10
9 9 11
45 65 33
9 9 16
28 21 21
9 9 11
10 10 12
23 30 28
19 43 17
36 26 38
7 7 7
11 9 27
4 4 6
21 28 21
46 58 28
24 38 22
8 8 10
77 83 58
25 56 21
14 17 14
18 22 15
30 29 25
14 21 11
63 70 41
19 34 19
23 56 23
36 40 18
35 38 20
27 38 32
7 11 8
12 19 13
10 15 11
10 18 41
7 11 8
7 11 8
22 48 32
11 19 11
7 11 9
25 28 21
213 213 213
5 7 21
41 56 117
4 4 19
41 23 41
23 35 17
14 14 11
43 51 28
22 26 27
51 59 41
63 55 30
24 24 17
58 45 28
52 71 32
78 120 50
95 82 43
43 36 25
26 26 18
66 110 55
213 213 142
39 46 27
26 26 19
112 102 42
40 40 27
59 51 34
23 23 17
48 42 32
91 98 63
71 50 43
70 78 45
29 19 32
94 41 68
36 24 47
49 28 44
58 39 51
61 44 78
55 33 60
36 24 48
34 22 36
125 94 96
62 34 53
34 23 36
46 32 53
60 32 50
31 20 33
84 49 66
27 18 29
72 41 50
26 17 28
66 47 67
30 20 32
54 70 59
51 62 55
55 64 71
36 54 46
18 28 30
19 28 31
18 28 30
20 30 32
17 26 28
18 27 29
58 67 59
47 52 64
44 71 66
34 51 43
18 27 29
16 24 26
46 64 50
52 78 61
42 64 56
44 54 70
16 24 27
58 55 62
32 39 40
164 171 171
50 65 49
30 37 34
49 110 86
13 20 22
19 13 14
18 12 14
28 23 24
48 44 34
75 50 38
20 13 15
20 13 14
20 13 15
21 14 16
29 19 20
20 13 15
30 20 17
28 17 17
54 23 30
19 12 14
29 17 17
255 122 86
19 13 14
19 12 14
19 12 14
18 12 14
43 24 24
21 14 15
18 12 12
17 11 12
79 56 38
56 28 24
13 9 16
47 24 44
12 8 9
17 11 13
32 16 19
26 22 18
16 11 12
25 13 18
66 44 32
13 8 10
24 16 14
22 19 19
13 9 10
33 29 30
48 36 26
55 44 28
18 12 13
52 23 26
22 15 32
84 52 30
21 17 15
241 160 160
28 21 21
45 30 23
34 28 29
17 11 13
246 120 83
242 161 161
14 9 11
21 17 15
43 19 22
46 38 33
30 23 20
56 27 45
46 25 33
242 161 161
29 19 16
46 35 26
18 14 13
55 35 29
34 24 20
167 42 49
24 20 17
72 38 101
53 52 48
56 52 39
56 20 23
46 35 23
39 28 30
35 20 21
38 27 32
16 10 12
16 11 12
53 29 39
41 43 23
39 41 41
22 13 13
52 31 37
44 19 22
17 11 12
18 12 19
36 32 33
57 46 50
45 24 24
36 21 25
38 36 27
51 28 34
17 11 12
54 46 52
57 39 34
49 41 44
17 11 13
43 19 22
17 11 13
29 24 25
68 54 56
16 11 12
19 19 20
18 18 14
37 53 25
65 46 34
79 133 40
63 73 48
39 45 27
92 83 58
67 54 34
21 21 15
25 27 18
23 25 25
46 56 28
25 21 15
16 16 14
66 65 27
33 30 22
31 40 21
58 79 32
24 29 17
245 245 163
237 125 86
28 23 16
37 36 20
17 17 12
55 43 32
16 16 12
16 16 12
23 27 16
42 60 36
16 16 12
87 53 49
36 29 20
129 59 68
17 17 12
38 50 26
43 61 34
16 16 12
16 16 12
86 103 45
15 15 12
201 201 134
255 188 90
15 15 11
65 54 36
34 34 20
15 15 11
55 45 31
15 15 11
32 27 17
44 33 22
25 21 42
44 45 48
100 71 57
14 14 11
20 19 27
21 21 15
31 35 17
21 26 13
14 14 11
30 36 20
23 23 16
240 240 160
37 53 21
44 41 21
30 40 21
13 13 10
31 40 19
16 16 12
14 13 17
59 58 30
12 12 9
48 41 21
23 27 20
12 12 9
17 22 16
24 24 13
16 16 12
57 44 29
40 35 20
12 12 9
52 91 29
11 11 8
19 19 11
38 52 24
32 44 22
53 60 21
28 34 20
37 56 37
29 22 36
15 19 11
58 45 40
98 105 65
210 210 210
23 23 20
41 29 46
28 21 28
92 60 48
8 8 10
21 27 28
8 8 10
58 70 62
10 10 12
15 15 17
4 4 6
10 10 12
13 13 15
64 48 29
214 214 214
10 10 12
68 79 53
17 15 37
48 36 44
42 63 36
10 10 12
26 26 21
23 18 23
14 14 16
51 64 60
12 12 14
27 35 28
68 70 70
15 19 15
3 3 5
11 14 11
22 15 22
43 47 46
10 10 12
24 24 18
48 27 31
42 42 32
8 8 10
10 10 10
5 5 7
31 24 31
17 15 31
5 5 12
4 4 4
7 7 8
11 10 17
44 53 32
89 93 75
39 35 35
19 20 46
14 14 44
18 17 52
36 16 68
7 6 25
11 10 41
16 10 54
13 16 64
10 8 42
24 19 76
13 15 46
4 4 19
9 7 31
19 12 72
17 17 52
11 9 51
7 7 35
7 9 32
6 6 26
4 4 20
9 10 35
12 9 38
41 56 157
12 14 38
15 14 47
12 10 50
7 13 53
6 6 25
4 4 18
7 9 23
2 2 10
6 4 20
6 10 21
1 1 9
3 3 13
13 13 15
8 8 10
4 4 7
37 40 34
21 19 14
6 6 8
60 102 41
9 10 21
12 10 10
40 40 29
20 27 17
28 54 24
8 8 10
18 25 16
10 14 10
8 8 19
14 19 13
13 10 10
33 36 44
22 30 22
4 4 6
49 31 44
11 17 12
6 10 8
44 55 44
7 10 8
112 171 76
35 34 24
30 40 23
14 33 22
14 22 11
43 53 39
13 20 14
7 10 8
18 36 15
38 57 25
18 24 15
41 66 29
16 30 14
7 7 9
3 3 14
8 9 39
33 24 51
52 28 33
27 24 13
13 13 10
89 100 51
39 35 20
15 15 11
84 61 33
39 39 21
246 246 164
20 20 14
44 54 47
21 21 16
58 45 38
35 42 23
34 34 22
25 25 18
42 51 28
91 55 35
23 23 16
44 34 24
70 111 45
32 28 19
34 41 27
34 49 32
92 82 67
34 24 34
43 35 43
43 32 49
56 37 55
87 45 81
31 20 33
255 171 255
28 19 31
39 26 41
37 24 39
85 49 78
32 21 34
68 33 52
105 70 82
67 56 65
120 61 81
56 43 53
64 32 45
82 52 83
36 22 33
253 168 253
90 81 76
25 16 27
50 53 79
15 23 25
75 72 78
24 37 37
47 56 87
18 28 40
20 30 32
30 55 45
39 50 62
24 32 38
31 39 41
47 90 63
52 71 112
74 74 78
31 39 40
77 85 97
27 40 36
15 23 25
47 69 65
15 23 25
35 46 46
14 21 24
38 59 53
14 21 23
55 53 61
52 58 50
50 104 59
12 18 21
36 24 24
17 11 13
41 42 42
135 96 50
30 22 18
19 12 14
40 34 26
18 12 13
36 24 21
29 23 24
36 22 20
19 12 14
61 48 41
35 26 21
73 42 56
43 23 26
25 16 18
18 12 13
107 66 55
64 35 48
37 25 21
62 41 40
32 27 22
47 24 31
24 19 17
24 16 17
27 23 23
20 17 14
42 26 24
26 25 17
15 10 11
28 13 31
23 15 13
26 20 23
147 100 69
23 13 13
52 38 25
12 8 10
28 20 16
14 10 16
13 8 10
38 31 19
57 40 69
21 14 15
85 57 32
44 40 38
22 16 16
13 9 10
34 23 18
28 15 14
37 37 33
15 10 11
14 9 11
42 35 27
42 44 35
46 23 38
95 33 46
15 10 11
73 49 36
29 24 25
136 130 91
19 12 14
85 32 36
49 24 34
61 26 39
29 19 19
15 10 12
20 15 17
15 10 11
243 162 162
33 20 20
49 24 19
43 31 34
123 91 41
26 21 17
25 16 18
56 28 39
161 141 73
15 10 11
46 31 24
67 41 53
16 11 12
25 20 20
60 26 30
34 33 31
16 11 12
16 11 12
69 42 30
37 24 20
42 24 28
49 28 24
29 26 24
30 28 32
34 28 27
48 37 31
75 27 48
17 11 12
67 31 31
33 28 25
15 10 10
27 18 18
90 59 31
36 30 31
47 36 22
38 31 21
42 30 25
69 63 33
33 40 27
23 27 16
51 58 34
17 17 13
48 36 34
38 31 21
38 46 32
18 18 13
96 78 67
27 31 19
28 31 16
23 22 30
17 17 13
37 33 33
25 25 18
244 244 163
28 36 25
22 22 16
68 53 39
38 50 26
29 29 18
32 37 19
45 35 20
28 35 20
37 31 20
46 44 24
24 24 17
53 78 46
16 16 12
54 50 26
91 120 40
27 34 18
16 16 12
15 15 12
16 16 12
41 28 24
24 21 14
17 17 20
45 45 25
47 34 48
14 14 12
36 39 33
44 36 30
25 31 17
19 19 14
73 102 57
25 31 17
36 44 24
63 34 21
28 36 20
16 15 21
13 13 10
50 43 24
38 29 20
241 241 160
39 35 18
73 61 37
191 255 132
22 22 16
40 46 23
35 27 19
55 47 27
13 13 10
12 12 9
13 13 10
21 23 16
223 152 101
11 11 9
18 18 13
19 19 20
20 25 18
12 12 9
15 15 11
163 241 109
16 16 12
22 28 19
11 10 13
9 9 6
24 32 17
10 10 8
30 34 16
228 110 103
10 10 8
26 35 18
41 30 29
63 68 27
14 14 26
6 6 8
23 23 19
6 6 8
54 43 43
36 26 38
27 38 34
12 12 14
12 12 14
86 61 46
73 46 89
69 61 51
8 8 10
23 19 21
23 28 18
13 13 11
113 94 53
12 12 14
23 23 17
37 26 39
40 47 28
51 39 39
62 40 56
7 7 18
29 35 35
8 8 10
9 9 11
13 13 13
28 33 21
48 51 34
13 13 19
8 8 10
32 21 25
40 49 32
12 13 27
18 16 47
41 34 34
36 39 28
43 31 45
62 50 58
17 17 13
10 10 12
15 15 25
31 37 25
41 57 29
9 9 9
14 14 23
7 7 8
33 33 24
35 19 28
3 3 5
2 2 25
83 52 53
6 6 23
4 4 18
15 15 48
11 9 29
4 4 19
5 7 29
12 10 30
11 9 47
5 5 24
9 14 49
9 9 33
9 10 31
13 9 47
11 13 37
8 10 26
11 14 57
5 5 22
14 11 66
4 4 19
17 12 41
7 7 26
10 20 56
6 5 23
9 12 33
12 11 34
7 9 40
16 12 73
5 5 21
4 4 18
2 2 12
2 2 11
2 2 11
6 7 24
4 6 20
13 15 63
9 9 11
46 46 169
13 10 11
71 86 44
17 23 15
40 47 36
11 15 13
40 57 43
82 48 69
25 20 20
56 93 44
22 32 21
76 43 68
7 7 9
22 17 18
6 6 8
10 10 12
6 6 8
35 35 25
19 26 18
7 7 9
14 19 12
28 30 29
27 40 22
17 34 24
129 193 129
23 26 18
30 53 25
8 13 8
10 15 11
23 29 18
20 45 22
26 31 20
13 22 13
30 55 44
7 10 12
7 11 8
31 40 24
12 10 10
2 2 11
7 9 39
4 4 20
11 9 34
8 8 10
27 35 19
45 33 20
42 43 27
44 52 29
62 54 30
44 34 22
73 89 69
66 73 54
25 25 17
159 230 153
126 76 36
79 72 60
23 23 16
72 47 45
52 41 28
43 53 27
26 26 19
30 27 18
61 85 37
34 40 54
44 57 39
43 35 28
20 20 14
93 63 53
38 30 26
30 22 30
28 19 31
29 19 31
66 40 54
36 24 38
73 47 53
59 52 59
42 28 39
55 33 46
26 17 29
40 32 40
48 42 51
33 22 35
109 44 54
47 29 39
56 34 44
74 65 65
46 28 42
24 16 26
30 20 51
21 14 23
21 14 23
18 29 29
16 24 26
16 24 26
21 29 29
29 37 38
171 255 255
17 26 29
30 55 47
39 52 59
25 36 36
17 26 28
17 26 28
37 67 53
32 40 41
29 40 35
42 42 41
14 22 24
19 29 31
29 60 47
40 53 53
23 30 31
17 25 43
25 31 31
22 30 30
18 27 29
13 19 22
35 63 44
11 17 20
152 114 114
45 33 41
70 40 55
17 11 13
26 21 22
30 21 19
20 13 13
65 50 50
23 18 15
18 12 14
29 17 19
29 24 25
36 20 25
52 26 46
22 14 15
44 41 31
47 26 31
18 12 13
18 12 14
23 15 16
75 66 56
17 11 13
35 35 26
244 162 162
46 30 26
40 27 21
47 45 28
14 9 10
239 159 159
12 8 9
32 31 18
48 56 27
41 26 18
34 16 16
13 8 10
21 14 12
16 10 25
13 8 10
15 10 11
37 16 18
75 36 33
13 9 10
28 14 15
31 24 24
13 9 10
91 60 41
59 31 33
21 12 12
201 134 134
17 11 13
14 9 11
38 30 23
54 27 36
18 14 13
113 46 61
23 15 14
19 15 13
36 30 22
23 15 24
30 23 25
35 30 24
94 41 47
33 25 25
232 106 155
62 30 31
24 13 13
45 23 31
15 10 11
34 26 21
15 10 12
15 10 11
56 49 43
243 162 162
40 35 23
22 16 16
65 45 50
16 10 12
44 25 25
32 30 24
42 19 26
60 60 40
160 155 106
26 14 14
20 13 15
29 16 20
117 72 45
62 59 46
22 15 16
54 31 43
35 30 24
48 49 25
24 14 17
16 11 12
42 32 27
91 33 50
24 14 14
110 59 56
37 18 18
17 11 13
50 41 28
17 11 13
17 11 13
229 74 106
68 45 34
25 25 18
100 65 33
44 40 23
18 18 13
65 39 36
106 61 51
18 18 13
44 45 23
32 46 31
26 26 18
75 89 43
45 49 23
35 35 21
25 25 17
34 29 23
21 21 15
33 33 18
28 24 16
25 25 22
22 24 25
28 26 28
16 16 12
48 40 22
17 17 13
37 50 33
38 30 21
96 76 39
26 32 23
16 16 12
16 16 12
51 58 26
64 42 24
16 16 12
27 23 16
51 65 40
59 41 25
53 45 32
27 30 16
31 36 21
33 38 25
54 34 26
67 67 29
26 26 18
50 60 31
36 30 18
14 14 11
33 39 22
20 20 30
15 15 16
21 18 15
34 30 17
19 22 13
13 13 10
19 19 14
21 18 21
14 14 11
47 57 31
14 14 10
29 29 17
48 36 20
13 13 10
49 43 24
13 13 10
18 18 13
11 11 10
15 15 15
38 29 20
58 62 31
27 28 15
200 200 133
48 35 33
31 31 20
23 22 28
13 13 10
93 56 53
14 14 10
24 32 17
27 29 23
119 237 75
63 39 30
42 46 37
10 10 8
41 50 23
26 44 29
24 27 16
14 14 10
21 28 15
10 10 8
31 40 37
203 131 52
44 54 60
201 201 137
5 5 8
8 8 10
15 15 12
12 12 14
12 12 14
11 12 18
25 25 21
36 26 26
27 36 18
196 238 114
29 20 56
62 66 54
12 12 17
28 22 23
31 31 23
20 23 17
8 8 10
61 90 35
12 15 15
38 28 31
6 6 8
203 203 138
14 14 16
8 8 10
10 10 12
18 18 15
25 28 21
4 4 10
10 10 12
27 29 30
39 32 27
15 16 38
3 3 7
9 9 15
12 12 14
51 36 126
24 18 24
44 42 33
26 35 36
14 7 22
59 22 36
7 7 8
36 22 32
40 28 108
11 7 7
8 12 12
8 5 33
1 1 4
12 9 15
1 1 12
52 52 146
6 6 26
11 9 40
4 4 18
8 10 43
7 6 32
5 5 22
15 11 53
9 9 31
7 7 24
11 12 31
44 30 176
11 10 39
11 10 32
54 54 218
13 11 35
6 6 25
9 11 36
20 15 66
4 4 19
9 13 48
13 16 41
4 4 19
9 11 49
8 8 29
4 4 19
5 6 27
13 9 44
24 15 59
7 9 27
3 4 16
14 14 41
12 8 46
6 7 21
2 2 10
11 15 35
147 155 106
30 42 42
5 5 7
56 56 34
81 107 66
15 18 30
11 11 13
6 6 8
23 27 21
19 35 24
12 15 13
24 42 21
33 44 23
4 4 6
10 10 12
4 4 6
125 123 90
43 43 31
2 2 5
64 40 47
39 32 27
23 23 13
13 25 13
28 31 21
21 36 20
23 34 26
7 10 8
9 14 11
37 36 34
7 10 8
13 19 14
13 25 13
67 87 40
47 72 22
10 15 10
49 77 46
12 21 13
52 30 37
5 4 16
15 21 73
7 8 25
6 6 6
25 19 19
11 11 11
12 12 8
35 49 23
19 23 15
14 14 11
35 37 21
17 17 19
18 18 13
71 50 32
42 33 23
113 112 63
63 83 36
29 34 24
80 50 40
20 20 15
57 46 35
40 52 28
21 21 15
44 48 25
62 48 37
35 42 23
51 59 44
30 30 17
19 19 14
33 19 29
49 31 41
107 52 72
39 30 45
40 25 38
35 23 35
29 20 37
26 17 28
52 35 44
60 24 42
63 39 66
41 33 50
30 20 32
66 60 56
38 22 35
38 22 34
146 59 120
56 30 45
99 60 79
79 52 62
39 23 39
93 46 60
38 31 47
26 35 35
33 40 46
33 50 41
39 51 46
28 34 40
34 41 41
24 33 37
38 49 74
84 247 173
47 54 57
30 46 39
20 31 31
16 25 27
43 64 49
16 25 27
61 98 72
35 42 55
39 40 43
27 37 37
14 21 24
18 28 30
205 88 161
13 20 22
17 30 26
13 20 22
41 43 60
41 90 72
31 39 39
17 31 26
15 10 11
76 54 36
171 110 160
18 12 14
241 110 161
56 26 34
54 36 35
93 61 33
30 27 29
25 15 18
28 15 18
62 41 37
25 14 14
19 12 14
78 103 43
118 34 56
40 21 27
39 34 26
17 11 13
26 23 21
23 14 14
17 11 13
37 28 28
21 14 15
23 19 19
189 87 87
28 14 15
18 12 12
11 7 9
255 87 93
18 12 13
12 8 10
56 31 25
31 19 18
12 8 10
77 51 37
39 29 26
23 20 13
92 67 43
31 32 42
28 24 24
13 8 10
21 16 16
20 13 15
13 9 10
24 16 17
32 16 21
44 44 23
13 8 9
62 24 28
91 57 42
27 14 14
47 35 41
14 9 11
51 34 26
23 15 15
17 11 19
33 26 20
38 19 26
14 9 11
52 33 31
46 26 30
74 44 36
36 27 27
15 10 11
15 10 11
15 10 11
45 30 23
40 25 25
15 10 11
15 10 11
15 10 11
89 64 46
57 57 36
28 22 23
15 10 12
243 162 162
34 30 31
35 18 17
16 10 12
29 25 26
32 16 22
23 18 18
35 26 22
244 162 162
16 10 12
16 10 12
60 45 55
243 162 162
78 43 60
88 73 54
51 46 27
35 36 27
17 11 12
34 18 19
31 26 21
31 23 33
65 24 35
37 41 25
63 50 56
83 69 56
27 22 20
24 22 15
66 59 32
33 48 29
40 29 21
30 33 19
28 33 23
213 213 142
48 37 25
38 29 29
45 37 31
33 42 23
49 63 104
17 17 13
20 20 21
51 39 27
17 17 13
17 17 13
42 41 23
38 30 26
26 31 22
29 23 15
44 34 23
66 43 33
38 30 21
32 42 21
42 36 25
42 42 24
22 22 16
23 23 18
30 24 21
244 244 162
34 44 23
23 23 17
29 43 25
19 19 14
15 15 12
17 17 12
15 15 11
15 15 11
40 29 31
24 30 17
33 43 23
34 29 23
33 26 18
29 37 20
14 14 13
37 37 22
44 55 27
14 14 10
14 14 11
14 14 11
39 41 21
28 29 19
14 14 11
37 41 34
36 47 31
14 14 11
60 39 35
192 192 89
77 99 54
15 15 10
17 15 16
14 14 10
14 14 14
13 13 10
15 15 10
79 85 40
20 20 12
13 13 10
43 74 24
12 12 10
17 17 12
90 46 40
16 17 21
120 57 36
21 21 13
35 48 22
11 11 9
28 35 24
15 15 11
15 15 11
9 9 7
11 11 7
10 10 13
21 29 15
26 41 17
15 15 11
14 17 10
16 21 15
34 25 17
26 32 15
29 29 23
13 13 15
47 37 52
63 67 40
28 25 20
25 31 24
38 36 24
54 45 33
45 55 34
18 13 49
78 38 50
48 55 38
40 40 138
25 19 16
10 10 12
67 126 59
7 7 9
8 8 6
42 39 32
17 17 15
44 47 35
8 8 10
55 52 38
5 5 5
7 7 7
216 216 216
8 8 10
23 35 26
40 29 42
11 11 13
25 30 19
209 209 209
23 26 18
9 9 11
4 4 5
13 13 12
13 12 19
0 0 0
72 53 34
5 5 5
46 50 27
234 157 108
5 5 7
0 0 3
172 81 45
0 0 0
7 5 29
24 20 13
2 2 4
2 4 17
18 12 13
7 8 29
7 7 28
6 7 31
6 6 22
5 5 23
13 14 57
8 6 34
9 12 45
15 16 48
11 14 36
9 7 30
16 25 45
14 14 44
9 9 30
9 10 47
14 15 39
45 45 182
4 4 18
6 10 33
9 7 30
17 14 46
4 4 19
21 13 73
8 8 29
15 12 33
46 46 185
8 10 44
4 4 18
4 4 19
5 5 24
3 3 15
9 13 45
19 16 37
8 9 30
3 4 14
8 6 25
1 1 9
1 1 8
8 8 10
16 16 14
21 34 24
24 27 19
108 57 48
80 54 50
37 43 44
60 68 47
7 7 9
10 13 11
32 35 32
46 34 39
5 5 7
210 210 210
6 6 8
9 9 11
6 6 8
12 17 12
25 27 20
27 39 22
19 27 32
6 10 8
24 35 22
5 7 5
44 63 31
11 19 12
18 35 24
59 69 28
8 13 18
33 62 22
11 20 11
9 14 11
36 51 38
5 8 8
29 30 24
35 102 29
14 19 13
10 15 28
11 15 33
4 4 18
4 4 18
30 30 32
50 45 37
99 93 42
195 195 130
75 127 63
14 14 11
45 44 41
15 15 12
30 24 15
41 53 43
39 31 20
33 33 19
30 24 16
18 18 13
41 41 40
77 54 36
68 63 30
20 20 15
78 56 35
80 59 31
27 25 19
28 33 22
17 17 11
16 16 12
17 17 13
29 21 34
22 15 25
93 34 68
24 16 26
53 44 55
65 37 56
102 57 88
58 30 47
77 83 60
25 17 28
33 22 33
40 32 42
23 15 25
65 42 72
90 44 69
50 35 44
22 15 25
44 25 38
27 17 47
249 166 249
29 19 29
98 96 79
19 13 21
28 35 42
77 96 97
77 129 82
26 33 41
40 48 44
199 206 151
17 26 28
81 70 93
27 35 35
16 24 26
27 41 35
48 72 55
18 27 29
21 29 31
24 39 39
29 60 44
21 35 35
15 23 25
48 93 56
38 67 39
30 36 47
13 20 23
21 38 38
21 35 32
13 19 22
12 19 21
65 58 87
33 49 52
23 44 36
11 17 19
31 25 25
15 10 11
30 26 24
68 33 40
31 20 18
28 22 24
17 11 13
33 18 23
25 22 20
60 50 43
40 33 44
108 47 60
197 192 134
57 28 32
54 40 37
105 75 53
245 163 163
90 60 65
44 23 21
22 17 17
42 28 23
16 11 12
16 11 12
19 12 14
114 37 40
63 52 42
20 17 18
16 11 12
16 9 26
72 48 27
41 25 17
72 29 32
54 49 49
20 13 14
28 21 17
50 48 40
255 135 93
13 9 10
78 48 31
13 9 10
15 10 11
18 14 13
53 35 27
25 17 13
17 13 15
30 16 14
36 32 26
37 42 40
31 18 22
23 19 16
111 72 44
30 20 15
24 20 17
23 13 17
12 8 8
30 20 17
37 23 20
51 40 37
73 49 36
61 53 34
20 14 30
14 9 11
55 37 28
29 22 18
37 22 22
15 10 11
27 14 18
25 19 16
15 10 11
40 20 22
35 23 19
65 36 28
61 27 40
95 58 42
20 13 15
25 18 17
27 21 16
29 20 18
30 22 17
16 10 12
43 22 31
38 31 26
58 40 23
35 19 57
40 22 53
26 15 16
42 37 23
99 45 53
32 24 29
45 25 31
41 43 32
43 22 29
16 11 12
45 27 24
19 12 20
52 27 29
29 18 39
34 23 21
161 113 107
16 11 12
15 10 11
41 33 23
44 43 26
50 45 42
35 45 31
41 35 28
255 185 88
29 35 25
26 26 19
17 17 13
20 20 24
35 35 20
51 69 29
36 29 19
27 29 15
29 24 17
41 35 24
26 26 21
55 40 26
33 42 23
60 66 42
30 30 41
36 46 32
32 25 31
25 25 18
16 16 12
16 16 12
29 29 24
28 32 17
68 76 41
16 16 18
20 17 11
31 40 22
58 79 34
40 38 21
27 27 17
35 39 27
44 34 28
31 31 18
19 19 14
18 18 12
36 43 28
52 50 24
33 33 17
36 34 25
25 29 17
22 22 16
45 49 37
26 29 18
31 26 23
51 64 36
14 14 11
21 21 15
14 14 11
50 37 26
84 72 58
44 54 29
14 14 14
16 17 20
13 13 10
70 94 50
14 14 11
170 249 82
91 55 28
37 32 19
13 13 10
12 12 9
20 27 34
11 11 9
18 18 13
21 19 24
12 12 9
30 37 20
29 39 18
24 24 14
17 17 12
37 45 24
58 60 44
18 16 18
37 27 26
50 40 33
10 10 8
54 54 129
11 11 11
10 10 8
39 49 31
10 10 8
125 91 46
43 66 33
42 26 17
38 28 17
35 83 34
33 35 27
8 8 10
14 14 16
10 10 12
12 12 14
10 10 12
211 211 211
9 9 11
45 59 40
49 41 29
12 12 14
29 41 22
21 26 28
7 7 9
8 8 10
11 11 13
54 63 58
10 10 12
20 20 17
17 14 15
19 26 26
7 7 9
14 14 16
5 5 10
34 27 28
9 9 9
28 33 30
10 10 12
14 14 16
11 11 14
11 11 38
40 32 26
8 8 34
40 33 28
3 3 5
20 37 16
3 3 5
12 12 8
0 0 3
15 14 42
12 12 8
4 4 31
28 42 44
0 0 0
13 13 10
46 69 54
4 4 29
24 16 26
0 0 0
4 3 19
13 12 44
7 9 38
6 6 23
10 8 33
4 4 18
22 22 54
4 4 18
15 17 50
4 4 18
4 4 18
4 4 18
4 4 18
4 4 18
13 10 35
46 46 128
15 11 50
4 4 18
9 9 35
4 4 18
8 11 48
13 16 40
22 32 139
18 22 79
4 4 18
20 23 60
13 16 55
15 11 42
5 5 21
7 8 28
10 11 39
4 4 18
4 4 18
5 7 24
2 2 10
11 7 34
1 1 9
4 4 33
5 7 22
3 3 14
48 40 32
13 10 10
209 209 209
34 26 21
6 6 8
50 87 37
8 8 10
7 7 9
5 5 7
19 15 16
5 5 7
79 43 56
20 32 22
19 28 29
108 161 108
14 16 12
10 13 12
17 30 16
107 160 107
10 9 22
17 36 25
42 45 30
16 20 13
36 54 26
130 195 130
32 60 43
25 38 19
5 7 6
21 24 21
63 60 51
10 15 11
83 182 83
132 198 132
30 46 23
16 21 22
19 29 17
21 30 21
5 7 19
19 13 43
8 6 32
62 42 30
28 28 20
76 64 47
29 22 14
37 45 25
60 49 36
22 22 16
26 21 15
39 52 27
28 35 18
25 23 15
31 27 20
37 29 20
17 17 12
154 220 57
210 210 140
56 47 28
24 26 17
16 16 12
34 44 31
52 40 27
37 35 21
91 63 49
35 29 19
40 46 34
40 21 32
37 27 37
29 19 31
83 44 46
23 15 25
30 17 53
58 41 48
24 16 26
171 163 171
25 16 27
42 28 34
62 39 59
46 36 58
65 43 52
26 17 27
21 14 23
62 33 47
53 28 56
22 15 25
21 14 24
35 27 33
28 18 28
43 35 59
26 21 28
38 52 52
17 25 27
12 19 21
19 29 31
25 32 39
87 149 85
14 21 24
93 174 137
14 21 24
33 37 41
166 249 249
20 31 28
29 43 37
14 21 23
49 73 56
15 23 25
24 41 41
27 41 35
19 35 32
88 72 75
23 44 44
38 96 67
32 42 42
40 39 44
12 18 20
14 21 23
48 93 54
11 17 19
31 42 53
49 47 58
36 33 31
47 24 31
58 25 33
63 31 42
27 22 22
21 14 15
23 15 16
47 31 22
244 162 162
50 65 35
105 49 56
17 11 12
21 14 15
61 32 44
43 22 22
46 25 25
35 19 23
28 18 20
17 11 12
55 54 44
42 41 30
74 36 63
36 31 33
46 23 32
75 62 75
15 10 16
79 52 58
41 41 41
42 27 37
43 23 21
28 29 18
38 29 30
47 24 20
28 24 19
57 27 35
13 8 10
59 43 25
31 29 23
22 15 13
27 18 15
13 8 10
27 22 22
73 52 33
35 25 18
12 8 9
61 41 31
19 12 14
13 8 10
13 9 10
14 9 11
14 9 11
85 64 71
35 25 25
21 14 15
14 9 11
31 23 28
47 19 23
20 13 14
21 12 12
242 161 161
40 28 24
14 9 10
23 13 13
35 31 20
42 28 22
61 48 30
23 17 15
31 27 29
89 59 43
50 25 34
130 125 86
94 57 40
15 10 11
15 10 11
16 11 17
22 14 16
32 28 22
35 31 24
21 14 15
39 28 21
56 40 35
80 41 46
14 9 9
57 23 27
73 39 27
93 44 54
38 29 30
55 63 51
47 42 40
16 10 12
27 15 14
41 30 21
34 29 23
68 47 33
16 11 12
62 28 35
16 11 12
66 61 33
82 34 47
243 162 162
27 22 16
86 102 40
35 37 20
25 25 18
39 52 27
25 29 17
17 17 13
37 30 20
47 36 25
17 17 13
42 42 22
17 17 13
24 29 20
37 66 30
17 17 13
16 16 12
229 157 152
34 34 20
19 19 14
48 46 33
31 40 21
51 45 28
63 98 47
67 98 48
37 36 24
61 52 27
42 63 26
49 41 26
81 77 36
29 24 16
18 18 12
15 15 15
255 186 87
47 68 28
36 28 25
23 29 15
48 53 35
89 72 45
69 41 26
13 13 9
70 96 57
52 61 30
49 72 40
15 15 11
169 169 113
87 57 32
59 44 27
23 25 14
17 17 63
11 11 7
73 50 40
70 45 25
34 46 24
49 58 24
18 20 19
13 13 10
43 33 22
31 40 21
28 20 15
86 82 38
37 28 20
87 102 35
59 47 23
64 57 39
34 29 23
13 13 10
16 16 12
12 12 9
40 43 18
34 26 21
239 239 159
46 34 23
44 44 31
28 38 20
42 45 25
13 13 14
146 143 66
27 36 25
28 20 17
17 17 13
18 23 16
20 20 14
20 20 12
10 10 8
44 71 25
20 25 13
10 10 8
236 236 157
29 32 14
10 10 8
194 194 129
53 41 23
59 34 42
9 9 11
13 13 15
5 6 9
40 51 30
8 8 10
7 7 9
6 6 8
26 35 26
70 42 52
43 30 45
4 4 6
40 25 35
12 12 14
56 84 54
9 9 11
40 26 36
28 18 23
67 51 32
4 4 6
8 8 10
13 13 15
10 10 12
44 50 32
8 8 10
7 7 9
13 13 15
3 3 5
17 21 18
17 17 13
22 31 31
12 17 10
1 1 1
57 32 38
4 4 13
2 2 4
0 0 3
44 37 25
2 2 4
41 41 112
5 9 28
0 0 8
4 3 19
4 2 11
9 9 33
6 3 24
8 12 14
1 1 6
2 2 19
8 6 36
4 4 21
5 5 24
8 8 28
9 9 32
11 8 35
5 7 30
8 7 29
11 10 30
3 3 17
4 4 18
9 7 41
6 6 22
44 44 124
12 14 46
14 14 40
4 4 18
15 10 48
11 13 54
6 6 23
13 11 41
54 54 218
16 16 47
10 7 40
7 6 32
28 55 93
8 8 37
7 5 25
9 6 33
4 4 18
4 4 18
4 4 18
6 5 28
4 4 28
7 6 25
5 4 22
2 2 10
8 11 26
7 4 19
15 7 35
19 14 14
5 5 7
7 7 9
10 10 12
12 15 16
10 10 12
18 26 15
131 134 91
5 5 7
13 10 13
6 6 8
3 3 6
43 25 30
38 38 25
9 9 11
55 63 33
4 4 6
18 16 30
17 13 13
6 6 8
9 14 10
31 47 23
20 24 39
9 13 10
13 19 14
55 72 29
15 31 22
46 55 31
10 19 10
13 27 18
47 66 38
36 71 21
24 41 19
27 40 20
32 42 33
43 51 34
9 17 12
9 9 11
5 7 52
3 3 18
48 33 136
13 16 13
9 9 17
10 10 8
22 24 30
31 31 18
35 32 21
80 105 61
34 24 22
17 17 12
14 14 11
18 20 12
31 28 16
46 36 41
96 45 38
41 30 21
16 16 12
40 36 20
43 58 55
46 34 24
27 27 18
64 46 43
159 232 106
47 69 39
59 38 42
53 31 26
52 34 42
44 34 40
91 48 56
50 27 66
22 14 24
28 21 33
50 33 41
248 165 248
33 22 35
74 54 105
23 15 23
54 35 47
43 36 44
51 27 51
67 39 56
20 13 22
78 54 74
28 19 30
73 43 60
19 13 21
49 36 59
28 22 36
18 12 20
16 24 24
19 30 28
46 44 40
36 60 46
63 97 51
14 22 24
43 75 56
36 44 44
13 19 21
14 21 23
28 40 48
12 19 21
28 34 42
159 165 165
46 69 51
16 24 25
32 38 38
45 67 52
68 109 74
13 20 22
19 28 25
28 57 40
12 18 20
12 18 21
11 17 19
51 56 47
47 46 62
23 30 28
39 76 48
18 28 23
134 130 130
32 24 29
47 31 38
22 15 16
70 51 32
56 43 55
16 11 12
55 31 30
50 32 43
48 32 23
65 30 39
17 11 13
244 163 163
200 133 133
16 11 12
41 27 22
175 176 98
17 11 13
16 10 12
26 20 20
39 19 22
101 87 62
28 15 19
23 15 13
15 10 11
14 9 11
59 35 28
79 36 30
33 26 18
23 15 13
23 15 18
28 19 16
12 8 9
44 20 27
48 33 23
31 24 24
30 20 18
12 8 10
12 8 10
69 53 27
15 10 11
38 30 20
14 9 10
27 19 16
27 21 16
13 9 10
36 31 25
13 9 10
40 33 19
68 60 30
20 13 26
27 19 26
54 47 39
21 14 15
52 29 32
57 35 29
14 9 10
14 9 11
52 21 20
14 9 11
41 19 22
16 10 11
21 14 15
25 18 16
15 10 11
15 10 11
22 18 16
42 40 23
71 29 36
38 25 20
15 10 11
23 22 18
39 18 20
15 10 11
30 28 21
24 21 21
21 15 16
80 29 25
64 34 40
19 14 13
23 15 16
42 20 20
15 10 11
77 46 46
79 53 39
23 18 20
18 12 12
65 25 27
16 10 12
47 29 23
60 33 42
52 29 30
13 9 12
36 30 32
38 19 21
64 38 25
24 16 17
24 18 18
54 36 28
49 41 35
64 42 32
40 32 28
99 75 35
60 68 44
35 41 23
244 244 162
17 17 13
36 26 17
70 46 26
30 30 21
92 62 50
38 31 55
58 75 40
23 24 26
36 69 39
63 63 33
33 27 18
99 62 41
33 25 18
26 26 19
33 43 30
47 67 33
56 60 44
67 74 38
18 19 18
243 243 162
54 75 48
41 35 23
25 25 18
28 23 18
93 42 42
15 15 12
16 16 12
26 26 19
35 60 30
78 74 37
15 15 11
40 47 30
211 147 95
21 21 15
73 87 34
75 68 44
26 21 15
24 30 17
36 47 25
14 14 10
28 33 18
200 200 133
25 25 18
22 22 16
52 39 29
14 14 11
40 32 19
55 55 29
49 62 26
32 51 23
20 20 15
14 14 10
13 13 10
52 78 29
45 48 42
39 34 22
49 68 38
47 46 19
22 18 13
29 32 21
67 57 28
14 14 10
25 20 13
20 20 14
10 10 8
11 11 9
49 33 30
81 67 29
16 16 11
15 15 10
11 11 9
16 16 12
48 41 25
9 9 14
21 28 15
9 9 7
29 40 20
24 29 21
20 27 14
21 28 15
50 38 26
41 51 27
9 9 7
15 15 11
9 9 7
12 12 28
39 39 31
32 24 54
212 212 212
10 10 12
23 18 19
45 41 29
22 18 22
41 41 31
11 11 13
15 15 17
30 39 40
124 76 44
37 37 28
5 5 7
27 27 19
105 67 88
13 13 15
10 10 12
126 74 74
166 242 176
42 32 25
11 11 13
23 23 21
50 44 28
4 4 6
46 34 30
17 23 25
5 5 7
26 26 25
44 35 25
39 24 32
10 8 19
7 7 10
7 7 29
5 5 7
54 35 32
11 7 12
2 2 4
9 9 6
1 1 3
0 0 0
0 0 0
30 31 19
43 31 17
2 2 4
50 51 31
0 0 5
4 3 12
5 3 21
4 4 18
3 3 17
12 9 43
7 6 28
9 10 34
13 10 55
7 6 27
8 10 41
4 4 18
8 10 34
7 7 23
14 19 45
15 19 49
8 10 33
17 12 54
10 9 67
9 10 42
46 46 187
5 5 25
6 8 32
12 11 47
7 11 47
4 4 18
13 11 32
8 6 31
6 5 22
6 5 26
12 8 41
16 12 42
3 3 17
4 4 18
9 12 36
4 4 18
11 13 51
2 2 11
2 2 10
8 6 25
14 12 36
9 7 43
2 2 12
3 4 14
4 4 7
4 4 6
28 20 30
128 193 128
27 25 27
5 5 7
16 24 16
7 7 9
8 8 10
5 5 7
16 19 14
114 73 86
42 29 25
10 13 10
60 60 43
41 60 30
9 12 10
9 12 9
8 8 10
10 18 10
8 12 13
32 65 35
53 56 33
10 15 11
43 52 31
6 10 8
15 30 18
37 31 23
19 29 17
7 11 9
11 20 12
11 14 12
27 40 25
15 27 14
30 59 27
14 28 18
4 5 19
15 12 58
4 4 19
3 3 16
45 38 28
13 13 10
28 39 22
55 68 38
39 29 20
44 62 25
39 42 35
62 43 30
37 28 19
29 29 16
48 64 41
57 43 35
35 48 32
34 44 19
40 51 43
25 28 17
29 29 16
32 41 29
225 161 120
14 14 11
15 15 12
17 17 13
34 25 20
18 15 10
20 13 22
25 17 27
30 20 27
34 19 29
27 21 27
54 31 37
27 18 29
58 36 51
53 29 43
58 31 58
61 50 51
75 109 105
39 33 61
27 18 29
28 22 33
26 17 28
208 139 208
50 23 34
102 70 61
32 28 42
26 21 33
26 17 28
45 30 54
57 33 50
38 58 46
14 21 24
29 54 46
13 19 22
14 22 24
30 37 37
35 78 57
53 95 59
27 50 44
29 59 59
33 39 33
20 27 33
20 26 34
49 82 57
38 59 63
23 41 39
24 33 33
46 74 55
26 51 51
31 33 41
49 73 55
31 48 45
21 32 28
63 89 63
54 102 45
46 51 62
58 99 62
10 15 18
10 15 17
17 21 22
27 33 40
68 52 33
35 17 20
31 20 19
204 136 136
21 14 15
16 10 12
32 17 23
24 20 21
133 128 128
53 28 28
44 20 25
42 23 20
74 30 30
25 14 18
63 27 31
34 29 31
37 19 22
45 29 35
16 11 12
52 66 39
28 20 20
39 23 26
15 10 12
15 10 11
14 9 11
14 9 10
42 25 20
19 16 17
35 29 20
10 6 8
41 33 17
114 53 58
14 9 10
41 22 36
49 26 25
15 10 11
50 28 37
25 15 13
37 19 22
16 11 12
116 86 59
25 16 13
50 24 34
24 13 14
13 8 10
56 42 30
11 7 7
56 20 24
13 8 10
32 24 19
16 10 12
50 31 31
102 46 30
76 39 33
14 9 11
42 22 19
52 31 35
50 28 38
60 35 25
29 23 23
39 32 24
14 9 15
15 11 16
15 10 11
55 40 33
14 9 11
53 26 49
17 11 12
15 10 11
49 32 27
15 10 11
34 19 19
53 35 27
51 26 26
46 28 33
24 16 17
38 21 20
38 39 29
45 40 36
133 128 88
119 47 37
42 32 25
28 20 28
15 10 12
15 10 12
108 63 46
51 28 25
56 23 37
21 14 15
30 18 19
51 39 48
20 13 14
16 10 12
16 10 12
26 21 18
16 10 12
16 11 12
51 23 30
25 18 26
53 27 37
208 208 139
29 24 17
39 33 27
17 17 13
54 64 38
41 32 22
26 26 18
117 74 74
21 21 15
89 65 45
31 29 19
49 39 33
45 38 41
62 82 28
54 45 31
60 53 35
69 64 35
36 27 19
56 38 24
28 22 14
70 65 33
243 243 162
20 20 14
26 29 19
26 26 19
26 27 73
16 16 12
89 63 41
32 27 28
25 21 15
64 49 28
24 30 16
15 15 11
44 54 30
48 31 21
14 14 11
33 24 16
17 19 16
204 204 136
28 36 25
14 14 11
14 14 11
20 24 14
22 27 19
15 15 14
35 33 19
46 30 25
30 32 17
53 53 29
45 53 50
26 26 18
13 13 10
20 25 13
48 52 27
20 20 15
50 59 28
13 13 10
36 30 17
15 15 11
81 218 72
21 17 11
26 22 15
54 60 27
44 51 18
71 56 39
24 32 23
47 50 24
97 131 45
12 12 9
11 11 9
46 80 42
129 162 77
10 10 8
45 72 27
11 11 7
8 9 11
10 10 8
38 44 36
25 25 14
28 33 19
10 10 8
23 23 14
28 35 19
51 53 21
19 25 16
17 22 12
24 18 11
10 10 8
42 33 22
18 24 17
61 76 41
10 10 12
39 47 32
215 215 215
39 25 29
25 31 36
26 42 42
33 45 47
16 16 12
5 5 7
6 6 8
46 36 41
17 17 15
7 7 9
11 11 13
7 7 9
30 22 24
3 3 5
42 56 55
26 22 17
7 7 9
11 11 9
72 129 73
59 48 41
40 40 139
50 36 29
15 14 22
18 25 21
41 30 41
55 66 54
22 22 18
13 11 19
5 5 9
11 11 13
7 7 9
17 17 13
42 35 25
7 7 9
7 7 18
63 82 69
6 6 18
51 37 32
2 2 4
14 17 20
9 9 25
10 7 16
0 0 8
2 2 4
23 23 25
2 2 4
3 3 17
18 18 55
16 11 47
7 7 24
6 5 27
30 16 58
9 15 51
5 5 24
3 3 17
12 19 64
6 7 33
20 21 58
15 16 49
3 3 18
4 4 18
7 8 35
5 5 22
4 4 18
5 5 21
4 4 18
5 5 23
23 12 84
7 6 30
8 6 27
21 13 73
4 4 18
11 8 47
62 23 131
4 4 18
3 3 17
3 3 17
8 7 57
8 10 35
14 14 47
3 4 14
11 11 29
34 49 141
5 6 22
1 1 9
16 15 40
6 4 15
38 35 24
14 18 16
6 7 10
11 15 18
31 39 27
5 5 7
22 16 16
20 28 22
207 207 207
24 24 16
13 21 13
10 10 12
11 15 11
5 5 7
15 15 12
9 7 16
6 6 8
20 28 20
43 35 29
41 24 30
104 156 104
10 14 10
25 35 20
12 18 12
9 9 11
24 24 18
158 237 158
14 14 13
8 12 9
7 11 8
10 16 11
6 9 8
12 22 12
83 183 83
5 7 5
58 109 34
16 23 16
14 44 99
12 12 44
6 6 26
18 18 16
7 7 10
15 15 11
71 35 29
10 10 8
25 32 23
34 46 24
29 29 17
86 141 46
240 240 160
13 13 10
60 63 49
36 41 22
36 30 24
19 19 14
42 32 22
77 65 36
79 67 38
30 40 28
31 31 16
68 95 56
44 30 22
26 21 19
110 48 38
71 54 45
59 36 46
15 10 18
59 47 59
128 50 58
18 12 20
59 53 48
56 32 39
19 13 22
35 29 36
63 35 45
168 162 168
20 13 22
36 28 43
38 33 51
244 163 244
63 44 72
52 27 40
44 22 35
19 12 21
16 11 19
42 23 31
49 25 39
36 28 43
18 31 31
17 24 26
31 47 37
27 41 42
54 83 51
20 26 29
136 204 142
31 71 71
20 31 54
104 110 74
21 32 33
63 74 106
38 62 44
12 18 21
181 202 140
24 46 46
21 28 28
38 52 43
28 31 29
41 67 56
49 49 59
38 52 65
28 45 37
12 18 20
25 37 30
10 15 18
21 31 25
55 41 43
47 51 55
10 15 17
57 58 44
78 38 29
13 9 10
49 33 25
26 22 23
36 28 24
34 31 22
20 15 15
26 21 21
38 30 30
66 58 45
27 15 20
20 13 14
34 20 20
15 10 12
59 53 53
41 30 34
147 187 68
102 52 32
34 18 22
27 28 24
25 16 17
35 18 17
15 10 11
14 9 11
31 27 38
51 47 28
17 11 12
127 122 84
52 34 26
42 28 21
40 26 21
138 133 133
18 12 13
56 34 41
24 18 15
31 32 25
24 22 16
12 8 9
19 13 14
34 34 25
22 13 13
17 14 27
40 44 29
19 13 14
37 29 24
241 160 160
38 25 21
14 9 10
53 40 42
62 41 31
14 9 11
22 16 24
22 13 13
48 24 33
32 30 27
19 11 22
14 9 11
26 15 14
20 16 14
15 10 11
242 161 161
52 27 35
25 14 14
31 24 19
14 9 11
42 30 24
32 28 29
14 9 11
27 15 15
242 161 161
62 26 36
14 9 11
69 50 139
15 10 11
15 10 11
32 31 21
40 41 31
242 161 161
20 12 12
47 23 19
15 10 12
42 48 31
16 10 12
88 43 51
50 43 26
22 15 20
45 36 28
24 14 14
23 14 35
18 12 13
102 31 44
43 22 19
36 17 19
29 19 15
31 16 16
165 160 160
57 51 31
53 24 30
126 69 56
41 26 33
66 32 32
62 74 33
43 41 24
24 24 17
51 47 30
32 40 25
16 16 12
32 32 19
38 30 21
76 46 54
63 71 30
91 86 47
56 42 29
19 18 19
60 47 38
16 16 12
16 16 12
20 20 26
50 40 34
35 42 26
48 43 23
50 50 20
26 28 31
15 15 12
15 15 12
15 15 12
64 137 43
35 43 21
61 106 57
39 39 22
21 21 15
36 28 25
67 43 34
43 33 23
16 16 19
32 32 21
71 55 45
14 14 11
56 83 36
14 14 11
19 19 14
23 19 16
24 25 25
154 154 71
30 33 19
14 14 14
13 13 10
65 84 28
31 25 17
13 13 10
17 17 13
41 34 27
35 35 20
13 13 10
47 40 22
31 41 24
23 23 13
19 19 14
14 14 15
21 27 19
11 11 10
239 239 159
43 51 34
25 20 14
29 36 20
23 25 24
42 24 19
11 11 8
27 35 19
46 44 37
33 48 19
29 39 20
21 21 15
28 38 19
36 27 18
57 74 44
25 33 17
51 36 33
10 10 8
42 38 28
11 12 11
195 195 130
45 33 31
29 35 19
10 10 8
10 10 8
7 7 8
9 9 11
15 20 14
31 46 25
20 20 13
9 9 11
28 28 21
26 21 15
60 42 60
11 11 13
56 59 50
205 205 205
9 9 11
9 9 11
8 8 10
18 18 14
11 11 13
52 38 52
5 5 7
8 8 10
12 12 14
7 7 17
21 20 53
8 8 12
27 20 29
26 34 34
63 49 38
43 72 49
11 11 13
18 18 15
10 10 10
63 69 45
12 12 14
17 24 26
18 14 39
25 27 59
19 15 32
10 9 14
211 211 211
12 12 14
23 23 16
9 8 21
76 68 40
29 29 22
55 55 38
0 0 4
9 9 36
11 8 13
11 17 13
1 1 5
0 0 2
2 2 4
22 29 15
6 7 31
6 7 29
21 16 72
3 3 17
7 7 38
54 54 217
8 7 28
5 6 26
3 3 17
13 16 40
12 8 29
11 11 37
6 6 29
20 19 56
6 5 27
9 9 31
14 18 57
8 8 27
4 4 16
54 54 218
33 16 59
5 5 23
10 9 37
6 5 26
15 13 59
4 4 18
7 9 31
6 5 26
20 18 58
4 4 18
11 11 45
9 12 43
9 7 41
11 11 37
11 10 36
5 7 32
5 7 24
3 3 13
10 7 30
13 18 42
38 27 106
4 6 19
19 22 16
5 5 7
6 6 8
7 7 9
12 15 12
44 29 29
37 53 47
44 59 26
5 5 7
65 49 41
6 6 8
20 16 13
4 4 6
22 27 16
9 9 9
34 30 34
8 8 11
10 13 12
7 7 9
37 27 27
9 12 10
15 24 15
6 6 8
8 12 9
10 13 11
27 37 20
39 58 29
6 6 8
41 33 27
21 29 31
29 44 22
31 36 23
20 33 20
23 35 17
20 30 35
13 26 13
5 5 7
7 9 34
13 12 37
9 9 30
18 19 54
14 14 14
83 67 35
10 10 8
25 34 24
213 147 142
17 15 27
78 99 38
58 53 23
25 45 25
22 28 18
19 19 14
57 46 27
42 38 20
50 55 29
29 38 20
56 61 42
15 18 10
35 47 31
40 35 29
240 240 160
45 39 35
11 11 9
11 11 9
14 9 17
55 41 74
16 10 18
51 37 38
23 15 25
17 11 19
54 38 42
17 11 19
68 27 43
56 33 38
69 47 79
30 20 26
167 107 161
35 19 30
19 13 21
34 18 28
16 11 19
48 22 37
148 77 59
39 34 67
68 33 43
71 70 56
50 36 44
15 10 17
25 14 21
17 24 22
42 76 45
53 80 60
48 51 55
50 97 82
135 203 203
12 18 20
12 19 21
22 41 41
47 80 59
12 18 20
12 18 20
33 36 46
113 165 92
20 27 30
11 17 19
24 43 39
23 29 30
63 87 63
162 167 121
29 51 49
15 23 23
41 50 39
15 27 24
72 80 66
28 30 43
25 29 39
37 88 48
17 26 26
38 36 40
140 54 39
20 13 15
66 37 25
23 17 17
15 10 11
46 20 23
37 29 29
47 24 33
43 31 33
160 104 104
23 14 15
21 14 15
23 18 18
20 15 13
15 10 11
17 11 11
50 29 37
71 36 41
65 27 36
18 12 13
84 73 42
15 10 11
59 62 37
30 23 20
41 22 27
19 16 14
64 54 32
11 7 9
49 28 52
11 7 8
50 47 27
14 9 9
13 9 10
29 25 19
18 12 13
20 13 14
56 32 27
29 19 16
24 14 15
85 71 77
15 10 11
65 38 31
52 55 37
34 27 20
45 25 31
63 39 37
20 16 14
20 17 14
22 14 15
13 9 10
13 9 10
35 25 17
18 12 13
34 30 19
13 9 10
30 17 18
30 17 17
241 161 161
27 16 14
39 19 22
64 54 48
25 20 20
41 27 21
19 15 17
14 9 11
34 30 31
47 39 32
43 22 23
15 10 11
63 36 33
22 12 16
14 9 11
15 10 11
61 41 31
122 31 35
15 10 11
32 21 18
15 10 11
137 133 91
107 36 57
35 20 20
45 26 23
59 31 25
32 27 22
32 17 22
30 22 22
25 20 17
35 27 23
35 17 23
65 37 32
76 52 35
40 30 23
34 22 19
22 19 14
15 10 12
28 26 26
18 11 20
29 25 19
97 53 40
17 11 12
151 153 146
20 21 27
17 17 12
17 17 12
46 50 37
61 37 31
41 32 21
183 175 112
16 16 12
27 32 21
65 54 42
185 128 123
21 21 15
51 77 30
16 16 12
59 47 37
36 50 28
55 64 32
36 40 23
58 70 37
24 24 17
16 16 12
38 51 26
30 30 16
16 16 12
23 20 14
202 202 134
24 27 19
20 20 14
34 33 22
44 52 37
22 19 14
60 84 48
14 14 10
40 23 16
19 19 14
14 14 11
45 45 25
16 16 12
58 53 25
39 34 24
22 22 16
59 73 37
13 13 14
14 14 11
16 15 21
18 18 20
38 42 22
47 62 58
14 14 10
13 13 10
13 13 10
32 29 20
15 15 28
20 17 21
14 14 9
42 58 26
21 22 18
36 36 19
122 78 37
28 35 23
28 37 25
12 12 10
32 32 33
18 18 13
46 66 38
12 12 9
47 56 38
54 60 37
34 24 16
18 18 13
42 52 28
23 27 14
43 40 17
13 12 14
27 27 15
19 17 11
10 10 8
32 35 21
47 36 21
16 17 18
15 15 11
68 92 47
19 19 11
11 12 12
16 16 12
85 65 32
19 15 24
21 28 15
16 16 9
13 13 10
8 8 10
17 17 37
40 46 53
9 9 11
51 36 28
90 119 52
7 7 11
15 15 13
10 10 12
9 9 11
5 5 7
24 28 18
207 207 141
20 28 21
12 12 14
6 6 8
47 74 37
87 78 59
12 12 16
17 17 14
11 11 15
19 21 42
209 209 209
7 7 10
29 25 25
7 7 9
39 30 28
41 54 29
7 7 9
211 211 211
26 49 35
9 9 13
79 102 41
209 209 209
7 7 9
8 8 10
55 75 35
6 6 8
8 8 10
12 15 13
207 139 139
9 9 12
6 6 8
118 91 55
11 9 35
2 2 4
2 2 4
7 7 28
17 17 42
11 11 37
7 6 24
5 5 22
11 9 35
12 11 55
6 5 29
5 4 24
13 15 40
5 6 27
5 5 23
13 20 55
10 7 37
9 8 46
4 4 18
11 9 30
5 5 25
10 9 41
12 7 42
11 12 34
15 25 46
10 12 65
27 40 119
41 41 115
4 4 20
5 5 21
11 10 32
19 14 66
9 7 39
6 6 28
14 9 53
15 8 46
7 8 37
5 5 21
6 6 26
2 2 10
7 11 29
18 12 38
4 5 17
2 2 11
1 1 9
16 8 45
6 6 13
9 9 20
7 7 9
5 5 7
73 130 49
58 63 35
25 15 21
10 10 13
44 41 27
14 17 12
38 48 26
34 24 25
28 37 26
3 3 5
14 21 22
5 5 7
10 16 10
27 17 17
29 22 31
3 3 6
23 28 21
22 17 24
5 5 8
42 26 26
14 17 19
56 53 46
16 19 13
8 8 10
7 7 9
9 12 9
9 8 26
21 18 16
7 7 10
105 110 74
19 22 16
43 75 28
84 53 42
4 4 6
7 5 29
10 14 52
25 25 19
15 15 12
10 9 24
25 33 35
13 13 8
51 59 19
18 18 13
11 11 8
35 26 18
193 193 89
22 22 13
55 51 33
20 20 14
38 33 25
54 80 39
35 26 18
63 30 23
18 22 14
27 32 24
83 51 38
18 15 13
46 28 30
11 11 9
55 43 37
35 25 37
53 52 47
22 15 20
38 22 30
63 32 35
31 22 29
15 10 18
19 12 21
32 21 28
27 18 22
49 32 40
47 24 32
17 11 19
192 89 134
52 28 69
34 25 38
52 34 35
27 20 31
16 10 18
45 35 36
245 112 168
19 15 23
31 16 25
59 51 70
25 15 25
30 37 43
25 45 38
35 47 46
29 36 41
29 51 51
27 46 46
11 16 19
11 17 19
34 41 41
78 106 66
22 26 62
41 49 48
12 18 20
49 64 55
17 25 23
47 43 52
40 61 45
22 30 35
29 43 35
31 51 37
167 182 173
23 38 44
10 16 18
35 52 41
16 27 22
24 30 27
38 32 38
26 25 27
20 27 27
14 19 19
30 17 17
37 22 20
188 83 88
14 9 11
81 35 48
48 29 35
15 10 11
242 161 161
15 10 11
18 13 13
45 23 31
167 163 115
18 14 14
35 20 25
30 26 27
23 13 13
41 29 24
46 24 21
15 10 12
44 23 40
27 20 18
53 48 29
26 22 22
22 14 16
35 17 17
26 16 14
28 24 17
11 7 9
40 22 21
81 42 65
55 26 38
13 8 16
25 20 24
49 27 18
12 8 9
75 41 35
24 16 13
47 36 26
36 43 35
26 27 37
42 31 23
19 16 13
67 25 21
44 27 26
68 47 30
40 18 25
52 30 27
53 48 29
18 14 13
13 9 10
22 18 14
30 29 32
30 20 16
13 9 10
241 160 160
133 53 61
20 16 17
26 14 19
34 30 30
73 28 36
202 135 92
40 34 30
14 9 11
51 41 32
31 30 17
14 9 11
47 26 20
18 12 13
23 19 20
137 95 61
14 9 11
14 9 11
44 32 27
45 22 30
36 20 24
44 23 31
49 27 41
17 11 12
49 26 26
15 10 11
24 15 15
25 17 15
64 30 39
33 19 19
28 23 23
55 31 37
28 18 23
21 14 15
66 41 38
15 10 12
15 10 11
160 75 155
75 59 34
15 10 15
22 16 15
15 10 11
31 25 25
28 17 17
15 10 11
67 36 53
34 46 27
16 16 12
67 105 35
54 41 28
16 16 12
52 46 26
16 16 12
243 243 162
31 31 18
21 21 15
54 69 45
48 51 28
79 83 47
30 34 25
19 19 14
34 44 30
16 16 12
46 52 37
35 28 19
34 30 20
29 33 22
34 27 24
27 29 16
29 33 16
51 45 24
22 22 16
15 15 11
96 100 46
108 79 37
31 24 20
26 26 18
16 16 18
15 15 11
54 34 26
42 27 21
55 55 27
38 37 30
14 14 11
22 20 13
40 55 23
55 49 45
14 14 10
14 14 11
33 33 20
37 43 28
31 39 18
118 243 56
25 31 16
17 20 12
36 27 19
56 36 28
20 20 14
15 15 12
13 13 10
18 18 13
240 240 160
35 68 31
12 12 10
18 21 14
12 12 10
10 10 9
27 39 21
66 51 29
27 33 17
24 26 13
38 29 23
15 15 14
74 66 35
12 13 11
53 56 22
31 42 29
11 11 9
11 11 8
55 63 44
28 31 47
13 13 18
32 32 17
15 15 11
10 10 8
9 9 9
40 28 24
10 10 8
40 28 18
43 33 22
49 76 24
25 22 14
9 9 7
9 9 8
19 25 18
43 52 21
8 8 7
21 21 18
8 8 7
11 11 13
48 42 24
7 7 9
10 10 12
26 19 29
21 24 17
21 23 16
32 40 24
10 10 12
7 7 9
10 10 12
50 49 50
12 12 17
69 101 46
73 95 44
5 5 7
13 13 25
8 8 7
77 51 44
8 8 10
5 5 7
9 12 10
35 48 47
12 12 12
210 210 210
18 16 32
70 76 87
66 74 90
211 211 211
24 21 21
48 48 33
41 29 41
14 18 14
10 9 18
60 36 57
75 48 37
9 9 11
7 7 9
20 23 17
4 4 4
9 9 11
50 43 27
36 64 39
59 67 41
43 31 43
18 14 56
15 13 68
14 23 70
10 10 50
54 54 217
6 6 24
4 4 19
6 6 22
3 3 17
12 8 44
20 13 45
7 6 31
12 11 29
5 5 22
15 13 64
6 5 26
3 3 17
10 7 36
3 3 17
7 10 43
12 8 57
17 14 44
12 13 36
7 9 41
6 8 37
11 8 37
7 9 30
14 10 63
7 7 24
3 3 17
3 3 17
6 7 31
3 3 17
22 13 70
10 9 32
54 54 217
7 10 90
3 3 14
2 2 9
6 7 22
6 4 16
5 4 17
4 3 14
8 8 10
22 17 17
37 48 55
9 12 10
10 9 23
15 20 16
6 6 8
7 7 9
4 4 6
75 55 46
9 9 11
28 31 22
27 42 42
3 3 6
5 5 7
11 13 14
6 6 8
36 36 27
6 6 8
6 6 8
22 36 21
7 7 9
31 34 22
7 7 9
22 40 21
7 7 9
73 39 47
5 5 7
207 207 207
15 21 15
29 42 24
6 6 8
64 68 40
255 107 115
7 7 10
5 5 7
7 7 9
22 31 31
54 54 150
83 53 27
23 27 18
10 10 12
4 4 6
21 21 17
4 4 6
12 12 9
23 34 19
14 14 11
10 10 8
21 24 16
31 43 18
11 11 9
37 40 44
45 39 34
24 17 11
34 24 23
43 50 26
16 16 12
22 17 13
37 26 22
33 35 19
21 17 15
78 152 81
35 42 32
28 21 32
26 24 37
17 11 17
21 17 21
36 19 36
21 14 40
67 26 49
14 9 17
75 49 63
30 25 30
39 26 58
16 10 18
68 45 51
86 41 51
35 22 33
36 17 25
68 64 56
21 17 27
63 26 46
35 26 31
75 56 91
25 21 34
119 91 93
14 9 16
17 31 31
16 24 21
37 39 39
10 15 17
22 33 28
15 24 22
27 32 32
11 16 19
20 30 26
11 17 19
34 77 77
194 199 210
136 204 204
11 17 19
156 255 161
11 16 19
56 99 83
35 46 35
42 37 48
18 27 24
42 77 58
27 34 34
16 26 24
16 20 21
27 31 31
25 65 45
78 80 46
15 23 25
9 13 16
9 13 15
23 53 53
12 8 10
54 29 30
32 26 26
240 160 109
32 16 22
65 34 26
14 9 11
156 132 132
100 54 65
41 34 35
22 12 12
42 32 23
31 18 18
47 41 55
15 10 11
28 15 20
37 22 27
26 14 14
26 20 20
15 10 11
26 14 17
15 10 11
48 25 32
39 22 22
11 7 7
15 10 11
11 7 9
200 133 133
17 11 12
84 39 36
13 9 10
72 88 47
12 8 9
57 39 29
12 8 9
105 147 100
24 18 16
14 8 15
38 35 31
38 27 21
12 8 9
46 19 21
16 10 12
12 8 10
25 19 16
13 8 10
76 42 35
39 33 39
21 11 14
31 23 18
13 8 10
32 31 23
33 28 22
84 31 25
56 37 25
16 10 32
16 10 11
203 135 135
79 45 36
20 13 14
48 34 24
49 32 25
28 17 22
62 24 34
72 27 39
20 13 15
54 42 59
19 17 28
15 10 11
33 17 19
31 27 21
74 49 36
26 23 17
15 10 14
14 9 11
15 10 11
29 16 16
15 10 11
70 34 27
54 35 39
66 30 34
24 14 15
15 10 11
59 29 24
15 10 11
66 41 42
20 15 13
15 10 12
49 33 25
72 38 29
23 15 16
52 48 30
32 15 32
16 10 12
70 22 34
30 20 18
18 12 13
15 10 12
69 49 31
66 50 35
16 16 12
16 16 12
16 16 12
57 41 36
65 54 37
25 25 14
34 34 20
16 16 12
57 51 32
41 52 33
27 27 19
37 42 21
25 25 31
16 16 12
39 52 22
42 35 18
24 24 17
80 65 66
78 50 38
19 19 14
23 23 24
68 55 46
68 52 26
27 28 34
242 242 161
37 36 22
56 39 29
26 34 18
38 48 33
12 12 8
27 28 38
14 14 11
15 15 11
38 32 22
35 48 25
19 19 14
45 43 32
14 14 10
25 32 22
41 63 37
22 22 16
20 17 12
25 29 17
36 33 22
24 31 17
22 22 16
47 65 25
12 12 11
27 36 19
40 34 22
20 15 22
22 22 13
20 20 14
21 17 11
39 29 17
12 12 9
12 12 10
43 57 25
12 12 9
37 45 30
22 18 12
12 12 9
26 31 16
26 24 32
11 11 9
33 40 26
11 11 9
17 21 11
48 44 38
11 11 9
29 48 17
9 9 9
10 10 8
11 12 11
32 33 19
14 13 15
17 15 25
28 44 21
13 11 18
75 96 81
63 55 30
9 9 8
62 55 31
15 15 11
27 53 25
237 237 158
13 13 10
42 53 25
8 8 7
14 14 10
12 12 9
103 216 69
9 9 17
7 7 9
7 7 9
28 33 19
41 53 49
48 31 20
17 17 13
49 54 35
27 23 20
189 189 92
12 12 14
9 9 11
14 10 10
34 24 26
8 8 10
210 210 210
10 10 12
8 8 10
7 7 9
6 6 8
145 214 153
6 6 8
40 34 29
12 12 14
9 9 11
9 9 12
27 31 19
45 33 39
19 19 17
5 5 7
37 37 25
48 31 21
5 5 14
210 210 210
53 29 42
39 52 24
20 29 21
7 7 7
66 89 60
11 11 9
19 19 15
17 13 14
54 52 36
45 28 40
10 10 12
5 5 7
6 6 26
6 5 28
9 13 51
3 3 19
7 6 31
3 3 16
3 3 17
6 8 35
10 8 45
7 6 32
20 15 57
3 3 16
10 10 44
3 3 17
22 15 38
13 10 56
18 18 45
6 6 23
9 7 30
6 5 27
4 4 19
8 8 51
17 24 53
6 5 20
7 9 39
7 6 29
10 13 42
6 6 23
5 5 24
3 3 17
10 6 34
16 17 37
3 3 17
3 3 16
3 3 17
54 54 217
3 3 17
5 5 20
5 7 22
3 4 15
12 12 45
3 3 14
3 3 17
5 5 8
9 9 11
11 11 13
9 9 39
4 4 7
9 9 11
21 30 32
49 50 30
8 8 10
8 8 10
6 6 8
207 207 207
49 48 35
8 8 10
21 15 16
44 75 32
7 7 35
5 5 8
5 5 10
6 6 8
5 5 7
10 10 12
29 21 23
68 90 56
47 39 30
34 32 25
12 15 13
8 8 10
41 48 38
75 87 49
4 4 6
9 9 11
34 58 44
7 7 9
7 7 10
14 22 14
16 25 21
1 1 3
32 21 18
1 1 10
70 56 36
8 8 11
28 28 19
73 56 35
6 6 8
15 15 13
15 15 13
23 28 18
19 19 14
15 15 11
10 10 8
23 20 13
41 69 32
48 54 32
50 39 33
35 27 19
70 43 33
24 21 16
54 54 23
204 138 136
31 39 37
30 34 23
49 38 23
29 22 19
232 105 158
38 32 35
17 11 19
39 23 39
55 42 43
240 160 240
47 27 34
52 48 51
57 38 45
66 44 49
31 16 26
29 27 36
31 20 49
28 16 28
14 9 16
30 18 30
14 9 16
19 15 23
86 34 71
51 46 55
14 9 16
13 9 16
37 22 33
137 130 195
26 14 28
21 33 38
28 38 45
18 27 25
24 31 31
10 15 17
20 25 33
61 56 78
24 46 37
20 30 24
10 15 18
10 16 18
20 38 38
20 38 31
23 34 29
12 19 21
39 51 51
18 23 24
23 32 30
10 15 18
10 16 18
22 44 34
16 20 20
27 31 61
36 37 32
25 38 50
32 42 67
24 28 37
22 29 34
15 23 20
21 34 23
36 23 24
25 14 14
78 52 35
77 58 36
42 55 46
88 45 29
50 31 36
13 9 10
88 60 47
59 27 31
50 24 33
15 10 11
50 26 33
14 9 11
14 9 11
18 11 11
41 28 25
20 11 11
56 20 20
20 12 12
17 11 11
25 19 16
241 161 161
14 9 10
13 9 10
11 8 14
44 22 19
39 19 27
34 17 24
61 26 36
27 15 15
55 33 26
73 42 27
31 22 16
29 29 21
55 34 25
14 8 15
10 6 6
12 8 9
22 12 13
41 32 23
51 34 25
18 12 13
20 16 13
12 8 10
17 11 12
48 32 35
20 16 14
13 8 10
64 36 26
150 132 94
12 8 10
22 12 16
14 9 10
32 21 17
19 13 14
24 16 14
58 31 36
19 12 14
31 20 17
14 9 11
14 9 11
45 26 33
183 84 60
21 14 15
199 133 133
15 10 11
59 44 47
40 22 24
14 9 11
34 18 18
14 9 11
17 10 15
33 27 27
31 26 21
14 9 11
74 47 29
57 30 41
44 36 36
85 61 44
14 9 14
16 11 20
15 10 12
15 10 11
41 38 25
45 33 30
35 34 22
41 33 24
15 10 11
15 10 11
59 32 26
21 14 15
80 42 42
15 10 11
15 10 10
20 15 15
15 10 11
63 33 29
29 22 18
64 28 35
60 51 32
32 39 21
49 43 24
16 16 12
130 127 123
23 23 16
14 14 13
16 16 12
16 16 12
47 57 26
15 15 12
30 38 19
15 15 12
59 40 42
56 77 32
34 34 33
66 66 30
22 22 16
45 51 25
46 32 21
15 15 12
71 55 28
39 32 22
55 76 29
27 34 24
242 242 161
130 64 55
255 142 99
26 29 18
67 54 48
14 14 11
26 33 23
30 49 21
25 24 33
45 36 22
34 38 20
27 27 19
49 81 46
21 25 14
18 18 13
33 40 26
28 37 19
13 13 10
198 198 132
45 35 23
48 37 37
13 13 10
16 16 11
21 21 15
29 29 17
51 33 24
51 40 34
22 22 13
36 43 29
13 13 10
68 52 52
25 32 17
37 34 23
52 46 20
44 37 30
70 63 30
32 32 16
11 11 9
26 32 17
11 11 9
11 11 9
11 11 9
48 57 32
35 52 27
15 15 11
19 24 13
59 75 27
10 10 8
155 162 108
33 40 17
71 36 27
46 54 29
83 79 52
26 24 20
9 9 7
38 63 31
12 12 13
153 153 70
13 13 10
25 25 14
21 28 15
23 23 12
18 24 12
32 44 39
25 30 16
37 52 32
5 5 7
8 8 10
8 8 10
25 21 15
16 16 13
8 8 10
27 41 23
43 66 36
24 21 28
244 119 110
9 9 11
5 5 9
40 31 36
10 10 9
30 40 31
9 9 11
4 4 5
48 45 44
14 13 14
208 208 208
24 29 19
10 10 16
58 54 33
11 11 13
8 8 10
9 9 11
9 9 11
31 38 22
16 21 22
26 32 22
52 29 25
9 9 11
16 16 13
7 7 7
11 11 13
18 25 20
13 13 22
6 6 8
8 8 10
7 7 9
7 7 9
21 27 23
2 2 4
219 148 219
9 9 11
29 52 48
14 11 46
3 3 16
17 19 55
5 5 24
3 3 16
5 5 20
8 8 33
14 11 28
26 16 69
11 9 56
4 4 20
5 5 21
3 3 17
8 10 36
8 8 28
9 9 51
3 3 16
4 4 17
5 5 22
10 6 35
3 3 16
6 6 21
9 13 37
5 6 26
7 11 37
11 6 37
3 3 17
7 6 33
9 7 41
8 7 34
11 10 35
43 21 86
3 3 17
12 12 36
14 21 49
23 17 53
3 3 16
13 12 64
2 2 10
3 4 14
5 6 24
3 3 13
7 5 24
28 28 22
7 7 9
7 7 9
7 7 9
14 21 14
50 45 42
25 18 20
27 55 30
37 44 29
22 27 19
9 12 9
48 69 53
59 84 45
32 20 19
6 6 8
5 5 7
9 9 11
130 193 130
92 59 47
5 5 7
210 210 210
36 52 29
8 8 12
34 49 26
28 28 20
7 7 9
71 106 36
10 10 12
11 11 13
7 7 9
14 18 15
207 207 207
9 12 9
9 10 22
10 10 12
47 60 41
9 9 11
14 18 14
209 209 209
1 1 5
13 15 8
27 31 21
2 1 7
9 9 11
9 9 11
7 7 9
57 60 33
47 38 31
69 69 48
19 19 14
43 34 22
10 10 8
11 11 7
7 7 7
19 20 30
40 29 20
132 105 44
38 49 44
20 16 11
36 28 18
32 38 19
33 30 19
15 12 9
19 19 14
25 17 14
15 10 17
9 6 11
18 12 18
49 43 57
13 9 15
58 29 42
31 28 51
105 56 60
28 21 32
13 9 15
29 19 23
34 21 34
45 23 43
25 18 31
49 31 68
31 24 36
86 34 76
34 19 32
33 16 29
19 13 21
18 14 21
30 29 37
13 8 15
19 12 20
35 67 67
51 68 59
20 26 30
41 47 64
161 242 242
51 129 65
25 35 33
14 21 38
10 16 18
135 203 203
34 60 60
21 42 41
54 66 71
77 64 56
46 72 50
20 31 26
9 13 13
10 15 17
20 40 31
23 31 31
11 17 18
24 29 37
13 18 18
25 33 33
36 63 43
21 27 27
9 14 16
33 37 31
73 58 53
9 13 15
34 35 42
18 31 24
17 13 15
37 17 22
26 15 20
22 21 18
35 23 19
13 8 10
13 8 10
34 32 31
35 26 26
22 16 16
211 142 71
21 14 13
40 40 40
19 14 16
48 32 24
15 10 11
15 10 11
18 12 13
20 13 12
27 21 20
74 32 44
32 21 16
29 14 18
13 9 10
31 28 22
42 21 35
16 11 12
11 7 9
73 43 37
111 43 35
77 54 36
36 29 21
24 24 19
16 11 12
45 24 26
14 9 11
15 10 11
239 159 159
40 18 23
15 10 11
33 26 19
12 8 10
20 15 13
12 8 10
12 8 10
32 31 23
34 21 16
22 19 16
21 14 15
22 15 24
77 62 33
23 19 16
105 76 53
158 72 72
34 31 27
30 17 15
42 21 28
19 13 14
28 15 40
25 22 17
22 12 12
54 31 38
14 9 11
38 21 21
49 27 23
28 23 22
29 16 17
39 20 26
14 9 11
14 9 11
17 11 12
37 38 38
50 28 22
48 56 37
15 10 11
14 9 11
23 19 16
24 16 17
59 29 21
14 9 11
84 56 41
39 20 26
14 9 11
36 25 26
25 20 17
27 14 14
24 20 21
81 43 54
23 18 18
21 16 17
29 24 26
48 35 32
15 10 11
45 37 35
43 30 36
32 17 16
229 79 74
76 36 49
50 33 30
72 98 53
32 42 22
24 26 18
31 25 22
41 61 29
16 16 12
81 89 45
41 35 31
16 16 12
46 35 23
43 51 35
50 43 43
15 15 12
17 17 17
35 46 32
69 104 50
95 114 73
70 58 52
16 16 12
242 242 161
15 15 11
15 15 11
14 14 11
203 203 135
24 22 19
83 54 43
136 198 90
65 65 52
42 60 31
161 165 110
24 24 13
65 58 29
25 21 18
35 46 28
52 58 43
14 14 11
44 47 23
18 18 23
57 45 39
57 50 22
38 25 16
43 40 24
60 82 45
64 48 26
35 41 21
200 200 92
18 18 26
47 37 34
18 21 12
13 13 12
26 37 20
12 12 10
12 12 10
13 13 10
21 21 15
31 27 16
11 11 10
36 49 22
20 20 12
17 17 12
11 11 9
11 11 9
34 30 25
15 15 11
11 11 8
147 144 98
16 16 12
46 36 29
59 71 28
11 11 9
17 17 12
27 36 19
17 17 12
15 15 11
12 12 8
15 15 11
8 8 8
9 9 8
21 28 15
16 16 12
53 48 25
32 51 20
33 27 20
18 27 12
19 25 13
11 11 13
49 59 34
48 56 27
8 8 6
40 59 29
11 11 8
6 6 8
64 64 37
11 11 9
10 10 12
6 6 8
6 6 8
7 7 9
46 46 29
32 25 23
17 17 15
61 51 36
12 16 12
71 44 54
11 11 13
29 35 26
52 70 32
16 21 19
64 79 66
32 24 24
10 10 12
15 18 26
5 5 7
25 27 43
31 20 20
9 9 11
67 85 61
29 41 25
16 16 14
7 7 9
8 8 10
12 16 16
9 9 11
7 7 10
14 14 19
48 42 25
6 6 8
24 16 16
15 15 13
16 21 16
23 32 32
6 6 8
4 4 6
6 6 8
7 7 9
5 5 7
11 11 13
8 7 29
9 12 46
3 3 16
9 10 45
8 8 29
19 24 70
27 14 90
13 10 52
6 6 21
11 8 49
13 9 47
9 12 51
11 6 35
6 7 26
11 9 30
10 15 61
11 8 33
9 8 42
10 11 32
17 16 35
5 5 23
9 7 41
9 10 49
4 4 21
6 7 30
26 11 67
11 16 44
3 3 16
3 3 17
18 14 40
11 11 35
12 11 35
16 17 80
8 8 27
10 8 45
3 3 16
54 54 217
9 7 34
3 3 16
4 4 18
3 4 14
19 7 33
4 9 31
39 62 33
27 26 19
23 26 23
33 38 27
32 47 33
212 212 212
8 8 10
28 16 18
62 38 33
4 4 6
6 6 8
6 6 8
24 24 19
71 64 49
5 5 7
23 17 18
4 4 6
6 6 8
9 9 11
214 214 214
7 7 9
15 18 23
6 6 8
34 55 23
7 7 9
9 12 11
26 30 25
8 8 10
15 15 16
5 5 7
39 39 26
7 7 9
5 5 7
6 6 8
6 9 8
5 5 7
8 8 10
58 35 41
33 36 32
17 21 14
22 28 17
2 1 6
2 3 9
9 9 11
10 10 12
13 13 13
31 42 25
23 23 19
34 29 26
23 23 18
23 25 32
12 12 8
22 22 14
61 49 32
23 17 16
44 32 27
236 236 157
26 19 17
20 16 11
20 30 18
22 17 14
25 48 28
56 124 29
8 8 7
9 9 7
81 31 54
11 7 13
56 26 39
29 19 24
11 7 14
53 35 40
41 18 31
13 8 15
13 8 15
54 33 47
28 15 26
42 20 38
31 22 28
50 46 57
17 11 19
25 21 29
13 8 15
59 52 50
233 106 159
12 8 15
38 21 28
239 159 239
33 30 37
75 44 56
35 40 42
23 35 29
69 66 76
14 24 29
9 14 16
14 23 31
9 14 16
50 66 48
9 14 17
21 27 27
43 53 38
10 15 17
9 14 16
29 35 43
41 40 33
10 15 17
39 83 57
9 14 17
57 48 62
30 36 36
25 56 38
104 229 156
15 26 26
31 51 35
12 18 20
34 37 37
56 46 69
23 32 32
10 16 17
17 21 21
38 33 33
88 88 75
18 13 13
21 18 18
18 12 11
12 8 10
48 25 32
47 37 22
45 36 32
17 11 12
18 15 15
26 15 15
18 12 13
30 26 21
42 33 41
23 17 17
29 19 16
35 19 23
65 53 55
63 34 34
14 9 11
28 17 17
24 20 16
39 23 23
241 110 160
28 24 24
12 8 9
32 17 17
11 7 9
94 69 49
10 7 8
69 41 29
19 13 11
56 36 26
47 33 39
16 9 9
35 20 18
24 23 20
45 41 23
12 8 9
16 11 12
239 159 159
27 18 16
14 9 31
39 31 24
44 28 23
19 15 13
12 8 10
36 30 30
202 135 135
67 73 63
76 78 59
12 8 10
32 26 19
13 8 10
54 34 24
51 27 21
40 20 24
198 132 132
13 9 10
29 14 17
42 28 21
19 13 14
41 30 27
52 28 34
14 9 11
238 108 108
14 9 10
14 9 11
30 24 20
38 25 20
19 15 13
16 11 12
38 34 24
105 36 55
18 13 28
22 19 19
14 9 10
32 32 23
59 32 45
22 18 15
72 57 35
15 10 11
37 18 20
15 10 11
17 11 13
15 10 11
242 161 161
15 10 11
61 42 41
16 11 12
24 19 19
37 35 27
64 24 33
33 17 17
58 32 45
72 35 40
45 23 31
15 10 11
88 24 38
30 28 24
37 49 26
16 16 12
28 27 32
50 53 23
34 27 19
39 25 15
44 29 22
23 23 17
43 50 26
31 35 26
21 21 16
32 37 22
37 45 25
62 43 36
25 20 13
23 20 14
114 230 76
32 29 30
47 36 30
15 15 11
66 60 27
15 15 11
165 241 160
70 76 34
65 118 41
20 23 15
51 32 25
69 69 36
55 41 38
37 44 29
22 22 16
102 79 35
28 37 20
53 66 33
24 24 15
241 241 161
16 16 22
27 24 16
35 47 20
29 44 23
20 23 33
30 38 19
13 13 10
21 21 15
30 55 21
58 82 45
46 74 36
38 70 28
27 21 39
26 24 32
12 12 9
18 18 22
46 46 29
42 79 34
16 16 12
197 197 92
102 69 41
11 11 9
42 29 19
33 34 27
32 51 28
46 38 21
38 44 29
37 25 18
11 11 9
115 55 36
238 238 158
18 14 60
20 20 14
11 11 9
10 10 11
30 41 28
15 15 11
22 22 16
10 10 8
13 16 12
10 10 8
81 61 26
25 29 17
23 27 15
37 61 28
48 68 28
62 55 26
8 8 9
21 24 11
8 8 7
10 10 8
36 54 24
172 120 79
15 15 11
8 8 10
47 52 26
10 10 12
9 9 11
135 192 129
36 43 36
6 6 8
8 8 10
6 6 10
9 9 11
12 12 9
9 9 11
80 61 28
7 7 9
7 7 9
33 45 26
6 6 10
39 33 47
3 3 5
54 42 32
38 44 24
82 89 79
82 49 62
29 35 22
16 16 13
33 31 20
6 6 8
16 19 28
42 51 34
82 94 36
8 8 10
10 10 12
42 32 27
52 48 27
44 50 44
7 7 9
47 67 43
19 14 14
26 19 26
4 4 7
38 27 36
24 26 17
19 19 16
53 92 63
79 49 69
26 36 23
5 5 22
8 6 35
10 12 49
9 10 33
6 7 32
6 7 27
5 5 24
9 9 39
3 3 17
9 15 53
13 15 37
8 8 28
8 8 26
46 46 186
18 13 45
3 3 16
3 3 17
9 15 42
26 18 60
18 19 54
5 5 22
3 3 16
12 11 41
6 6 39
9 6 31
12 13 35
4 4 17
3 3 17
14 17 44
9 11 35
5 5 22
15 12 43
3 3 17
7 9 31
11 8 35
3 3 16
5 4 41
3 3 16
9 7 31
10 10 31
35 52 142
18 17 34
14 18 39
15 14 34
5 5 7
5 5 7
25 35 22
11 11 13
23 28 26
8 8 10
7 7 10
8 8 10
23 21 16
28 33 21
90 44 78
16 22 17
11 11 13
4 4 4
9 9 11
31 22 23
4 4 6
17 22 17
27 22 22
10 10 12
15 15 23
41 41 30
9 9 11
13 20 13
30 32 25
33 35 46
10 13 11
9 9 11
32 34 27
10 10 12
34 38 23
116 104 77
34 47 37
23 28 25
9 13 11
14 10 16
8 8 10
8 8 10
39 65 32
3 3 5
1 0 17
242 161 110
14 14 10
58 51 50
8 8 10
212 212 212
53 53 38
34 59 40
11 11 14
24 18 24
28 28 27
12 17 12
17 15 15
27 22 29
13 13 10
11 11 10
10 10 12
5 5 7
27 32 20
10 10 12
168 168 115
31 40 26
23 23 16
17 14 12
51 41 26
52 25 35
29 14 29
68 44 49
40 20 35
15 10 17
54 25 45
48 37 41
15 10 17
31 26 39
31 18 33
22 14 24
42 44 72
39 26 29
15 10 17
58 34 39
55 37 41
19 15 22
36 41 47
193 88 193
14 9 16
44 34 51
35 26 44
44 29 43
19 16 24
13 19 17
21 41 46
43 34 57
19 21 27
53 70 74
17 37 28
133 200 200
55 82 60
18 22 27
15 18 20
35 73 45
44 94 55
65 78 59
35 67 43
13 17 17
13 20 37
9 14 16
21 31 25
18 35 35
42 63 47
66 87 74
17 29 37
28 26 31
14 23 25
8 13 15
15 19 20
10 16 18
30 27 34
8 12 15
11 16 18
12 18 20
8 12 14
47 30 24
53 30 32
33 19 19
57 41 32
47 36 28
25 14 14
72 27 23
131 126 126
51 31 28
241 160 160
30 18 20
14 9 11
22 19 19
41 21 22
16 11 12
29 21 21
17 13 13
36 32 20
37 29 24
37 21 26
37 24 20
14 9 10
14 9 9
19 16 13
10 7 8
45 23 20
238 158 158
11 7 8
47 23 33
11 7 9
11 7 9
51 36 23
110 42 34
49 32 43
102 74 52
21 18 15
34 23 19
38 28 19
31 23 21
35 32 31
46 38 23
16 11 19
19 10 11
33 32 25
38 23 18
34 17 24
12 8 9
37 16 17
27 18 16
12 8 10
63 50 30
15 10 11
13 8 10
30 28 25
37 34 32
29 15 14
12 8 8
13 9 10
42 19 21
50 29 37
130 125 125
22 12 13
53 49 31
27 23 24
32 17 17
17 11 13
14 9 10
57 23 30
32 28 18
50 39 25
25 21 17
14 9 11
33 29 23
14 9 11
20 11 11
14 9 11
201 134 134
15 10 10
48 35 25
18 12 13
17 11 12
46 24 21
39 20 27
14 9 11
39 36 41
25 16 33
57 38 29
15 10 11
23 19 19
15 10 11
51 39 26
15 10 11
32 21 18
46 28 34
37 19 20
113 96 61
99 42 50
32 26 20
29 16 18
20 20 15
53 41 22
28 36 20
19 19 18
26 32 22
54 48 29
150 204 94
29 24 17
15 15 11
49 60 30
30 31 35
56 55 29
24 20 14
19 19 14
17 17 21
18 18 13
47 59 35
85 91 39
21 21 15
86 94 56
27 34 19
14 14 11
15 15 15
33 39 21
39 34 18
57 55 38
30 30 18
45 71 39
20 20 14
66 74 40
14 14 10
29 37 20
69 131 34
41 35 20
13 13 10
16 16 12
13 13 10
13 13 10
65 37 21
13 13 10
36 28 22
33 38 20
20 20 15
40 30 24
18 18 13
20 20 14
53 59 28
12 12 9
28 37 22
28 37 19
81 44 25
49 74 35
58 43 26
48 68 38
16 16 10
27 34 24
34 31 18
11 11 9
26 20 14
30 39 29
15 15 11
51 65 39
25 25 16
12 12 9
49 61 25
36 36 21
17 20 19
41 37 20
20 23 14
10 10 8
27 24 36
10 10 8
21 21 15
188 128 125
65 52 34
17 17 12
19 19 14
15 15 13
34 35 26
195 195 130
23 28 18
21 24 12
31 25 21
236 236 157
18 18 11
32 23 16
19 19 14
11 11 8
54 42 28
19 26 14
8 8 7
12 12 10
28 36 22
16 16 12
9 9 11
29 25 23
9 9 11
9 9 11
10 10 19
7 7 9
6 6 8
6 6 8
49 40 57
9 9 11
19 19 19
136 201 136
53 60 27
20 20 16
83 55 47
12 12 9
82 95 43
7 7 9
8 8 10
14 14 10
34 25 34
28 40 24
18 17 32
7 7 9
6 6 8
60 52 91
6 6 8
13 13 30
34 34 24
41 26 30
10 8 29
11 12 19
10 10 12
6 6 8
14 14 12
45 45 34
6 6 8
29 48 34
6 6 8
10 10 12
4 4 6
31 31 23
15 18 41
8 9 39
15 13 40
22 16 62
6 9 32
18 18 56
3 3 15
7 7 25
7 6 28
6 6 23
7 7 25
8 8 25
3 3 16
7 7 24
7 7 25
3 3 15
26 19 91
3 3 16
3 3 16
15 20 42
3 3 16
9 10 67
54 54 216
6 6 52
4 4 19
12 12 49
12 11 36
21 16 43
9 13 45
39 19 112
11 8 47
3 3 16
4 4 18
3 3 16
6 5 26
5 5 24
13 13 42
3 3 16
12 8 40
7 6 25
12 8 50
5 5 20
4 4 16
22 21 57
48 38 26
20 20 17
17 23 19
57 67 45
6 6 8
9 9 11
17 23 19
9 9 11
44 54 27
14 18 15
17 22 18
6 6 8
35 42 42
30 21 19
4 4 6
9 9 11
32 42 33
11 15 11
6 6 8
25 40 24
8 8 10
34 26 18
44 72 33
8 8 10
8 8 10
6 6 8
7 7 10
11 11 13
18 14 15
42 49 30
40 45 28
14 18 16
12 12 14
33 49 22
6 6 8
19 19 16
21 33 21
33 36 45
7 7 10
134 200 134
3 3 26
4 3 15
23 23 18
85 110 72
14 14 16
6 6 8
150 221 150
40 48 35
8 8 10
31 34 23
12 12 14
8 8 10
16 16 18
34 42 50
12 12 12
35 43 30
19 19 15
38 43 28
10 10 12
42 29 42
8 8 10
13 17 13
29 26 24
18 18 13
16 16 14
59 28 45
37 21 26
27 19 24
10 7 12
28 24 28
22 15 19
29 13 20
22 18 22
14 9 14
67 68 47
11 7 14
46 45 48
105 64 76
27 15 22
29 15 23
32 16 25
30 20 23
25 20 30
20 13 17
35 15 25
54 36 192
48 27 41
16 10 18
84 43 46
29 16 19
8 12 14
29 69 38
30 45 32
13 20 18
27 45 48
8 12 15
51 42 51
13 17 18
24 28 39
12 19 16
16 24 50
23 32 29
22 25 35
21 27 30
113 250 250
23 28 43
13 22 22
18 22 28
16 21 21
32 37 52
9 13 15
22 26 27
15 19 20
16 22 25
20 24 26
34 30 37
13 22 22
34 35 38
17 28 28
8 12 14
16 13 14
62 38 29
11 7 7
20 13 13
44 34 34
13 8 10
93 95 51
12 8 9
117 59 71
28 24 20
18 14 16
78 22 21
13 9 10
13 9 10
13 9 10
30 25 20
25 19 19
195 89 89
24 13 17
77 73 57
76 54 40
13 8 10
44 18 20
36 25 17
13 8 10
35 23 18
238 158 158
40 21 15
72 62 30
28 20 15
15 10 11
32 16 17
25 13 18
9 6 6
30 31 24
26 17 14
17 11 13
12 8 9
28 25 19
24 17 16
12 8 9
37 18 18
41 19 29
16 10 12
211 140 96
12 8 13
15 10 11
28 14 14
40 29 20
28 24 35
28 23 17
14 9 27
240 160 160
174 56 79
20 11 14
41 35 33
57 41 32
27 14 19
53 49 40
50 24 34
78 41 30
111 106 74
46 42 40
20 13 14
33 19 25
46 39 27
13 9 10
14 9 11
28 15 20
49 24 21
146 93 49
59 41 49
39 33 23
13 9 10
17 13 19
22 14 13
27 14 14
63 22 26
27 18 15
19 13 14
14 9 11
37 23 22
22 18 19
67 35 33
14 9 11
14 9 11
38 49 43
24 17 32
34 18 21
15 10 11
35 28 19
15 10 11
35 18 24
15 10 11
30 16 22
15 10 11
37 17 19
24 16 17
22 16 14
15 10 11
57 75 32
37 25 19
28 37 18
32 38 20
55 43 37
59 35 30
41 54 21
67 56 34
21 22 18
31 28 18
33 26 23
86 62 31
23 23 17
33 26 18
38 27 24
29 26 17
14 14 13
15 15 11
26 33 23
16 16 10
29 37 20
14 14 11
105 143 65
21 18 13
22 22 15
14 14 11
33 42 22
26 30 17
55 44 29
156 228 152
32 27 21
71 50 41
18 16 10
14 14 10
241 241 160
18 16 27
27 22 15
13 13 10
26 28 37
55 87 47
90 61 32
20 25 18
19 16 30
24 24 17
20 20 14
64 46 25
239 239 159
35 72 39
15 14 14
30 34 16
12 12 9
61 49 25
40 30 21
12 12 9
21 21 15
12 12 9
12 12 13
122 104 35
9 9 6
48 49 24
21 21 15
37 41 22
59 40 39
65 71 29
11 11 11
50 55 28
56 40 25
50 30 18
15 15 11
11 11 9
197 197 131
34 25 17
237 237 158
41 29 20
127 73 71
9 9 8
78 48 34
37 37 22
31 27 14
120 64 37
17 17 13
21 28 15
16 19 12
27 33 19
44 50 16
27 27 14
8 8 7
25 34 17
19 15 10
16 14 9
17 17 19
9 9 11
32 25 20
11 11 11
23 28 17
32 39 39
47 39 34
6 6 8
18 34 26
8 8 11
9 9 11
23 30 32
21 29 29
47 69 39
15 15 14
12 12 14
7 7 9
8 8 11
36 28 20
32 26 23
12 12 14
33 24 33
178 171 178
10 10 12
17 17 13
4 4 6
12 12 9
9 9 11
9 9 11
31 31 20
10 10 12
7 7 9
24 29 19
23 23 26
8 8 9
8 8 10
12 12 10
16 21 18
8 8 10
14 16 29
3 4 8
212 212 212
37 43 26
37 26 29
10 10 12
5 5 18
23 17 82
8 12 45
15 10 53
7 8 35
5 4 24
3 3 16
6 6 44
3 3 15
8 7 40
6 5 27
8 8 26
15 18 42
3 3 16
3 3 15
5 4 28
3 3 16
7 7 26
7 6 22
9 13 70
9 9 31
29 39 83
8 9 37
3 3 16
54 54 216
18 11 39
6 5 21
5 5 24
4 4 21
3 3 16
20 13 59
3 3 16
34 12 55
11 14 74
7 9 38
3 3 17
10 9 49
15 10 58
5 6 27
5 5 23
3 3 16
10 13 49
3 3 14
4 5 18
10 10 12
3 3 7
3 3 5
58 61 51
14 11 11
9 9 11
13 9 11
7 7 9
21 30 22
16 21 18
4 4 6
6 6 10
9 9 15
25 34 36
10 10 12
7 7 9
60 69 42
28 31 24
20 35 25
7 7 11
31 34 21
29 20 21
5 5 7
73 50 184
17 14 15
11 11 13
33 39 25
45 26 32
20 44 20
46 51 35
5 5 7
5 5 7
24 19 20
21 26 18
109 112 109
7 7 9
7 7 9
7 7 9
8 8 10
76 68 64
40 35 29
8 8 10
14 14 10
7 7 10
7 8 12
26 34 27
19 19 15
8 8 10
42 36 23
30 30 24
12 12 14
15 14 28
21 15 17
33 23 31
19 27 27
24 33 25
31 34 24
8 8 10
12 12 14
136 201 201
18 23 19
46 51 34
13 13 15
15 13 10
80 51 54
6 6 8
47 63 52
25 19 20
11 11 13
7 7 9
64 39 44
33 22 27
9 9 11
58 56 62
60 46 74
10 7 12
15 10 15
53 28 49
35 28 31
11 7 13
10 6 10
20 11 16
197 131 197
14 9 16
19 16 25
37 32 49
13 9 15
19 17 25
24 20 30
27 33 37
44 21 32
8 12 14
7 11 13
134 201 201
18 32 23
18 25 23
73 82 50
14 21 23
28 85 85
15 27 21
26 49 69
23 41 45
8 13 15
18 32 26
72 63 53
28 57 37
27 50 37
52 72 52
17 28 31
12 19 20
8 13 15
36 39 34
20 25 30
22 30 30
9 14 15
48 39 41
8 12 14
7 11 11
10 13 24
24 37 29
7 11 13
66 81 65
24 20 20
69 31 50
94 38 48
106 49 65
25 21 29
11 7 9
44 40 33
44 20 26
39 26 20
151 97 56
16 10 10
22 18 20
55 43 43
36 18 25
50 28 24
22 13 13
23 14 18
51 46 24
75 39 46
30 18 18
61 35 29
33 22 17
18 10 10
42 20 17
33 16 14
36 24 18
23 19 14
104 117 69
11 7 8
73 39 29
78 33 21
11 7 9
34 31 21
136 36 56
78 55 39
35 17 19
11 7 9
38 20 20
65 27 31
12 8 9
66 50 58
87 42 48
73 57 36
74 70 33
19 15 13
15 10 11
64 26 37
12 8 9
12 8 9
71 47 34
64 26 31
20 13 14
13 8 10
55 46 29
21 11 11
13 8 10
13 9 10
27 15 14
25 17 39
58 25 33
27 21 21
42 28 22
15 10 11
22 18 16
14 9 10
13 9 10
13 9 10
54 29 36
19 15 13
18 10 10
29 17 17
220 54 106
29 20 25
69 28 37
53 26 36
55 45 26
15 10 11
62 32 38
59 57 46
14 9 11
21 14 23
14 9 11
25 16 23
56 19 23
37 28 28
14 9 14
20 13 14
30 26 18
59 29 25
30 30 23
15 10 11
25 20 17
30 16 17
28 15 16
15 10 11
15 10 11
15 10 11
45 36 28
38 21 26
45 61 25
236 162 157
64 50 32
17 17 13
58 99 29
42 57 27
15 15 11
54 44 30
15 15 12
69 63 33
19 19 13
15 15 11
25 25 18
15 15 11
29 33 25
55 41 23
21 19 29
31 25 19
52 60 32
40 32 28
20 24 27
27 34 24
241 241 161
28 57 33
14 14 11
61 55 26
55 41 28
14 14 11
45 34 23
49 49 22
22 26 35
43 41 24
148 212 104
37 46 32
54 83 45
15 15 19
25 25 15
132 190 88
95 103 60
14 14 11
73 130 40
19 19 16
16 16 16
36 44 38
32 43 25
12 12 10
57 67 41
37 32 21
23 23 16
23 29 16
95 67 35
32 43 22
53 49 26
19 19 13
25 25 15
41 41 22
12 12 9
11 11 9
19 23 13
32 32 33
11 11 9
27 35 18
200 200 133
42 85 40
51 44 23
156 231 154
14 16 20
238 238 158
10 10 8
16 16 12
10 10 8
37 53 25
19 27 18
30 22 15
10 10 8
47 66 25
34 25 18
47 61 29
36 45 22
33 40 32
14 14 10
27 29 15
26 19 18
27 33 17
37 45 24
45 61 25
55 89 29
13 16 19
29 36 17
34 47 56
10 10 8
21 19 13
52 45 50
39 29 27
7 7 9
12 12 12
27 20 29
26 35 26
11 11 9
4 4 8
41 36 22
26 36 26
14 14 11
18 18 15
19 14 39
4 4 6
7 7 9
17 23 23
8 8 10
11 11 13
11 13 26
18 25 18
11 11 23
41 28 43
4 4 6
8 7 14
43 30 22
19 27 29
17 25 17
52 45 43
32 39 27
5 5 7
6 6 12
21 21 16
12 12 14
44 55 33
6 6 8
4 4 6
40 39 31
121 209 103
7 7 10
7 7 9
10 10 12
7 7 9
4 4 6
3 3 15
15 20 50
9 11 52
7 5 26
16 13 33
6 6 24
3 3 15
3 3 15
14 22 77
11 15 53
18 12 51
9 9 38
5 4 24
15 14 42
7 5 50
8 8 26
10 9 33
6 5 28
34 35 137
4 4 19
32 46 130
10 7 38
6 6 22
5 5 21
9 10 42
53 53 215
11 12 38
7 5 24
6 6 40
12 13 38
5 5 22
7 8 36
9 10 39
17 12 57
9 6 34
5 4 19
9 7 39
3 3 16
11 15 50
7 8 30
5 5 20
9 9 31
12 19 61
7 5 23
27 32 27
84 51 67
95 86 60
16 18 14
8 8 10
18 18 15
21 30 22
14 20 15
19 30 19
11 11 13
5 5 7
43 65 30
27 19 21
9 9 11
33 21 25
21 14 14
9 9 11
9 9 11
5 5 7
26 22 19
27 22 17
20 23 17
7 7 9
17 24 18
9 9 11
9 9 11
29 31 30
8 8 10
37 40 25
48 47 44
33 60 35
14 18 15
18 14 12
78 38 62
3 3 5
67 98 78
17 25 17
48 26 24
21 24 18
8 8 11
38 39 29
29 29 21
9 9 11
58 59 42
14 14 19
58 41 32
15 15 32
30 37 22
25 36 24
26 19 20
42 34 26
25 32 32
27 22 27
31 22 33
12 12 14
68 79 35
27 37 39
242 242 164
78 51 29
56 88 68
34 28 23
21 21 17
33 28 24
9 9 11
35 32 35
46 46 35
10 10 12
12 12 10
53 44 37
27 27 19
37 58 30
20 16 22
44 28 38
61 37 48
15 12 15
75 44 50
44 23 44
60 24 41
10 6 12
25 19 37
19 11 19
10 7 12
32 17 29
86 50 46
13 9 15
41 21 58
26 14 24
25 19 33
39 19 42
49 33 41
6 10 12
7 10 12
7 11 13
43 41 54
20 23 24
18 34 24
23 45 45
8 12 14
24 31 28
25 32 32
86 187 187
24 22 86
42 97 58
32 56 53
7 11 13
23 30 30
8 13 14
13 17 19
59 137 102
13 22 22
8 12 14
79 90 69
19 31 31
8 12 14
7 11 14
8 12 14
48 49 57
59 67 77
23 23 23
9 13 15
12 17 17
14 17 23
27 23 20
52 52 32
15 12 14
35 23 19
20 11 11
40 17 17
50 28 34
23 12 15
42 25 33
23 19 16
44 25 35
19 15 15
38 40 33
58 28 40
15 10 11
41 28 33
35 26 21
17 11 11
23 17 15
21 14 14
27 21 18
75 41 42
33 18 18
22 16 12
50 32 34
186 85 85
11 7 8
39 17 15
10 7 8
36 32 21
16 11 12
23 14 14
42 20 29
16 9 9
55 38 22
24 18 14
11 7 9
14 9 10
50 47 118
42 22 20
77 25 31
239 159 159
34 23 16
11 7 9
12 8 15
64 33 25
32 15 15
60 24 22
12 8 9
60 44 30
12 8 9
25 18 19
14 9 11
194 88 129
43 38 33
31 16 20
19 11 11
38 23 17
33 26 20
57 28 39
32 27 19
13 9 10
13 9 10
13 9 10
60 30 43
23 19 16
13 9 10
13 9 10
13 9 10
20 16 17
81 59 68
13 9 10
17 11 33
33 17 21
40 34 27
53 26 36
54 42 48
14 9 11
14 9 11
17 11 12
14 9 11
84 57 54
26 20 22
25 17 27
37 22 28
27 23 19
200 93 133
17 11 12
30 20 18
15 10 11
15 10 11
79 57 43
51 39 31
57 28 32
59 61 31
18 14 13
36 36 33
35 16 16
48 32 25
21 21 17
42 32 22
27 27 19
20 20 15
15 15 11
121 80 41
201 201 134
37 33 25
91 69 56
93 88 49
66 61 29
30 27 20
34 63 28
15 15 11
33 44 22
52 50 24
42 56 35
62 79 29
17 17 12
28 39 26
48 75 37
53 60 31
66 94 54
20 24 17
14 14 11
57 65 45
21 21 15
41 56 35
21 21 15
39 35 44
45 48 30
13 13 10
62 41 23
13 13 10
26 34 18
15 15 11
179 136 86
41 54 27
33 25 18
28 28 17
30 35 23
22 22 18
13 13 10
12 12 10
12 12 10
40 30 19
41 66 32
24 24 14
23 23 14
19 19 14
14 14 20
92 53 41
12 12 9
12 12 9
17 17 13
49 49 23
69 73 43
34 40 18
36 61 21
17 17 12
64 40 52
57 41 23
15 15 13
26 33 22
61 32 27
11 11 9
107 53 48
16 20 11
10 10 7
19 19 14
62 51 38
28 30 15
65 69 21
10 10 8
10 10 8
43 33 23
12 13 15
21 28 12
62 48 51
9 9 7
14 16 17
20 26 13
6 6 4
19 25 12
44 63 24
194 194 129
8 8 6
25 29 15
8 8 7
9 9 12
33 52 21
22 27 18
7 7 9
9 9 11
21 21 18
4 4 6
11 11 13
10 10 12
49 30 34
60 85 40
5 5 7
4 4 6
40 29 42
13 9 17
7 7 9
4 4 6
82 52 63
23 23 18
13 13 11
13 17 14
17 20 13
22 22 16
29 26 19
11 11 17
38 38 28
9 9 11
57 62 35
13 12 22
8 8 10
20 17 16
30 38 46
22 16 17
8 8 11
12 17 14
8 8 10
10 10 12
4 4 6
7 7 8
42 34 26
30 23 32
7 7 9
50 30 35
18 18 12
18 18 12
5 6 29
8 8 26
6 8 27
6 5 25
3 3 16
10 8 43
13 12 40
14 11 50
7 8 30
6 6 27
4 4 18
3 3 14
13 11 40
3 3 15
7 10 31
6 5 29
5 5 22
6 6 22
12 11 35
13 11 36
8 9 36
3 3 15
8 7 23
11 12 75
7 8 47
5 5 20
3 3 16
3 3 16
9 10 28
6 5 22
11 8 36
3 3 16
17 10 49
6 6 21
9 9 33
9 9 62
5 5 25
15 12 39
12 14 30
9 8 26
5 5 22
17 12 61
5 5 24
3 5 16
6 9 30
0 0 0
1 1 8
11 7 13
31 26 26
27 18 19
28 70 35
30 37 28
8 8 10
209 142 142
9 9 11
34 29 39
128 131 65
10 9 15
16 13 24
17 36 19
33 53 38
50 69 31
7 7 9
10 10 12
5 5 7
18 22 19
7 7 9
3 3 6
42 29 36
3 3 5
29 22 23
20 20 32
9 9 11
9 9 11
13 13 12
99 76 54
12 12 14
24 19 21
57 36 32
6 6 8
187 187 126
16 21 17
9 9 11
42 75 29
22 39 29
33 33 25
46 30 43
63 65 58
40 40 29
10 10 12
6 6 8
7 7 17
19 21 92
13 13 15
4 4 6
16 14 32
50 40 28
8 8 10
10 10 12
31 20 22
46 45 34
92 60 74
8 8 10
22 32 30
10 10 12
9 9 11
7 7 9
12 12 14
23 19 31
45 36 33
7 7 9
76 53 62
26 29 20
38 61 42
10 10 12
48 29 36
10 10 12
19 15 44
15 12 17
8 8 10
31 22 31
33 39 23
30 22 22
12 9 12
61 20 48
34 37 25
48 23 37
18 12 19
43 31 26
11 7 13
24 17 19
9 6 11
22 14 19
48 22 45
11 7 13
156 163 111
14 19 21
16 25 19
28 33 33
28 30 31
159 238 238
7 11 14
55 64 50
19 32 24
8 12 14
12 18 20
7 11 18
66 74 69
22 33 27
71 86 60
22 21 21
24 35 31
31 29 39
35 55 34
7 11 14
132 198 198
7 11 14
39 38 51
34 64 41
19 23 23
18 32 24
65 94 52
16 37 31
56 36 38
32 36 42
29 61 64
128 125 125
52 31 36
46 20 25
37 17 22
11 7 8
22 11 16
39 18 26
24 13 13
26 14 14
44 22 40
69 26 40
38 29 29
23 15 13
41 27 34
50 27 20
23 13 15
92 88 40
13 8 10
13 8 10
13 8 10
44 22 31
51 21 20
40 25 24
15 12 10
55 23 31
32 29 18
14 9 10
28 19 15
138 133 68
28 27 31
11 7 9
10 7 8
12 8 9
22 23 21
28 28 22
12 8 9
41 32 21
11 7 9
27 18 15
24 21 22
11 7 9
12 8 9
32 34 18
49 42 33
12 8 9
12 8 9
23 15 20
12 8 9
16 11 12
11 7 9
13 8 10
16 11 12
33 38 20
21 18 14
20 11 11
19 12 14
244 162 110
31 37 22
26 16 14
32 26 28
33 22 18
70 44 40
20 14 13
27 15 15
30 22 21
108 78 31
32 26 26
47 31 26
36 20 20
22 15 16
38 18 43
44 36 38
20 11 12
66 39 28
21 12 12
196 189 65
19 13 14
29 22 22
15 10 11
15 10 11
14 9 11
241 160 160
36 28 24
26 15 16
43 31 30
241 161 161
27 23 19
14 9 11
28 21 18
14 9 11
38 19 27
93 46 46
15 10 11
19 13 14
29 25 20
15 10 11
20 13 14
15 10 11
33 28 16
62 37 51
24 24 17
59 44 41
39 32 27
74 42 34
15 15 11
22 22 16
19 19 22
36 28 20
13 13 11
22 22 15
41 71 23
69 72 40
27 27 19
41 40 22
36 29 24
57 62 30
39 31 29
22 26 17
47 47 25
14 14 11
14 14 11
43 32 20
45 34 19
28 23 16
51 38 23
21 25 18
42 27 24
41 47 22
51 78 43
41 52 31
13 13 10
14 14 11
22 18 13
86 53 31
18 18 13
32 27 52
35 35 21
45 36 32
13 13 10
21 21 18
11 11 10
17 20 15
111 58 52
12 12 10
13 13 10
20 17 12
46 36 19
17 17 12
16 17 18
12 12 9
29 22 19
79 79 40
47 29 26
18 18 13
200 200 133
11 11 9
21 17 12
38 52 22
15 17 10
23 18 13
14 14 10
20 25 18
157 157 72
11 11 9
11 11 9
52 115 26
29 24 14
20 20 14
31 42 21
45 38 37
36 44 24
237 237 158
31 36 18
19 15 11
28 32 16
11 11 14
17 17 12
23 16 10
49 60 32
52 32 30
48 31 18
34 24 17
68 88 36
24 25 12
8 8 7
47 37 31
13 16 9
77 95 44
32 24 22
8 8 6
72 86 37
15 13 48
16 16 12
2 2 17
31 22 33
18 30 31
5 5 7
150 220 73
36 25 46
91 61 35
15 15 11
25 35 26
42 53 28
30 22 19
5 5 7
8 9 15
15 27 23
7 7 10
37 37 26
136 177 182
8 8 10
23 23 18
10 10 12
8 8 10
8 8 10
7 7 9
23 21 16
6 6 8
8 8 10
35 51 28
8 9 18
37 43 28
11 11 13
6 6 9
5 5 8
42 53 28
69 51 65
10 10 12
19 16 28
37 27 38
4 4 6
33 44 31
9 9 9
6 6 23
21 30 21
9 9 11
5 5 20
28 41 120
16 10 46
7 5 30
8 8 32
17 15 43
3 3 16
17 12 62
3 3 5
3 3 15
4 4 16
5 4 20
2 2 4
2 2 4
2 2 4
5 6 26
11 11 36
33 29 15
3 3 15
7 5 28
47 32 129
6 6 27
13 20 15
11 15 49
14 10 36
11 13 52
11 8 29
3 3 15
10 11 35
2 2 4
19 12 47
4 4 18
1 1 17
3 3 15
44 44 178
5 6 26
8 6 27
204 204 204
11 11 48
7 10 8
9 7 54
22 19 24
25 56 37
0 0 0
19 30 17
2 2 4
2 2 4
3 3 5
48 34 26
22 25 18
11 11 13
19 26 40
31 44 27
73 101 42
10 12 21
41 57 43
6 6 8
33 50 46
7 7 9
26 52 34
115 169 82
210 210 210
37 52 38
4 4 6
39 52 31
10 10 12
43 29 31
10 16 11
6 6 8
9 9 11
38 53 30
7 7 9
31 31 22
12 15 16
68 46 30
66 59 42
7 7 9
8 8 10
35 47 30
3 3 5
45 69 59
28 20 28
22 30 40
7 7 9
22 31 24
46 49 38
11 10 20
37 29 41
19 19 19
47 32 28
15 18 15
72 77 56
17 17 15
6 6 8
32 24 32
25 25 22
6 6 6
23 21 45
103 109 61
42 80 47
62 60 68
172 172 118
36 36 36
28 31 19
66 50 62
25 25 19
24 33 35
36 50 33
63 49 68
7 7 9
45 32 47
21 16 21
11 11 13
81 54 47
10 10 12
46 31 37
23 18 23
11 11 13
8 8 10
7 7 10
24 25 31
43 41 31
208 208 208
51 30 39
58 27 30
19 14 19
14 11 16
209 209 209
16 12 18
35 28 30
36 21 36
44 31 48
9 17 17
6 9 12
17 28 34
11 20 20
36 76 41
102 148 219
9 14 16
51 93 42
33 47 37
41 46 62
7 11 13
12 21 21
7 11 14
65 75 55
27 55 48
13 16 20
24 27 29
17 21 21
20 49 37
36 50 37
12 17 17
159 238 238
7 11 13
15 21 21
13 16 17
11 19 19
13 18 18
58 106 52
58 79 73
11 23 23
6 10 12
19 43 31
9 6 8
35 23 21
52 34 25
10 7 8
40 19 29
11 7 9
18 12 13
39 19 22
70 49 35
32 21 15
40 21 28
15 12 17
37 26 26
37 28 18
12 8 9
27 16 16
32 29 22
14 9 11
58 35 38
12 8 10
56 23 50
26 15 15
68 25 32
12 8 9
10 7 8
94 41 51
28 25 24
22 12 12
34 27 22
11 7 8
50 16 34
109 66 51
57 54 36
22 12 12
41 37 91
11 7 9
41 27 21
26 20 14
12 8 9
68 45 33
14 9 11
22 13 13
38 28 19
41 27 20
39 19 27
44 47 28
27 14 14
27 15 16
43 19 26
30 24 22
12 8 9
50 34 27
255 83 85
33 24 26
12 8 10
36 24 18
21 15 14
12 8 10
26 15 15
57 36 33
12 8 9
30 28 22
66 50 29
39 41 26
16 11 12
34 27 31
17 11 12
31 25 25
13 9 10
13 9 10
29 19 17
13 8 10
13 9 10
83 58 36
13 9 10
49 33 32
14 9 11
14 9 11
29 25 17
42 20 25
17 11 13
25 25 18
33 29 23
30 29 29
19 11 12
36 17 19
38 19 27
41 30 22
48 46 47
23 19 16
46 25 29
42 25 28
81 46 46
42 49 41
15 10 11
16 11 12
57 25 27
18 12 13
23 13 16
28 24 20
22 18 12
126 182 60
31 41 22
30 38 20
25 19 41
32 27 18
18 18 13
35 43 24
15 15 11
39 44 27
15 15 11
55 39 28
64 38 22
26 26 18
241 241 161
42 34 18
14 14 11
54 40 37
50 43 33
73 55 31
15 15 11
91 45 35
42 42 25
46 53 26
18 18 13
43 33 22
56 54 33
27 23 15
18 18 13
33 44 23
33 40 27
19 16 10
121 125 58
30 33 22
21 21 15
17 17 12
41 33 28
18 18 13
66 57 29
20 20 14
12 12 10
16 16 12
76 56 48
20 20 14
62 69 67
39 25 21
12 12 12
44 37 20
31 25 17
37 54 34
14 17 9
18 18 13
13 13 9
13 13 10
33 26 23
22 22 16
11 11 9
84 82 50
94 136 91
72 43 35
42 65 32
77 160 50
65 41 35
43 30 29
23 18 16
17 17 12
48 43 25
11 11 8
38 31 19
16 15 26
27 43 27
21 27 17
16 16 12
12 14 8
32 45 18
14 18 13
11 11 11
40 80 30
14 12 8
54 50 23
29 20 13
19 25 18
94 91 41
47 53 20
18 24 12
61 42 22
27 23 14
6 6 5
8 8 7
10 10 7
32 28 14
211 211 211
7 7 17
21 21 18
26 34 19
8 8 10
25 45 45
20 20 15
43 59 33
97 96 62
6 6 8
209 209 209
14 20 22
55 51 31
19 21 27
9 9 11
14 14 12
17 13 13
153 221 76
20 27 20
45 40 32
62 37 24
45 38 32
22 32 23
7 7 9
29 24 26
16 21 18
7 6 19
63 82 54
19 27 19
40 40 30
29 20 29
5 5 7
11 11 13
38 23 38
32 26 19
30 31 20
37 56 52
37 41 32
39 53 38
7 7 9
8 7 24
6 6 8
6 6 8
28 20 20
10 10 12
6 6 8
5 5 7
30 30 25
40 30 31
33 44 34
51 44 27
18 18 14
5 5 7
47 51 31
44 63 33
2 2 22
34 51 39
2 2 4
4 1 41
2 2 4
2 2 4
32 32 131
2 2 4
24 24 16
2 3 9
0 0 0
23 38 15
29 22 34
5 10 15
15 15 11
0 0 2
36 55 30
2 2 4
2 2 4
60 64 29
20 16 44
0 0 0
0 0 4
5 6 14
36 25 66
0 0 2
9 14 13
2 2 4
35 27 21
10 17 10
12 8 42
204 204 204
2 2 4
2 2 4
2 2 12
25 20 31
44 44 103
2 2 4
5 5 7
58 42 50
28 39 29
135 199 135
47 34 48
5 5 8
10 10 12
37 46 37
11 11 13
53 47 37
10 10 12
11 11 13
12 17 19
8 8 8
40 66 54
5 5 7
23 37 28
56 73 44
3 3 5
10 10 20
62 42 56
32 44 25
21 29 22
10 11 23
8 8 10
140 208 140
8 8 10
6 6 8
82 52 40
7 7 9
28 31 29
39 39 30
7 7 9
43 32 33
17 24 17
6 6 8
7 7 9
32 38 25
14 19 14
13 13 15
43 58 28
14 14 16
34 27 34
112 69 56
27 34 34
10 10 12
217 217 217
60 62 52
75 88 49
15 15 17
69 63 51
8 8 10
8 8 10
27 38 33
11 11 13
241 165 78
12 12 14
12 12 14
10 10 12
15 15 17
11 11 13
83 85 64
55 40 32
18 13 18
42 79 54
14 10 10
92 70 53
32 37 29
59 61 71
6 6 8
26 26 35
15 11 16
26 36 20
16 21 19
10 10 12
33 56 44
54 42 35
19 22 48
7 7 9
37 45 62
21 15 21
24 15 20
28 44 36
5 5 7
15 15 13
30 33 69
9 12 12
4 4 6
7 7 9
158 237 237
19 35 48
12 23 23
21 31 20
26 74 60
45 45 48
7 10 13
151 153 153
42 53 53
11 20 20
131 197 197
28 49 49
72 128 82
12 15 17
19 22 24
29 61 35
7 10 13
54 82 59
15 34 34
8 12 14
17 22 20
27 37 37
6 10 12
24 36 27
8 12 14
75 108 97
30 50 36
112 150 106
16 10 11
18 17 15
10 7 8
35 23 23
11 7 8
34 24 24
11 7 9
88 59 42
59 28 41
44 24 22
156 107 74
40 27 25
66 31 38
14 9 10
32 50 27
12 8 9
22 15 31
12 8 9
15 10 10
31 16 14
35 18 18
38 32 38
59 23 24
77 44 32
28 22 18
12 8 9
26 26 16
13 8 10
24 16 13
26 17 21
10 7 8
18 11 11
51 32 32
232 154 105
30 30 18
31 14 18
28 22 17
22 13 12
58 33 33
238 159 159
75 50 32
13 9 10
11 7 9
14 9 10
80 71 38
17 12 17
82 44 30
12 8 9
66 41 31
52 25 45
19 12 14
64 43 32
33 31 21
15 10 10
120 113 107
23 20 16
17 12 16
53 21 32
57 20 27
16 10 11
30 27 21
49 36 21
35 23 21
54 26 33
51 27 37
11 7 7
13 8 10
18 12 13
13 8 9
47 38 39
22 12 13
52 48 28
65 37 49
14 9 10
37 20 18
45 37 37
89 61 54
26 17 19
14 9 11
21 17 17
24 20 19
61 32 38
52 26 36
14 9 11
40 22 22
15 10 11
32 17 17
30 26 21
14 9 11
23 13 17
40 37 29
47 27 52
17 13 11
26 16 23
22 20 20
40 20 27
29 24 25
74 35 28
51 29 36
33 64 30
24 24 17
52 51 35
15 15 11
31 36 27
58 69 31
24 32 16
14 14 11
14 14 11
44 50 38
241 241 161
18 21 31
50 40 34
14 14 11
57 47 34
57 62 33
44 38 21
46 37 26
46 50 22
27 20 13
50 66 25
21 25 18
114 67 39
14 14 10
23 23 16
13 13 10
33 26 22
13 13 10
19 19 14
172 180 93
35 30 17
33 33 21
14 14 10
40 33 27
16 16 11
39 47 28
12 12 10
16 19 11
69 43 33
42 36 23
48 51 38
91 84 40
29 29 17
58 74 37
13 13 13
33 25 18
21 21 15
23 30 21
36 49 22
55 33 30
59 76 32
58 89 32
19 26 13
46 41 31
22 29 13
24 32 22
43 47 38
88 62 34
11 11 9
31 29 24
25 22 14
23 21 14
10 10 11
10 10 8
21 21 15
19 19 14
40 50 22
87 70 35
51 71 30
27 27 19
66 35 31
15 15 11
34 66 24
32 37 28
68 47 26
9 9 9
9 9 7
14 14 11
26 35 25
14 14 10
197 197 131
11 10 15
109 42 42
24 33 13
7 7 7
103 65 56
20 20 10
12 12 9
15 14 12
57 58 34
28 19 12
8 8 13
9 9 15
39 92 37
22 36 22
15 15 13
8 8 10
5 5 7
28 39 30
7 7 9
8 8 14
37 45 45
34 22 32
30 41 31
27 34 20
8 8 10
35 58 31
6 6 8
16 21 17
3 3 5
4 4 6
26 36 28
14 14 15
63 100 64
6 6 8
28 24 19
24 18 16
32 27 20
8 8 10
52 50 32
79 52 40
5 5 7
165 165 112
29 21 19
50 39 35
29 36 26
38 65 41
4 4 6
23 31 23
207 207 142
102 148 148
8 8 13
20 20 18
46 76 26
8 8 10
5 5 7
7 7 9
10 10 12
8 8 10
79 69 38
6 6 8
9 11 25
19 27 20
10 8 7
35 23 25
5 8 23
2 2 4
2 2 4
2 3 10
8 7 25
0 0 4
2 2 4
0 0 6
1 1 12
8 6 33
2 2 4
10 15 10
20 30 21
37 22 18
19 19 17
2 2 4
12 12 8
27 27 24
2 2 4
54 34 26
18 27 19
19 19 11
89 72 35
14 17 11
2 2 4
12 9 42
32 32 32
5 8 8
28 18 20
3 4 19
0 0 1
2 2 4
2 2 4
2 2 4
0 1 3
2 2 4
3 3 6
23 30 23
7 7 12
14 15 27
59 49 34
34 41 27
73 46 76
46 38 40
39 45 41
49 58 36
5 5 7
17 22 18
7 7 9
44 26 24
52 42 43
8 8 10
11 11 16
33 24 31
9 9 11
8 8 10
44 40 29
59 116 37
60 44 36
35 26 36
12 16 13
9 9 11
17 21 18
23 31 33
80 42 39
15 20 16
9 9 11
209 209 209
11 10 27
9 12 9
20 16 15
138 204 138
8 8 10
31 36 23
9 9 11
27 17 30
11 11 13
15 14 24
16 14 48
13 13 15
8 8 10
47 40 35
23 29 25
15 15 17
42 31 33
31 54 42
100 61 73
8 8 10
39 25 29
34 44 37
25 25 21
33 31 25
210 210 210
12 12 14
43 24 33
208 208 208
34 25 31
5 5 8
15 21 21
35 48 66
53 49 39
8 8 10
8 8 10
19 15 17
12 12 14
18 13 19
81 67 54
15 12 17
38 34 44
6 6 8
26 16 22
18 14 18
49 34 31
8 8 10
5 5 7
16 20 20
5 5 7
26 15 24
28 23 30
23 16 23
5 5 7
69 69 48
7 7 9
55 26 41
44 27 30
88 104 65
20 25 30
13 13 10
4 4 6
80 48 44
37 34 39
21 16 17
26 34 28
16 22 23
97 148 148
12 22 20
10 12 15
7 11 13
7 11 23
20 42 30
43 53 75
14 19 19
10 15 17
16 22 25
9 14 15
41 35 43
33 62 42
52 40 31
21 52 37
17 41 25
157 236 160
48 87 55
59 63 57
31 47 33
6 9 11
61 61 38
13 11 12
13 11 11
10 6 8
51 44 25
10 7 8
47 29 29
25 14 14
17 11 12
11 7 9
17 14 14
16 9 9
33 30 31
57 19 30
28 25 25
17 11 13
17 11 12
12 8 9
21 14 15
9 6 6
68 30 42
9 6 6
32 25 26
11 7 8
21 17 15
43 19 24
10 6 8
22 20 21
20 12 12
16 12 10
78 66 40
10 6 8
73 33 38
26 17 14
25 23 16
15 10 11
64 38 31
43 28 22
39 29 19
33 31 19
29 32 23
47 27 20
11 7 8
42 23 23
14 9 11
51 24 20
19 12 13
27 23 18
19 16 12
21 14 15
11 7 9
21 14 15
12 8 9
59 24 22
40 35 32
26 21 15
33 18 17
15 10 11
24 18 14
30 26 27
25 22 18
46 26 23
12 8 10
36 18 19
12 8 13
63 32 27
40 17 17
20 13 12
22 14 15
24 13 20
14 9 10
46 42 35
22 18 20
40 27 22
21 12 12
26 13 13
25 21 22
22 14 15
37 20 21
28 16 16
223 74 103
19 11 11
14 9 10
18 12 13
14 9 11
31 28 22
22 18 20
14 9 11
13 9 10
28 17 19
14 9 11
13 9 10
39 35 44
40 32 22
37 41 27
14 9 11
14 9 11
34 30 31
51 26 35
14 9 11
29 38 23
31 35 18
69 50 29
47 35 24
56 49 26
42 36 31
24 31 17
53 53 29
48 37 22
41 49 33
35 27 19
14 14 11
69 63 48
51 61 30
39 42 23
29 26 16
21 21 15
43 33 22
13 13 11
57 32 20
25 27 18
19 16 28
44 41 25
44 52 26
41 57 34
21 26 19
34 26 18
154 150 102
240 240 160
45 30 22
17 17 12
24 19 33
43 35 26
52 73 29
20 18 38
34 34 21
29 29 19
36 46 31
12 12 9
47 40 27
32 29 20
34 34 21
12 12 9
12 12 9
44 54 27
21 25 13
20 19 22
21 21 15
40 46 37
19 24 18
21 26 19
37 44 21
22 22 16
38 25 19
27 34 19
21 30 14
71 37 33
11 11 8
34 39 20
17 17 12
42 35 19
44 34 28
41 36 31
78 89 29
24 19 17
13 16 19
23 34 15
48 28 23
18 15 10
237 237 158
9 9 7
9 9 7
9 9 8
18 18 13
42 25 21
8 8 7
7 7 6
9 9 7
47 51 31
34 47 19
234 117 41
33 41 20
28 30 24
14 14 9
14 18 9
21 28 27
23 19 17
77 73 34
34 40 22
32 32 34
23 38 19
9 9 11
14 14 16
9 9 11
12 16 12
9 9 12
12 16 12
26 37 22
5 6 34
9 9 11
30 47 20
9 9 11
65 41 59
21 26 15
7 7 9
32 46 23
44 50 30
16 20 16
8 8 10
35 37 23
33 44 30
6 6 10
9 9 12
9 9 11
6 6 6
8 8 10
22 30 23
34 29 26
29 19 21
26 30 19
12 16 13
35 35 37
9 9 11
13 13 11
16 12 31
28 21 30
11 11 13
3 3 5
63 61 43
11 11 13
43 49 39
9 9 11
56 27 31
10 10 12
38 40 39
28 28 22
61 58 44
5 5 7
9 9 11
7 7 9
6 6 8
3 3 5
2 2 5
20 23 13
21 25 17
72 71 46
43 42 17
9 6 7
49 44 29
33 33 132
20 11 12
7 7 28
14 14 9
25 14 22
43 32 21
69 60 60
32 32 130
59 52 36
0 0 2
19 19 10
55 49 29
0 0 0
7 3 15
52 40 30
14 9 10
8 9 9
3 5 15
16 40 63
2 2 4
0 0 0
64 44 59
11 7 13
56 39 20
3 3 13
36 36 21
2 2 4
128 193 88
30 22 30
3 3 12
13 16 11
6 9 10
48 32 26
4 4 6
9 9 10
210 210 210
18 19 19
15 13 25
13 10 23
11 11 13
11 11 13
9 9 11
53 79 45
34 38 24
200 135 135
136 200 95
8 8 10
8 8 17
9 9 11
14 17 15
5 5 7
12 12 14
57 57 42
23 31 24
14 16 12
16 20 18
22 29 28
28 31 23
8 8 10
39 57 31
7 7 9
40 29 42
32 57 40
6 6 8
14 18 15
134 172 88
40 28 28
38 54 26
13 16 14
11 11 24
9 9 11
8 8 10
8 8 10
9 9 12
14 19 16
13 13 27
79 76 54
109 39 39
84 94 95
11 11 13
70 43 45
22 26 17
13 13 15
6 6 8
49 49 36
82 53 59
52 63 79
79 75 52
26 23 23
47 39 35
11 11 11
68 52 61
37 28 39
40 28 30
10 10 12
11 11 22
76 56 61
12 12 14
10 10 12
38 38 38
20 24 28
18 24 24
204 98 204
9 9 11
84 63 49
25 37 39
11 11 13
53 34 46
73 55 56
40 38 40
25 30 30
200 135 135
38 28 30
71 39 47
20 27 27
14 16 18
37 51 41
6 6 8
12 12 14
19 15 21
8 8 10
58 66 55
13 18 18
7 7 9
24 21 21
12 16 18
10 13 15
20 28 21
42 55 38
12 15 17
68 39 57
10 14 16
29 38 38
24 36 28
31 29 27
33 38 32
21 22 22
134 138 138
19 19 19
14 18 21
10 17 17
14 27 27
6 9 12
21 26 29
28 32 58
58 57 44
13 20 49
13 18 18
6 9 12
20 30 30
40 19 28
57 21 25
62 42 33
15 11 11
31 17 13
64 42 61
39 22 22
13 11 11
21 12 12
47 39 45
15 11 11
28 22 25
49 23 29
37 18 23
11 7 8
11 7 9
17 11 10
34 23 15
36 22 30
14 9 9
189 86 86
50 18 22
47 52 23
13 9 17
79 50 37
28 19 14
9 6 7
9 6 8
9 6 7
10 6 8
10 7 8
14 9 11
19 18 12
19 14 12
60 46 40
11 7 14
14 9 11
11 7 9
11 7 8
22 20 14
34 17 18
62 38 27
64 43 35
11 7 9
18 14 12
238 159 159
50 25 20
45 51 31
11 7 9
52 73 55
22 14 12
12 8 9
12 8 9
18 12 13
49 52 31
233 155 106
12 8 9
57 34 32
66 34 31
60 60 30
14 9 9
16 9 19
12 8 9
38 18 18
23 22 15
34 25 22
43 21 30
13 8 10
38 31 32
50 24 43
199 133 133
13 8 10
28 25 18
20 13 14
14 9 11
37 20 26
33 17 15
18 12 13
35 18 25
13 9 10
81 38 32
50 19 25
100 54 52
24 20 16
14 9 11
24 13 17
22 12 13
14 9 10
14 9 10
14 9 11
43 38 44
39 30 26
31 26 24
25 25 19
84 159 43
29 16 16
52 28 43
48 34 44
62 61 45
56 26 22
19 12 13
20 20 14
30 40 28
18 18 13
14 14 11
41 31 22
42 34 24
190 132 126
44 39 22
20 23 17
29 23 16
60 58 30
41 31 21
14 14 10
42 36 23
21 21 15
53 58 26
14 14 11
27 24 26
31 37 21
53 37 34
68 56 28
31 31 17
45 34 23
13 13 10
18 18 13
31 31 19
13 13 10
24 24 17
101 66 34
23 31 15
13 13 10
42 32 28
47 66 27
63 85 35
13 13 12
18 18 13
21 26 15
17 17 12
31 41 28
34 52 26
12 12 9
17 17 13
49 36 20
11 11 9
28 37 19
16 16 22
40 40 27
16 16 12
49 30 26
97 79 65
14 14 10
13 13 10
14 14 10
11 11 10
23 23 14
18 16 26
27 29 14
11 11 9
48 36 40
21 30 14
32 41 21
26 32 21
14 14 11
30 26 14
49 49 25
10 10 8
46 65 25
10 10 8
9 9 7
35 41 23
139 205 93
40 60 32
15 15 11
71 60 35
32 23 16
53 44 25
21 16 12
17 17 12
15 19 11
13 13 10
25 38 19
92 57 41
8 8 7
30 36 25
11 11 8
14 14 10
40 57 22
19 22 14
20 20 15
5 5 7
31 22 26
188 188 125
14 14 11
9 9 11
8 8 10
37 45 27
8 8 10
12 12 21
35 40 26
84 95 52
6 6 8
4 4 6
72 64 42
9 9 11
35 34 35
214 145 145
65 45 36
45 40 45
8 8 10
26 32 23
83 90 59
49 76 41
8 8 10
7 7 9
46 46 36
18 18 14
9 9 11
41 54 38
4 4 6
19 21 66
9 9 12
21 29 22
54 64 55
32 27 25
21 30 18
41 45 34
36 38 21
8 8 10
6 6 8
6 6 8
6 6 8
7 7 9
31 45 45
30 38 38
58 66 38
5 5 7
32 35 33
8 8 14
7 7 9
20 20 15
18 18 13
26 30 27
37 40 24
2 2 4
0 0 0
10 10 8
129 133 133
7 11 16
15 18 10
0 0 0
107 161 75
13 19 15
58 61 55
23 51 35
9 9 7
24 34 20
9 9 27
25 17 18
2 3 9
1 1 4
2 2 4
25 24 16
10 15 33
41 60 85
2 2 4
29 42 122
2 3 11
25 59 56
55 40 31
6 4 29
2 2 4
50 33 28
3 5 14
6 7 12
75 39 37
12 20 11
41 46 50
16 25 25
54 51 26
11 11 9
58 43 56
4 4 6
19 16 13
3 3 5
7 7 9
6 6 8
8 8 10
6 6 8
55 35 27
40 31 25
14 19 15
8 8 10
8 8 10
7 7 9
5 5 7
19 14 15
3 3 5
7 7 9
32 37 28
9 9 11
4 4 7
39 45 36
13 13 20
7 7 9
5 5 7
19 26 34
14 15 27
6 6 9
10 10 12
11 11 13
5 5 7
5 5 7
16 27 16
31 21 23
7 7 9
34 43 25
20 14 15
10 10 12
41 29 43
7 7 9
17 13 14
16 24 16
23 34 48
9 9 11
9 9 11
57 63 46
8 8 10
48 39 29
12 12 14
42 45 26
60 50 36
13 13 15
36 25 40
29 40 26
49 59 42
10 10 12
29 37 20
42 51 61
72 78 85
13 13 15
41 36 28
4 4 6
15 15 17
135 200 200
28 20 21
26 15 19
8 8 10
25 25 21
27 21 27
10 10 12
12 12 14
43 33 24
9 9 11
9 9 11
209 209 209
46 64 53
21 23 27
21 18 21
19 13 16
210 142 142
45 39 28
55 44 49
12 16 16
7 7 9
28 21 22
11 11 13
34 30 41
23 29 23
21 16 32
21 25 25
31 37 35
43 24 31
21 44 44
7 7 9
10 10 12
14 18 18
14 22 22
12 15 17
24 32 47
103 78 49
31 19 28
15 18 18
4 4 6
207 207 207
18 30 30
8 11 13
48 60 57
9 12 14
38 29 24
6 9 12
52 64 54
24 15 15
6 6 8
19 30 30
53 30 53
25 17 17
7 7 9
6 6 8
7 7 9
12 10 14
22 31 31
27 15 20
55 20 27
9 6 7
45 23 29
9 6 8
27 18 14
35 17 20
17 14 14
46 28 20
44 46 26
31 20 20
223 101 149
23 13 16
25 13 13
19 16 12
14 9 10
32 20 20
40 32 40
77 36 42
55 35 26
23 15 12
29 19 15
9 6 8
50 33 25
10 6 8
53 31 25
50 33 25
23 13 14
13 9 10
25 23 34
37 44 35
52 44 27
10 6 8
32 16 16
24 13 16
21 12 12
30 17 16
10 7 8
17 14 15
88 31 41
11 7 9
41 22 17
11 7 8
27 15 15
11 7 9
15 12 11
85 36 23
17 11 12
18 15 13
12 8 9
95 67 54
12 8 9
18 12 13
13 8 10
27 18 18
12 8 9
13 9 10
47 27 27
12 8 9
56 27 21
74 51 36
120 62 62
39 31 22
239 159 159
18 12 27
33 24 18
55 41 21
33 17 22
39 26 19
13 8 10
53 23 19
75 23 36
66 31 34
66 60 48
15 10 11
20 17 18
34 17 18
13 9 10
13 9 10
37 25 19
13 9 10
64 53 58
69 39 50
29 18 25
210 140 140
29 15 15
13 9 10
30 22 26
38 21 19
22 15 13
65 80 35
62 26 21
26 14 15
15 10 19
14 9 11
14 9 10
62 60 42
46 21 24
14 9 11
37 32 20
76 95 37
39 28 18
35 27 19
241 241 161
22 22 15
30 30 17
174 160 113
14 14 10
14 14 11
55 64 48
52 79 44
30 39 27
76 57 30
24 20 13
20 18 31
19 19 13
43 52 24
203 203 135
149 109 103
32 33 22
19 19 14
13 13 10
33 30 17
24 31 22
38 47 26
59 38 27
11 11 10
45 32 26
27 30 16
44 40 33
13 13 10
18 18 13
125 66 61
46 34 23
37 45 25
66 45 31
44 34 29
198 198 132
21 21 15
12 12 9
43 36 20
19 19 14
56 76 38
18 18 13
160 167 59
31 42 21
11 11 9
34 35 28
11 11 9
17 17 12
40 29 20
74 36 28
10 10 17
40 43 24
42 48 26
27 33 17
27 30 15
11 11 8
12 12 9
24 33 16
10 10 8
39 39 17
32 42 28
9 9 9
34 25 17
11 11 12
237 237 158
65 46 30
32 25 17
197 197 131
9 9 8
22 17 12
15 15 11
16 23 17
22 24 11
9 9 7
236 236 157
8 8 7
29 36 15
29 37 19
15 20 14
13 13 10
11 11 9
22 22 11
70 60 27
4 4 6
32 45 36
19 27 29
20 26 14
8 8 11
9 9 10
6 6 11
10 10 12
7 7 9
6 6 8
20 20 16
9 9 11
58 72 30
56 45 64
20 28 21
25 14 75
22 27 20
32 32 19
9 9 11
34 42 28
42 32 46
25 28 20
7 7 9
212 212 212
28 35 21
28 28 22
19 19 15
46 40 30
64 99 39
22 22 17
8 8 10
9 9 11
22 30 23
59 54 38
20 24 24
22 30 29
6 6 8
10 10 12
44 57 28
9 9 11
5 5 7
92 47 56
48 89 51
6 6 8
45 32 41
35 41 30
6 6 8
9 9 11
46 63 38
40 29 42
5 5 19
7 7 13
6 6 8
56 66 39
16 16 11
4 6 17
125 129 86
10 8 8
51 56 35
0 0 3
12 12 8
0 0 17
2 1 6
0 0 2
17 26 14
0 0 0
2 2 4
34 38 25
0 0 3
2 2 4
17 18 16
6 6 26
2 2 4
31 21 22
5 8 28
57 41 51
0 0 22
14 21 12
18 30 16
0 0 9
2 2 4
22 14 15
26 36 28
16 10 16
0 0 0
2 2 9
34 48 28
1 1 6
2 2 4
2 2 4
20 13 15
17 26 18
13 20 12
0 0 5
79 34 27
2 2 4
47 35 29
36 32 24
7 7 9
29 30 27
221 221 151
5 5 17
10 10 13
44 56 35
10 15 24
13 13 15
11 11 13
9 9 11
4 4 6
19 16 15
11 11 13
13 16 14
5 5 7
7 7 9
5 5 7
14 17 15
5 5 7
31 23 21
7 7 9
8 8 10
98 41 65
39 33 29
58 59 49
32 55 50
212 212 212
46 76 31
10 10 12
12 12 14
73 60 42
9 9 9
27 20 17
9 9 11
8 8 10
38 73 39
30 23 23
10 15 16
30 42 24
5 5 7
32 44 34
7 7 9
8 8 10
13 13 15
27 27 22
25 36 36
28 66 45
25 25 20
13 13 15
23 23 18
142 209 142
43 70 31
56 56 40
33 28 36
20 20 16
58 46 50
6 6 8
9 9 21
55 46 63
34 50 29
23 29 31
33 24 35
39 30 31
10 10 12
29 19 29
8 8 10
44 29 39
8 8 10
50 52 40
13 9 14
25 25 20
10 10 12
22 17 23
29 18 25
15 12 12
24 19 20
30 27 30
35 21 29
29 20 26
60 39 42
8 8 10
6 6 8
14 11 14
8 8 10
29 25 29
5 5 7
69 71 50
8 8 10
57 51 36
9 9 12
30 34 41
14 21 21
19 27 27
55 98 45
21 16 17
7 7 9
4 4 6
64 45 36
87 41 46
40 35 40
13 18 20
78 50 47
61 41 47
8 8 10
15 19 19
83 73 51
25 43 32
18 28 20
27 27 25
10 10 12
11 8 9
45 32 26
23 14 17
18 25 22
8 10 12
6 6 8
4 4 6
11 8 8
35 66 33
20 12 12
26 16 14
183 83 122
75 44 32
10 7 8
54 33 28
38 20 27
12 8 9
38 19 26
61 70 42
41 20 29
18 15 13
21 19 17
238 159 159
11 7 9
36 33 24
11 7 8
13 9 10
11 7 8
21 10 10
51 34 25
14 11 10
18 14 12
26 14 15
17 14 12
24 20 13
29 21 14
23 16 16
25 15 15
19 10 14
36 24 18
60 27 19
43 27 23
11 7 8
10 7 8
10 7 8
89 112 57
24 14 14
13 8 10
11 7 9
24 24 18
13 8 9
56 37 27
84 60 61
64 32 29
33 20 14
122 78 48
18 15 12
14 9 10
11 7 9
20 17 14
24 20 22
30 20 16
52 28 23
39 30 46
25 16 14
23 20 16
12 8 9
239 159 159
24 20 16
12 8 10
16 11 11
39 20 27
12 8 10
72 48 35
54 30 30
21 14 15
24 16 14
129 124 124
15 11 20
102 41 32
13 9 10
41 22 30
86 41 48
13 8 10
37 24 19
13 9 10
31 23 24
55 32 28
49 39 39
29 27 19
118 64 66
94 43 42
25 19 20
14 9 10
41 27 24
14 9 10
14 9 11
25 20 17
81 46 46
75 36 36
25 19 15
14 9 11
15 10 11
45 25 22
35 28 26
28 21 21
75 63 64
22 22 15
51 46 39
45 34 23
28 33 17
77 80 37
54 43 29
34 25 18
32 42 25
14 14 11
20 20 15
14 14 10
28 36 19
17 17 12
20 20 15
28 26 17
13 13 10
104 59 51
41 47 21
47 59 26
13 13 10
41 48 24
24 24 17
30 40 21
13 13 9
177 177 118
30 45 17
92 135 41
43 43 28
60 91 31
21 23 44
74 36 42
20 20 14
54 44 21
10 10 6
57 40 27
39 33 22
121 92 41
60 57 28
20 26 18
36 51 21
37 42 19
23 20 13
29 24 17
32 53 30
25 25 15
15 15 11
22 22 16
61 36 20
15 15 11
41 28 20
10 10 8
11 11 9
11 11 9
82 85 40
13 13 10
26 26 15
91 219 148
61 33 24
16 16 12
23 23 13
22 22 15
26 31 16
32 45 31
51 33 34
25 34 24
104 68 36
234 159 156
228 124 54
37 21 15
8 8 7
18 23 20
9 9 10
9 9 7
12 10 20
19 19 10
13 13 9
13 16 12
12 12 9
21 21 12
9 9 7
23 17 10
18 22 12
27 20 23
13 17 13
16 16 13
14 14 13
6 6 8
7 7 9
14 14 11
19 19 16
23 23 19
18 24 26
6 6 8
22 32 36
10 10 12
51 34 38
55 84 46
8 7 17
8 8 10
53 48 32
6 6 8
33 45 21
15 15 13
10 10 12
6 6 8
11 11 13
20 20 15
54 69 41
3 3 5
9 9 11
21 21 18
9 9 11
6 6 8
52 29 43
54 42 33
16 16 13
18 26 19
14 13 26
22 22 19
40 36 38
14 14 11
27 42 17
10 10 12
24 24 20
16 16 17
40 42 36
30 38 22
23 39 28
207 207 141
93 44 75
7 7 9
51 33 46
22 22 14
19 26 19
71 62 84
7 7 9
48 46 43
5 5 7
56 46 31
2 2 4
2 2 4
19 25 15
2 2 4
38 25 40
70 53 60
3 2 26
17 17 11
6 10 29
40 35 18
59 63 65
48 41 32
0 0 4
2 2 4
2 2 4
20 19 28
2 3 23
13 6 46
9 11 30
3 4 13
1 1 6
1 1 5
2 2 5
3 3 8
2 2 18
0 0 5
41 41 31
10 17 10
15 22 12
1 1 6
17 33 23
18 20 21
3 4 13
15 17 14
0 0 3
1 1 6
2 2 4
4 3 18
22 14 16
0 0 2
2 2 4
8 8 22
2 2 4
23 32 31
5 5 18
19 15 16
58 53 40
10 10 12
7 7 9
8 8 11
9 9 11
6 6 10
9 9 11
12 12 14
7 7 13
22 30 24
27 26 24
79 49 59
202 202 137
10 10 12
14 14 16
48 38 38
12 12 14
38 38 28
17 23 24
145 214 102
33 25 33
25 27 21
213 213 213
210 210 210
45 67 40
6 6 9
43 45 35
10 10 12
16 20 17
210 210 210
7 7 9
6 7 23
7 7 9
7 7 9
36 50 30
9 9 11
10 10 12
60 46 46
53 42 41
41 41 31
14 14 16
16 16 18
210 210 210
29 39 41
12 12 15
74 61 47
13 13 15
6 6 8
68 41 54
34 40 30
26 31 24
39 39 30
34 40 46
43 48 61
50 36 49
40 28 40
13 13 15
36 29 21
38 29 40
10 10 12
24 18 21
62 70 65
8 8 10
12 12 14
27 21 21
76 53 48
54 81 48
48 53 54
5 5 8
59 59 42
9 9 11
8 8 10
35 54 60
16 13 18
24 37 34
44 23 27
5 5 7
19 21 25
6 6 8
5 5 7
66 54 82
50 50 37
11 11 13
29 39 54
26 29 74
24 33 52
18 14 15
8 8 10
21 24 26
6 6 8
41 64 47
31 34 43
30 20 19
7 7 9
8 10 10
43 41 29
8 8 10
7 7 9
51 43 30
46 50 45
126 123 123
44 25 44
7 7 9
13 16 16
6 6 8
4 4 6
58 38 30
49 27 30
19 16 16
51 64 42
47 44 49
10 18 15
132 137 137
18 26 25
5 5 7
40 33 32
28 40 42
5 5 7
9 6 8
45 30 22
17 14 12
29 16 15
33 17 14
26 15 22
27 16 18
22 15 12
68 36 27
21 20 14
11 7 8
61 39 22
238 158 158
28 18 17
83 26 40
24 21 27
35 18 18
31 17 17
15 13 14
15 9 9
18 14 12
130 46 55
130 126 86
9 6 8
27 18 14
22 12 14
10 6 8
115 78 108
10 6 8
25 12 16
27 27 17
17 13 11
46 43 25
32 19 17
11 7 12
62 52 27
19 10 10
27 15 14
23 17 26
35 19 17
32 18 21
18 12 13
21 18 14
10 7 8
185 85 85
11 7 9
9 6 6
11 7 9
25 14 14
34 23 18
12 8 9
17 10 10
12 9 14
40 28 32
41 46 29
60 29 41
54 51 42
12 8 9
27 24 19
12 8 10
70 42 27
12 8 9
25 13 13
41 32 20
24 13 14
36 46 36
29 15 21
19 13 11
100 61 33
76 24 27
13 9 10
32 21 17
40 20 29
25 21 18
13 9 10
13 9 10
52 28 38
23 15 14
38 21 18
19 15 12
19 13 14
26 15 17
12 8 9
49 30 24
13 9 10
47 23 33
37 31 31
13 9 10
14 9 11
35 25 25
20 13 12
37 32 25
58 44 32
16 11 11
30 23 18
32 17 23
14 14 11
14 14 11
35 30 21
21 21 15
33 41 17
14 14 11
91 58 26
46 34 24
138 61 48
62 50 30
13 13 10
17 17 16
29 25 17
40 32 21
13 13 10
23 29 16
19 18 28
33 26 17
83 56 32
22 18 16
39 32 21
20 20 15
83 64 28
45 33 25
195 195 91
22 20 40
42 29 28
50 37 25
23 27 19
131 189 63
26 33 18
35 27 18
23 23 14
49 40 25
19 19 25
17 17 12
17 17 12
204 204 136
16 16 11
34 43 34
12 12 9
22 18 16
12 12 9
69 157 38
16 16 12
15 18 13
11 11 9
29 40 20
11 11 9
37 51 26
11 11 8
12 16 19
10 10 8
76 86 33
105 78 48
19 19 14
19 15 11
59 54 43
78 82 36
29 40 20
16 16 11
32 26 17
154 227 151
12 11 14
73 54 28
14 14 10
10 10 8
33 27 18
17 13 10
36 39 18
21 21 11
9 9 7
18 18 10
40 52 16
18 20 22
10 10 11
14 14 10
25 29 14
39 29 27
22 22 11
8 8 7
55 78 47
37 30 21
18 27 22
137 202 137
43 35 44
4 4 6
16 16 13
35 64 33
30 42 25
37 35 24
3 3 5
10 10 9
29 25 29
17 17 15
160 150 121
208 208 208
7 7 9
15 15 13
6 6 8
7 7 9
18 18 21
9 9 11
8 8 10
33 27 20
8 8 10
14 14 16
12 12 10
33 45 45
13 13 15
2 2 4
8 8 10
71 102 41
9 9 11
11 11 13
5 5 7
24 17 15
10 10 12
19 25 19
9 9 14
3 3 5
20 28 21
69 201 138
18 18 14
29 38 18
6 6 11
56 67 45
6 6 6
18 16 50
15 16 30
0 0 3
132 191 129
51 36 34
12 11 23
34 33 24
9 9 15
12 12 14
7 7 9
1 2 5
2 2 4
102 84 44
2 2 4
2 2 4
5 4 12
2 2 4
10 6 7
0 0 21
4 5 10
5 4 15
0 0 1
6 11 16
6 6 8
15 22 14
36 45 23
0 0 2
1 1 8
28 18 23
22 13 19
3 3 12
25 16 26
2 2 8
11 17 11
19 12 14
2 2 4
31 19 19
1 2 16
0 0 5
3 4 9
2 2 4
138 201 134
28 38 49
29 51 27
37 22 25
2 1 7
2 2 4
2 2 4
0 0 7
0 0 5
44 25 25
53 45 39
9 14 11
19 19 14
11 11 13
5 5 7
22 22 17
15 18 15
24 34 34
25 35 22
8 7 25
19 26 20
26 20 28
45 46 37
13 16 13
11 11 13
16 20 17
208 208 208
15 20 15
10 10 12
17 21 22
11 11 13
17 14 14
7 7 9
211 211 211
46 35 49
10 10 12
13 11 25
11 11 13
8 8 10
36 43 31
37 28 21
42 57 32
8 8 10
9 9 11
10 10 12
207 207 207
128 98 45
45 36 33
7 7 9
8 8 10
12 12 14
41 51 32
6 6 8
33 39 28
27 37 39
36 23 26
26 30 23
31 22 22
23 40 28
36 36 29
22 29 24
12 12 18
42 41 60
46 64 54
15 15 17
15 15 17
90 52 40
38 37 42
8 8 10
11 11 11
13 13 15
34 75 41
27 27 22
44 34 59
63 52 32
17 17 13
36 39 26
12 12 14
8 8 10
14 14 16
34 24 34
16 20 22
27 44 35
10 10 12
42 49 35
19 25 27
30 22 32
45 29 38
23 23 17
43 39 30
8 8 10
39 31 31
24 30 32
43 36 30
25 20 20
4 4 6
45 36 43
6 6 8
131 127 189
36 45 35
28 20 20
5 5 7
55 46 49
33 46 47
35 27 27
33 40 32
41 41 48
9 9 11
15 20 22
6 6 8
10 10 13
15 18 18
4 4 6
32 22 18
14 12 12
6 6 8
69 48 97
29 19 19
57 151 57
28 35 35
55 50 53
42 37 43
23 23 17
5 5 7
7 7 9
43 21 26
9 9 11
97 56 41
40 38 36
20 18 16
17 26 26
68 60 47
32 25 39
32 32 37
43 34 34
5 5 7
9 6 7
96 50 40
36 20 20
64 37 26
10 6 8
20 16 16
14 8 19
16 9 9
17 10 10
51 28 26
43 37 30
46 23 17
18 10 10
85 43 49
26 17 14
18 12 13
13 8 10
45 43 31
54 34 20
59 28 33
57 30 38
15 10 11
43 31 20
59 36 26
41 39 21
53 40 30
10 6 8
23 17 15
31 16 17
50 37 31
57 39 29
14 8 8
14 9 10
24 16 13
10 7 8
41 24 21
44 19 29
37 23 21
15 10 11
38 21 26
11 7 9
42 33 36
19 11 11
26 13 18
57 34 26
54 49 28
24 12 12
25 22 18
11 7 9
15 10 11
12 8 9
16 13 12
31 14 14
12 8 9
30 21 16
39 34 23
26 19 23
131 126 87
42 31 24
14 9 10
71 47 34
12 8 10
61 52 46
48 35 25
55 37 25
29 15 15
52 20 30
22 19 15
50 32 26
35 20 26
53 41 34
12 8 10
30 26 21
43 23 31
29 15 16
21 13 14
21 16 13
13 9 10
13 8 10
43 21 25
24 20 20
31 28 29
27 14 19
72 41 50
50 25 20
32 18 23
14 9 10
41 27 21
241 160 160
20 11 12
51 19 29
25 21 22
47 29 27
16 11 12
20 16 14
26 37 20
22 22 16
39 39 21
29 37 26
33 29 22
23 23 16
24 29 19
25 32 22
68 47 34
34 31 25
88 66 29
46 34 24
51 42 22
45 38 37
52 44 21
39 59 29
43 32 22
22 22 16
81 54 34
48 48 31
24 30 19
40 47 33
12 12 10
44 38 21
39 37 24
16 16 22
18 18 13
24 25 41
25 29 15
52 72 43
16 16 12
12 12 9
59 72 33
36 47 32
41 43 31
18 17 28
71 84 48
48 32 30
44 55 24
56 42 37
20 20 14
24 19 14
14 14 11
32 44 22
48 45 23
16 18 23
28 28 26
11 11 8
19 19 22
51 37 118
11 11 9
218 148 69
47 43 21
228 112 103
43 25 19
43 54 30
19 19 14
31 36 19
22 22 14
41 64 33
31 23 16
44 50 19
21 23 12
12 13 18
23 23 13
28 19 12
36 26 18
36 36 22
53 80 27
32 42 28
99 68 37
40 40 21
53 66 25
42 28 16
26 36 18
23 23 13
36 38 16
19 15 14
38 37 19
16 16 11
41 46 21
9 9 11
29 35 21
11 11 10
34 26 27
16 15 31
6 6 8
14 18 20
14 14 12
29 33 20
165 165 112
69 56 61
26 33 19
11 11 13
42 30 22
66 88 48
6 6 8
12 12 14
35 51 30
10 10 12
39 37 22
11 11 10
13 13 11
9 9 11
157 152 83
6 6 8
5 5 7
16 20 22
6 6 8
6 6 8
6 6 8
46 46 65
9 9 11
30 51 51
31 43 36
8 8 10
10 10 12
10 10 12
36 41 26
10 10 12
25 25 20
181 181 122
12 17 12
10 10 12
7 7 9
7 7 9
44 46 56
5 5 7
227 227 154
17 15 30
15 15 10
24 24 19
31 31 25
13 13 15
41 34 25
6 6 8
6 7 13
9 12 10
2 2 4
7 7 26
21 21 15
2 2 4
17 11 12
10 10 8
8 8 7
59 32 62
1 1 6
2 2 4
0 0 4
2 2 4
37 21 31
0 0 0
1 0 3
0 0 11
55 45 37
0 0 2
2 2 19
28 24 14
51 34 41
2 2 4
1 1 3
14 9 24
38 32 49
3 3 12
4 4 29
20 11 38
45 25 38
2 2 4
23 35 30
3 2 8
0 0 1
0 0 4
0 0 0
2 1 5
34 27 23
57 61 27
20 30 21
46 31 39
64 45 36
21 17 14
0 0 0
5 5 6
17 13 14
33 69 40
15 14 31
10 11 19
30 45 25
5 5 7
38 46 39
28 36 29
10 10 12
3 3 6
12 12 14
7 7 9
7 7 9
6 6 8
22 18 24
7 7 23
17 22 19
51 35 37
11 11 29
19 24 20
21 31 21
29 36 45
7 7 9
9 9 11
56 33 49
6 6 15
8 8 10
17 13 14
7 7 9
18 14 20
12 12 14
36 27 20
25 35 21
18 26 19
25 32 26
7 7 9
9 9 11
11 11 13
36 32 32
9 12 9
27 31 19
11 11 13
26 17 17
5 5 7
10 10 12
39 39 139
30 30 24
20 17 17
17 17 19
33 33 25
6 6 8
17 17 19
42 59 51
42 26 35
38 38 30
11 11 13
51 51 38
52 43 57
213 213 213
54 37 44
11 11 13
18 18 18
94 77 56
8 8 10
56 84 67
10 10 12
52 48 39
45 52 42
46 38 51
35 25 32
33 42 38
88 49 48
44 33 35
51 42 44
25 18 27
22 32 19
19 24 19
24 19 20
45 29 61
51 51 37
6 6 8
42 40 43
49 84 68
38 27 34
5 5 7
28 22 24
6 6 8
25 18 27
37 37 26
10 10 12
39 26 32
16 20 20
19 24 26
10 10 12
8 8 10
8 8 10
33 30 21
11 11 13
22 30 32
42 60 49
12 12 14
52 54 41
10 10 12
60 62 43
42 60 59
28 28 20
29 47 54
209 209 209
41 35 27
134 198 198
41 53 33
14 11 12
19 33 19
76 31 38
31 41 48
57 34 62
211 211 211
4 4 6
21 31 23
85 42 46
35 33 35
21 15 33
35 29 23
4 4 6
5 5 7
7 7 9
10 6 8
27 12 12
58 31 27
10 6 8
10 7 8
52 16 19
32 19 17
9 6 8
10 7 8
27 18 14
40 25 34
48 26 17
40 43 29
22 11 11
40 27 20
26 17 12
41 34 21
76 33 46
50 36 23
23 23 14
9 6 7
22 14 17
67 44 52
23 15 14
22 19 15
14 9 10
10 7 8
23 20 16
52 52 29
16 11 12
37 18 19
75 45 33
32 29 22
11 7 8
11 7 9
47 26 26
10 7 8
11 7 9
17 11 11
57 26 33
95 48 37
20 11 11
21 16 13
78 48 37
23 20 13
47 31 24
24 28 16
12 8 9
31 17 21
12 8 9
30 13 13
12 8 9
34 29 23
35 16 16
239 159 159
22 14 16
37 24 19
239 159 159
47 50 25
27 14 13
26 14 17
12 8 10
13 8 10
12 8 10
12 8 10
43 34 36
37 25 18
51 57 44
57 25 20
13 8 10
53 21 23
38 29 29
31 30 23
33 18 18
20 12 21
72 41 55
50 20 25
13 9 10
225 124 91
30 16 15
13 8 10
19 14 14
33 36 27
241 160 160
38 23 21
34 22 20
205 136 136
179 94 62
241 160 160
73 42 35
34 16 16
17 11 12
31 39 27
49 35 29
14 14 11
27 35 24
60 60 32
20 20 14
22 22 16
36 25 18
45 66 26
60 93 48
33 44 31
45 33 37
25 22 15
41 24 20
43 62 39
18 18 13
49 36 22
39 30 21
47 53 36
16 16 12
13 13 10
44 53 33
30 38 19
35 27 18
80 45 44
32 32 19
20 22 25
21 26 26
25 25 15
62 45 33
37 36 27
19 19 14
53 45 36
12 12 9
28 23 18
18 18 13
36 38 25
25 33 16
41 41 23
18 18 13
77 136 37
37 56 19
15 18 11
11 11 9
27 40 26
18 15 11
11 11 9
11 11 9
11 11 8
48 61 40
22 23 20
60 113 67
18 18 12
36 42 28
30 49 27
55 33 81
39 33 26
42 31 21
21 28 17
20 20 11
43 53 26
31 38 21
13 13 10
21 18 15
9 9 8
15 15 18
20 21 24
9 9 7
56 50 24
36 27 19
12 12 9
22 22 13
12 12 9
8 8 7
26 19 18
8 8 7
68 48 33
42 56 16
38 44 29
45 61 37
28 35 20
9 9 11
15 15 14
23 26 22
7 7 9
8 8 10
26 33 19
10 10 9
13 14 14
11 11 10
14 14 16
6 6 8
26 35 37
52 34 44
207 207 207
39 38 42
48 48 41
23 35 25
18 18 16
47 37 32
24 29 18
18 18 19
24 24 18
90 71 59
120 79 55
52 74 43
45 45 42
22 30 32
54 81 63
207 207 207
20 21 22
12 12 14
3 3 5
8 8 10
5 5 7
5 5 7
64 50 42
9 9 11
10 10 12
7 7 9
32 32 31
67 67 48
20 26 20
30 40 42
19 24 26
9 9 11
53 48 32
7 7 9
14 14 18
68 86 50
66 49 42
16 16 12
18 15 36
12 12 14
8 8 10
43 43 31
26 40 21
1 1 7
2 2 4
0 0 2
204 204 204
0 1 3
1 1 4
25 20 19
2 2 4
4 6 14
57 38 28
10 11 49
2 2 4
0 0 25
6 4 17
0 0 7
9 8 25
16 19 10
2 2 8
16 16 19
0 0 3
33 33 135
9 6 24
0 0 2
0 0 2
5 3 15
0 0 0
7 9 30
1 1 18
5 3 25
59 67 77
1 1 9
8 5 30
12 9 20
51 27 29
62 31 39
11 17 11
6 8 16
2 2 4
25 44 18
33 57 29
2 2 4
6 8 14
3 3 16
2 2 6
5 5 7
39 27 37
9 9 11
34 42 23
73 47 68
10 10 12
16 17 25
9 10 13
5 5 5
12 14 26
9 9 11
5 4 8
5 5 7
18 17 49
6 6 8
12 12 10
73 43 73
17 22 19
10 10 12
13 13 21
32 27 23
10 10 12
26 34 34
22 30 23
38 55 30
39 29 30
7 7 9
5 5 7
20 29 21
14 14 16
15 15 17
9 9 11
11 11 13
19 24 20
12 12 14
8 8 10
34 24 25
27 36 25
10 10 13
40 35 41
9 9 11
7 7 9
52 46 40
13 18 14
13 18 13
10 10 12
21 14 14
8 8 10
14 14 16
144 149 104
59 66 51
39 51 39
127 188 188
25 46 51
13 13 15
6 6 8
8 8 10
57 41 58
15 15 17
4 4 6
6 6 8
4 4 6
49 38 50
11 11 13
59 49 41
157 155 107
17 19 19
89 63 55
47 41 34
5 5 7
9 9 11
65 42 58
66 41 35
64 45 54
13 13 15
84 75 81
42 45 48
8 8 10
7 7 9
46 64 47
28 43 32
9 9 11
48 36 32
75 71 49
27 19 21
34 32 29
10 10 12
14 10 15
18 24 24
41 30 30
8 8 10
37 70 56
21 23 23
81 49 75
3 3 5
23 17 19
38 29 57
23 17 24
45 53 50
32 26 18
31 42 44
208 208 208
35 26 23
34 29 29
8 8 10
10 10 12
23 36 33
33 24 25
17 21 18
7 7 9
25 24 21
82 66 44
30 48 39
24 17 15
12 16 18
25 14 18
22 16 16
42 37 41
45 45 33
15 17 17
40 29 24
27 20 20
49 30 25
6 6 8
90 48 39
32 37 32
22 21 21
23 33 35
5 5 7
21 10 14
15 13 13
9 6 7
160 157 157
13 8 8
10 6 8
43 32 41
17 17 15
31 15 18
28 22 14
6 6 19
11 7 9
12 8 9
9 6 7
83 28 34
183 122 83
19 11 11
18 9 12
237 158 158
82 58 40
17 15 16
65 68 52
26 22 23
21 15 13
69 28 32
28 17 15
15 12 12
98 57 46
19 16 13
40 26 21
43 30 23
24 16 13
14 9 10
70 32 39
22 22 15
45 40 75
32 26 19
17 11 12
71 31 20
24 13 14
20 17 14
11 7 9
27 24 25
20 17 13
33 25 26
25 19 19
20 12 28
254 169 115
38 29 18
41 41 22
65 38 28
11 7 9
39 19 27
12 8 9
239 159 159
15 10 11
20 16 18
39 26 22
37 31 25
17 11 12
22 20 15
31 15 19
40 20 30
33 17 17
52 31 43
12 8 10
68 28 40
240 160 160
83 43 40
21 16 14
15 11 19
38 25 18
64 45 29
32 25 19
29 21 21
13 8 10
13 9 10
46 33 26
31 24 20
65 37 33
13 9 10
25 15 17
28 21 19
25 21 20
19 12 20
30 17 17
14 9 10
53 27 33
41 30 37
67 22 33
38 46 27
32 32 20
65 51 31
32 42 29
14 14 10
13 13 10
36 28 19
43 37 23
241 241 160
36 57 37
13 13 10
13 13 10
39 42 21
50 36 22
25 29 20
42 58 25
32 45 22
53 60 48
40 30 28
47 42 24
240 240 160
13 13 10
22 24 35
11 11 10
57 57 29
22 22 16
25 33 18
41 52 25
24 24 17
57 47 31
12 12 9
15 15 11
45 68 34
48 31 28
29 36 23
46 37 30
11 11 9
26 26 16
43 43 22
40 40 27
38 28 16
47 37 20
48 43 26
28 37 19
26 35 22
58 36 32
35 31 16
45 34 30
21 17 12
15 15 11
71 51 28
45 30 20
24 24 14
81 60 49
28 25 16
21 30 20
10 10 8
25 25 15
22 22 13
85 88 43
10 10 8
22 25 13
34 32 16
14 14 10
37 50 26
9 9 7
38 45 20
9 9 7
58 37 28
24 24 13
17 17 12
30 24 13
87 65 26
43 43 102
19 19 14
8 8 7
16 14 16
41 29 16
32 23 24
21 21 16
34 24 26
46 61 39
49 41 44
6 6 8
28 30 40
5 5 7
20 23 16
33 29 28
6 6 8
6 6 8
35 24 31
9 9 11
8 8 7
6 6 8
28 44 25
10 10 12
14 15 23
28 35 21
3 3 5
25 30 20
21 21 14
4 4 6
4 4 6
4 4 7
8 8 10
8 8 10
60 59 48
14 10 15
18 26 14
13 13 28
21 22 22
31 39 22
51 41 25
23 23 19
10 10 12
33 21 29
26 26 21
37 37 28
31 31 22
7 7 9
5 5 7
23 23 25
26 33 22
9 9 11
8 8 10
27 27 21
19 19 16
14 14 16
12 11 20
8 8 10
10 10 12
56 74 37
25 25 20
17 29 24
51 35 46
10 10 33
25 34 16
2 2 4
2 2 4
3 2 14
0 0 3
0 0 0
37 53 19
1 0 9
1 1 4
49 33 42
10 7 27
78 57 36
0 0 2
0 0 0
5 5 36
24 19 28
49 70 26
9 6 7
228 110 73
20 27 14
56 78 38
36 58 44
2 2 8
0 0 0
1 1 12
0 0 3
1 1 5
2 2 16
5 5 18
6 10 8
26 26 19
22 24 13
0 0 20
24 28 19
2 1 25
4 3 19
3 2 7
16 24 13
1 1 6
15 23 16
1 1 8
5 5 14
17 25 18
16 17 57
28 26 20
16 22 24
40 34 35
8 8 16
13 13 15
20 26 21
7 7 9
82 50 65
9 9 11
11 11 13
9 9 11
2 2 5
11 11 13
90 80 61
47 39 35
10 10 12
13 13 15
25 40 31
32 38 25
108 72 87
33 37 27
38 36 38
13 13 11
209 209 209
11 11 13
13 13 15
30 21 22
28 36 29
9 9 11
40 40 23
46 76 26
14 17 14
9 9 11
10 10 12
7 7 9
206 141 141
27 21 29
49 43 55
51 33 38
49 34 31
50 39 33
46 37 28
67 77 37
14 14 16
12 12 14
24 16 16
20 29 33
8 8 10
7 6 16
12 12 14
35 30 27
37 60 45
46 72 60
29 34 37
30 37 37
12 10 22
18 25 30
37 47 47
24 19 26
6 6 8
210 210 210
10 10 12
8 8 10
17 17 19
52 43 52
36 31 36
54 50 34
4 4 6
10 10 12
24 27 24
23 27 27
12 12 14
10 10 12
20 20 13
10 10 12
12 12 14
42 23 33
8 8 10
53 52 57
34 40 23
30 41 42
47 103 69
7 7 9
59 41 32
41 24 34
35 25 29
147 58 46
36 30 36
13 13 15
28 39 35
25 21 22
64 76 36
21 27 41
21 30 48
18 26 27
28 21 22
18 24 26
4 4 7
6 6 8
36 24 49
76 49 38
31 20 22
69 48 36
53 74 58
18 23 23
23 19 19
22 17 19
47 56 47
72 72 50
18 13 15
4 4 6
46 35 46
6 6 8
40 37 37
10 10 12
16 18 23
15 13 17
7 7 9
24 34 25
12 7 7
4 4 6
34 53 38
26 38 36
26 42 36
22 30 20
4 4 6
44 18 21
23 23 18
80 32 26
18 13 24
3 3 5
17 14 11
6 4 5
29 12 15
15 12 12
54 42 35
25 11 11
53 22 25
50 51 42
22 26 15
31 25 18
15 22 12
18 24 26
15 13 13
20 15 12
18 13 11
222 100 148
66 50 35
9 6 12
12 8 9
18 12 21
59 39 28
30 21 21
14 12 10
21 11 11
36 24 17
10 6 8
10 6 8
60 42 28
10 7 8
10 7 8
41 38 25
11 7 8
54 26 23
11 7 8
11 7 9
42 29 21
37 28 21
21 14 14
38 35 33
56 40 27
31 18 16
39 32 26
30 23 15
48 32 24
32 21 17
59 31 44
11 7 9
11 7 8
48 52 36
57 71 50
19 11 11
12 8 9
12 8 9
20 13 14
42 49 30
33 20 26
33 37 39
13 8 10
16 12 12
37 17 19
14 9 11
59 40 38
239 159 159
20 16 16
28 22 19
10 7 7
13 8 10
22 14 14
36 25 22
26 17 15
62 32 36
26 23 18
41 33 19
13 8 10
33 22 32
41 18 26
56 24 24
33 29 23
56 28 33
36 19 18
48 22 28
26 13 24
25 14 16
65 30 25
51 20 23
28 15 20
35 26 25
13 9 11
46 20 19
62 78 29
40 30 20
22 22 29
37 37 21
30 30 20
121 60 53
27 35 19
53 42 38
28 28 18
32 36 20
18 18 13
30 36 18
46 39 23
198 198 132
19 19 14
13 13 10
33 38 22
14 14 9
45 48 23
40 50 32
12 12 10
37 42 19
17 17 12
37 28 20
15 15 21
18 18 13
20 20 15
12 12 9
41 32 27
17 17 12
15 15 11
17 16 20
82 64 28
28 23 19
57 42 25
36 61 41
22 22 16
28 35 18
44 38 25
170 160 58
18 18 13
11 11 9
11 11 9
38 42 24
19 19 13
20 20 14
37 55 27
62 57 31
32 45 27
67 34 25
13 14 15
43 47 19
44 81 46
10 10 8
17 17 12
46 34 29
12 12 9
74 42 37
10 10 8
24 21 17
14 18 10
10 10 8
15 15 9
43 27 19
41 46 19
23 28 15
12 12 9
13 14 20
41 59 25
74 78 37
12 12 9
30 22 20
27 30 15
115 82 55
72 88 45
13 16 8
6 6 8
18 16 26
65 68 29
31 37 38
7 7 10
39 64 31
12 12 11
28 32 19
206 139 206
20 31 35
8 8 10
55 55 38
41 32 37
5 5 13
33 38 28
12 12 10
38 56 30
7 7 9
15 15 9
57 41 59
11 10 28
7 7 9
21 24 15
6 6 8
37 37 21
13 15 26
58 80 35
63 53 87
24 24 18
8 8 10
8 8 13
11 11 13
21 28 21
7 7 9
27 31 21
9 9 11
11 11 13
7 7 34
40 53 32
8 8 10
7 7 9
5 5 7
5 5 7
3 3 5
90 68 76
169 231 157
8 8 14
28 31 22
5 5 7
38 31 35
10 10 12
207 207 207
79 107 81
34 29 24
5 5 7
60 47 39
10 10 12
10 11 20
14 9 11
7 11 8
22 33 29
2 2 4
52 31 30
22 22 15
79 39 27
2 2 4
2 2 4
0 0 6
0 1 12
29 36 19
37 29 44
0 0 20
0 0 4
5 5 16
2 4 12
9 9 26
1 2 5
6 4 17
0 0 5
1 1 5
3 2 15
1 2 7
0 0 2
0 0 0
1 1 8
7 8 25
78 42 56
37 39 15
29 49 36
63 44 28
3 4 12
0 0 4
11 12 40
27 16 31
2 2 4
2 3 7
32 21 34
20 30 21
40 27 17
0 0 5
3 5 21
9 15 10
5 4 21
18 12 13
6 6 8
33 47 33
19 26 20
9 8 19
15 14 28
61 86 44
9 9 11
21 16 22
31 24 25
11 11 13
11 11 13
10 10 12
13 14 26
44 26 26
8 8 10
39 30 24
11 11 13
68 63 41
212 212 212
22 31 23
9 9 11
17 22 15
19 19 16
32 33 30
32 42 32
7 7 9
25 25 27
138 142 138
9 9 11
22 29 33
7 7 9
40 40 25
11 11 13
45 30 42
212 212 212
21 29 22
9 9 11
23 18 19
47 21 24
19 14 14
54 65 36
44 26 26
20 27 21
9 9 11
203 137 137
11 11 13
211 211 211
24 29 21
25 16 15
28 20 17
10 10 12
17 15 49
25 25 21
44 33 46
37 28 39
8 8 10
15 15 17
90 79 47
48 74 55
8 8 10
15 15 17
80 80 61
8 8 10
20 26 26
70 64 50
29 40 59
33 39 39
4 4 6
25 39 28
210 210 210
47 25 38
70 72 50
31 31 25
10 10 12
24 31 29
8 8 10
35 27 35
82 84 73
11 11 13
40 34 34
9 9 11
10 10 12
12 12 14
22 27 29
33 33 26
25 20 20
11 11 13
70 70 50
25 41 41
47 28 34
53 71 45
50 52 57
9 9 11
26 22 17
35 35 24
5 5 7
6 6 8
21 21 17
9 9 23
17 20 20
32 20 27
18 24 24
55 41 36
25 20 20
11 14 14
6 6 8
43 28 38
44 54 54
63 43 47
6 6 8
6 6 8
6 6 8
88 76 58
9 9 11
23 35 32
3 3 5
20 27 29
9 9 7
33 53 34
3 3 5
22 16 19
30 44 40
4 4 6
27 35 54
11 8 8
4 4 6
20 34 16
4 4 6
3 3 3
2 2 4
17 29 19
62 31 47
50 38 61
43 63 138
58 26 28
28 37 37
14 8 8
48 26 22
6 6 8
13 10 10
14 10 11
5 5 7
27 26 19
47 52 37
37 26 39
9 6 7
14 9 10
17 9 10
31 14 14
30 19 16
9 6 8
35 23 18
51 44 24
26 31 23
25 16 13
237 158 158
14 9 10
42 25 19
10 6 8
14 9 10
51 24 26
25 13 16
16 10 11
10 6 8
35 34 19
39 36 26
203 92 135
188 86 86
65 49 35
37 34 29
16 13 14
47 20 26
46 30 22
36 24 17
36 15 18
35 18 17
11 7 8
12 8 9
28 14 19
49 28 39
41 20 17
29 19 16
39 29 23
21 14 15
20 11 12
41 27 27
12 8 9
67 69 37
49 26 26
28 15 20
44 41 34
40 23 21
39 26 20
53 20 30
100 46 54
20 11 14
30 23 24
73 54 33
28 15 15
20 11 12
19 11 11
32 14 35
13 8 10
29 15 21
12 8 9
13 8 10
24 12 12
70 36 26
40 23 23
23 19 20
35 28 28
18 12 13
51 34 26
40 20 18
42 34 31
13 9 10
42 30 26
13 8 13
159 73 73
21 14 14
22 22 15
13 13 10
36 45 22
13 13 10
32 35 20
25 30 21
32 38 26
16 16 9
41 35 27
23 23 16
20 20 14
24 24 15
28 28 19
38 42 21
13 13 10
17 17 15
42 36 20
47 56 31
14 14 10
32 43 17
77 70 32
12 12 9
24 19 13
43 32 22
49 60 25
50 70 38
12 12 10
12 12 9
97 55 29
28 38 26
40 37 23
16 16 12
60 81 25
41 31 19
60 85 41
31 26 24
18 18 13
20 26 19
27 36 19
37 50 35
32 29 26
13 13 10
17 17 13
112 122 46
26 26 15
46 40 20
11 11 9
9 9 9
47 43 22
15 15 11
41 29 23
40 27 18
16 16 12
52 37 21
16 16 12
27 21 15
27 21 19
29 29 16
30 22 16
46 33 18
48 48 22
15 15 11
10 10 8
18 18 13
24 24 15
9 9 7
11 11 9
21 26 20
196 196 130
34 25 17
28 28 13
37 29 20
21 26 12
16 16 31
5 5 7
16 16 15
21 21 17
32 25 34
6 6 8
13 13 12
18 17 17
22 22 16
31 25 22
25 25 17
29 29 18
8 8 10
8 8 10
36 31 27
11 11 13
182 124 122
27 27 21
14 17 26
70 56 39
23 37 19
18 24 26
9 9 11
9 9 11
28 21 30
27 22 20
11 11 13
8 8 10
8 8 10
37 37 21
32 32 24
21 16 21
46 94 46
7 7 9
20 28 30
9 9 11
6 6 11
11 11 10
20 24 20
9 9 18
10 10 9
21 16 16
6 6 6
19 19 17
9 9 16
12 12 14
10 10 12
42 37 35
20 16 17
54 35 38
27 21 39
19 19 15
8 8 30
26 42 39
11 14 21
9 9 11
9 9 11
26 26 19
7 7 10
22 30 32
47 32 49
34 24 24
4 2 15
7 5 21
14 14 9
43 34 22
8 8 7
41 41 28
23 35 35
46 34 38
1 1 7
1 1 1
2 2 4
14 14 10
19 28 27
0 1 21
2 2 4
5 6 18
23 23 16
4 4 7
1 1 6
1 1 4
11 11 8
14 14 10
47 64 26
6 10 9
0 0 2
2 2 9
25 21 17
8 5 27
27 19 20
20 20 11
5 6 15
27 18 19
2 2 9
1 1 16
6 6 25
2 2 7
1 1 9
204 204 204
156 56 92
2 2 4
57 45 30
3 3 26
34 49 28
204 204 204
4 4 6
5 5 13
45 45 146
71 51 55
20 17 12
19 15 16
194 131 92
9 9 11
14 10 26
28 33 25
13 13 15
21 27 22
8 8 10
7 7 9
13 13 15
5 5 9
33 38 29
33 53 26
14 10 11
32 31 28
7 7 9
9 9 14
59 59 44
9 9 11
32 32 23
34 24 34
76 85 55
28 21 22
131 190 128
47 32 31
25 32 22
18 15 18
20 35 36
9 9 11
5 5 7
10 10 12
50 30 36
34 33 25
10 10 12
18 21 23
13 13 15
9 10 20
41 33 43
15 13 13
207 207 207
26 20 22
61 52 37
31 23 22
11 16 32
29 23 24
27 21 22
39 28 41
71 97 51
17 17 19
12 12 14
10 10 12
35 29 25
35 42 47
33 41 70
26 28 18
26 34 36
28 28 20
13 13 15
34 30 23
24 29 24
18 24 18
47 40 40
12 12 14
29 42 60
32 26 32
22 30 32
30 47 35
33 25 25
46 33 43
41 38 46
39 30 24
34 26 36
10 10 12
31 31 23
9 9 12
39 25 33
65 43 58
29 21 21
48 21 48
50 48 81
27 21 28
30 20 25
40 25 30
18 14 16
34 25 26
68 40 59
46 42 41
36 24 36
102 68 77
14 18 19
48 60 53
7 7 9
60 30 36
16 13 14
11 14 14
40 28 23
3 3 5
38 24 33
8 8 10
24 27 27
45 65 44
8 8 10
9 9 11
16 21 21
6 6 8
25 32 22
61 78 37
32 47 39
38 55 42
26 16 16
71 32 53
14 18 15
19 14 16
14 10 16
31 18 22
32 31 31
19 38 38
18 14 15
19 11 11
42 27 22
35 87 34
9 7 7
69 38 73
8 12 26
5 4 15
22 20 20
30 20 15
3 3 5
187 125 125
98 31 39
44 28 18
4 4 6
5 5 7
6 6 8
3 3 5
29 28 21
22 31 18
5 5 7
17 15 13
20 15 15
43 21 29
18 15 12
9 6 7
163 117 84
15 12 10
75 37 30
26 12 12
25 17 13
23 13 15
237 158 158
19 15 11
36 33 20
10 6 8
97 51 104
11 7 9
10 6 8
16 10 11
49 49 18
10 7 8
104 99 50
33 18 32
41 34 20
10 7 8
41 26 19
37 17 34
18 14 12
19 15 13
58 24 35
11 7 8
15 14 35
21 14 15
11 7 9
50 20 24
31 35 34
11 7 9
58 24 33
11 7 9
22 11 16
72 48 35
59 36 42
34 23 19
79 32 43
26 18 14
34 23 19
35 26 20
12 8 9
23 21 15
43 34 23
24 12 35
59 35 43
16 10 11
12 8 9
35 31 24
12 8 10
81 31 38
23 15 14
27 20 18
27 22 19
75 28 44
25 13 17
44 35 36
229 104 104
39 25 19
73 35 23
42 21 28
13 8 10
49 29 52
26 14 13
46 23 32
18 15 16
57 37 24
41 27 18
13 9 10
30 19 27
34 24 33
23 14 13
39 25 22
13 13 10
61 59 44
39 45 23
23 29 21
69 43 32
24 24 17
40 36 20
19 19 14
51 43 26
50 88 35
13 13 10
43 32 30
43 67 45
13 13 10
24 22 14
13 13 10
18 18 13
22 28 16
42 31 22
12 12 9
27 27 16
20 20 15
59 37 20
53 56 33
192 99 89
13 13 14
32 32 18
12 12 12
42 32 18
12 12 9
35 35 19
11 11 9
14 14 9
32 39 27
46 32 29
31 29 24
28 35 24
89 131 41
44 35 20
18 18 13
36 44 30
11 11 9
20 20 14
17 14 28
26 20 14
20 16 12
73 82 39
10 10 8
24 19 13
16 21 11
50 46 20
10 10 8
27 27 15
22 30 21
19 19 14
32 24 16
159 115 79
10 10 8
108 59 42
224 152 101
9 9 7
23 31 16
23 23 12
125 184 122
56 70 24
17 17 10
32 43 24
16 16 11
12 12 9
12 12 9
36 33 18
31 40 29
43 50 34
42 46 36
31 43 26
9 9 11
12 11 21
23 23 18
11 11 10
199 199 133
31 36 28
6 6 8
22 28 30
4 4 7
211 211 211
6 6 8
21 21 17
5 5 7
8 8 10
32 27 28
11 11 13
24 16 17
7 7 9
4 5 39
151 209 141
72 55 67
27 27 23
7 7 9
211 211 211
9 9 11
11 11 13
48 38 29
7 7 9
31 18 24
29 37 39
16 16 15
29 21 31
34 42 26
53 53 41
9 9 11
9 9 11
44 66 48
30 39 39
213 213 213
7 7 9
8 8 11
28 28 23
13 13 15
8 8 10
7 7 9
13 13 15
41 41 25
23 32 17
21 21 18
48 61 42
36 37 28
53 34 54
49 55 33
12 12 14
5 5 7
7 7 9
73 92 41
5 5 7
2 2 4
6 6 8
7 8 18
197 197 133
2 2 11
21 18 21
5 5 7
33 52 41
5 5 12
25 35 37
1 1 6
8 8 10
121 92 64
24 14 24
13 9 11
25 18 27
3 3 7
4 4 14
32 46 86
1 1 6
45 45 22
5 7 19
32 32 86
3 3 5
0 0 0
3 3 5
63 44 34
6 5 18
4 4 10
1 1 1
16 14 12
64 58 48
4 4 8
5 4 8
45 41 30
20 13 15
30 32 23
52 33 30
202 137 202
47 63 53
8 10 35
13 8 24
3 3 5
5 5 7
204 204 204
207 207 207
11 11 13
11 10 24
31 43 45
4 4 6
110 68 92
8 9 30
16 12 14
14 14 14
11 11 13
7 7 9
25 34 36
9 9 11
12 13 27
12 12 15
12 12 14
27 31 23
4 4 6
6 6 8
15 15 17
17 24 18
217 217 217
88 58 47
35 40 30
7 7 9
9 9 11
11 11 13
11 11 13
7 7 9
54 47 47
11 11 13
55 26 36
28 30 25
45 70 47
68 56 49
3 3 5
7 7 9
13 17 14
5 5 7
32 35 25
15 15 17
11 11 13
38 30 32
10 10 17
92 63 51
20 27 21
209 209 209
209 209 142
24 22 18
12 10 28
57 62 44
34 50 38
26 35 37
8 8 10
189 90 90
25 22 17
49 65 58
6 6 8
10 10 12
43 51 31
23 30 24
49 40 32
41 38 28
15 15 15
217 217 217
22 19 19
8 8 10
17 17 19
62 40 32
65 65 36
10 10 12
66 74 44
35 41 35
12 12 14
51 48 28
12 12 14
37 20 20
5 5 7
65 56 51
10 10 10
34 40 24
10 10 12
8 8 10
54 35 50
125 86 65
51 28 37
11 11 13
50 50 36
24 18 26
32 29 29
96 72 87
61 61 46
31 43 39
42 33 31
16 19 21
9 9 11
10 10 12
211 211 211
39 26 21
132 193 135
11 11 13
44 23 28
10 10 12
100 62 80
42 32 32
5 5 7
27 31 31
8 8 10
20 23 23
57 54 41
55 24 30
114 168 114
39 24 30
45 45 50
19 13 14
6 6 8
79 66 44
31 27 22
39 26 28
3 3 5
4 4 6
13 10 11
11 7 9
23 19 17
16 24 26
97 36 54
3 3 5
13 19 13
69 42 50
3 3 5
61 71 58
63 110 37
22 21 21
177 118 80
2 2 4
30 21 21
26 25 17
7 7 9
41 24 21
11 14 16
5 5 7
39 33 22
23 20 16
15 12 13
6 6 8
23 25 19
5 5 7
71 71 60
21 17 14
11 7 8
26 13 15
16 9 11
9 6 8
27 11 11
50 25 20
35 20 20
10 6 8
22 18 13
23 19 14
56 35 26
19 14 12
11 7 8
45 36 26
27 28 25
25 18 20
49 48 26
25 23 18
11 7 8
10 7 8
36 24 19
50 22 28
24 13 13
28 15 17
86 36 26
52 23 26
149 80 53
93 53 34
37 30 17
52 35 26
15 10 11
11 7 9
34 27 27
49 23 27
38 23 20
11 7 9
57 27 39
75 38 34
41 24 27
12 8 9
12 8 9
12 8 9
11 7 12
17 10 21
12 8 9
43 33 32
12 8 10
89 31 48
47 21 21
13 8 82
255 140 51
29 17 14
13 9 14
13 8 10
18 12 13
13 8 10
27 17 37
45 33 49
55 33 19
49 29 19
23 12 12
64 30 23
46 28 51
28 15 19
47 23 28
24 13 13
56 29 42
19 12 13
40 21 28
13 9 10
21 14 15
13 8 10
57 61 29
24 31 27
42 48 22
49 42 32
58 49 28
13 13 10
17 20 15
11 11 10
71 80 43
29 22 20
47 74 28
13 13 10
74 70 39
29 21 14
13 13 10
19 24 13
29 26 20
69 74 34
29 23 15
91 66 36
15 15 11
32 29 22
27 30 18
27 23 22
21 26 14
29 23 13
15 19 10
53 37 40
65 83 33
34 26 15
28 37 15
32 28 16
53 42 27
27 31 21
11 11 9
43 36 18
29 25 35
11 11 9
27 26 20
20 20 15
24 32 17
60 85 30
65 42 30
10 10 8
20 20 14
34 31 20
60 82 31
19 28 14
79 49 29
13 13 10
35 26 15
10 10 8
150 92 50
51 46 22
9 9 7
10 10 8
200 200 133
46 31 26
13 13 10
55 39 20
52 53 27
16 13 12
15 20 14
26 22 19
56 64 26
30 24 17
26 32 17
34 23 14
29 26 15
14 14 10
39 27 17
50 35 20
8 8 13
22 30 21
52 52 29
16 16 13
21 19 14
34 32 18
9 9 11
8 8 10
34 56 19
63 39 45
9 9 11
51 78 31
45 75 33
34 57 46
38 38 28
48 59 68
30 32 21
17 17 14
11 11 10
78 96 66
10 10 12
7 7 9
37 50 23
14 14 22
215 215 215
26 23 18
26 35 37
78 47 41
16 16 13
40 67 58
20 26 18
14 14 16
10 10 12
12 12 14
12 12 14
6 6 21
7 7 9
7 7 9
31 30 23
36 29 22
38 40 26
15 18 18
9 9 11
38 27 39
5 5 7
8 8 10
9 10 26
10 10 16
9 9 11
7 7 9
9 9 11
32 32 24
10 10 12
19 19 16
27 24 19
8 8 10
37 42 32
13 13 15
17 10 42
30 34 30
224 151 224
4 4 7
27 24 25
83 56 64
3 3 5
5 5 7
2 2 4
13 12 51
14 14 12
43 64 48
41 32 24
18 18 13
5 5 7
33 39 17
16 21 23
39 34 20
1 1 6
12 16 32
27 34 24
11 11 8
0 0 2
4 4 7
3 3 9
205 205 205
13 15 32
9 9 11
3 3 10
5 5 7
5 5 7
27 19 20
6 4 21
13 11 21
8 9 18
57 33 37
29 15 22
3 3 5
7 10 34
5 5 7
56 50 36
2 2 4
7 7 8
12 12 14
7 7 9
7 7 9
6 6 12
15 12 36
26 18 19
18 22 13
8 8 10
12 12 14
6 6 8
13 13 15
8 8 14
31 34 26
17 17 14
8 8 10
145 215 145
16 16 18
7 7 10
9 9 11
91 97 63
12 14 26
11 11 13
11 11 13
7 7 9
9 9 11
14 14 16
9 9 11
8 8 10
9 9 11
15 15 17
18 16 28
9 9 11
13 13 15
19 26 17
35 39 39
72 51 39
212 212 212
9 9 11
32 43 28
7 7 9
25 34 25
78 71 49
11 11 19
41 44 32
42 30 44
7 7 9
33 39 45
29 37 37
5 5 7
41 41 31
64 66 44
33 20 20
9 9 11
20 16 12
207 207 207
74 63 53
11 11 13
59 36 43
17 35 24
41 26 29
21 29 22
21 29 22
31 28 21
45 57 40
10 10 12
47 57 64
30 24 30
40 46 57
37 37 23
10 10 10
12 12 14
44 35 44
51 59 37
43 29 40
8 8 10
19 20 43
80 43 50
48 67 96
48 54 47
86 51 54
19 24 25
35 28 23
31 29 23
22 29 21
8 8 10
19 17 38
122 148 56
8 8 10
7 7 9
12 12 14
29 22 23
33 41 24
15 15 17
25 20 26
15 21 23
38 53 53
36 45 45
13 17 19
22 16 18
48 34 34
18 23 23
15 17 17
43 31 29
90 61 47
5 5 7
34 22 25
28 25 33
20 20 16
198 133 133
9 9 11
10 10 12
28 48 39
78 46 46
5 5 7
27 30 35
10 10 12
30 21 22
5 5 7
42 27 38
12 16 16
20 12 12
86 86 105
15 18 18
10 7 10
213 142 99
18 26 19
27 30 23
18 22 22
5 5 7
4 4 6
18 22 22
3 3 5
15 11 11
26 33 28
2 2 4
11 18 25
18 15 15
59 45 26
26 44 28
2 2 4
4 4 6
17 19 17
5 5 7
21 12 12
17 24 17
19 27 20
30 34 22
29 40 23
10 10 12
72 108 50
18 15 13
17 21 14
7 7 9
8 7 16
20 24 20
41 37 23
9 6 7
9 6 7
28 14 15
35 17 17
40 24 44
33 17 23
9 6 8
9 6 8
52 36 29
10 7 8
18 10 11
35 23 18
10 7 8
35 23 18
153 140 96
60 34 21
34 17 24
192 128 90
48 24 19
155 72 72
17 9 10
22 13 12
28 32 22
10 7 8
18 17 20
66 24 43
31 16 19
38 33 20
238 159 159
21 12 12
11 7 8
21 11 10
11 7 8
66 26 33
118 58 45
27 23 19
25 23 16
40 20 28
18 10 10
17 9 9
41 30 18
28 17 16
12 8 9
51 27 37
43 23 28
13 8 10
69 27 29
31 16 17
26 27 27
39 27 33
239 159 159
46 25 29
59 35 48
44 29 23
21 18 15
12 8 10
52 40 30
71 24 28
76 61 44
12 8 10
240 160 160
13 8 10
21 11 15
13 9 10
197 131 131
237 108 108
60 24 29
41 39 24
24 13 14
13 9 10
68 45 34
47 56 31
24 24 17
13 13 10
48 51 31
44 36 24
14 14 17
41 39 21
37 41 23
240 240 160
35 43 32
73 59 29
24 30 16
195 195 130
32 36 19
30 37 17
62 62 32
20 20 14
20 26 18
32 26 18
12 12 9
12 12 10
32 29 26
22 22 16
12 12 9
44 33 23
54 43 40
23 23 17
57 34 23
19 19 13
12 12 9
54 39 34
59 32 21
69 35 34
182 129 84
23 18 13
20 20 15
72 57 29
21 29 14
11 11 9
93 63 37
11 11 8
17 17 13
9 9 8
23 27 18
10 10 8
14 14 10
23 19 14
16 14 12
53 42 33
25 28 14
17 22 15
34 34 17
50 39 18
28 39 27
14 14 10
10 10 8
20 24 16
73 46 28
16 16 12
8 8 8
18 18 13
13 13 10
13 13 10
16 16 12
25 29 15
9 9 7
17 13 24
14 20 13
14 17 10
8 8 7
208 208 208
48 48 35
21 22 17
36 43 30
202 202 94
25 22 19
16 16 14
5 5 7
24 33 25
32 32 20
8 8 10
55 54 26
6 6 8
209 209 209
29 33 19
57 43 40
7 7 9
5 5 7
16 15 32
49 76 43
12 12 10
8 8 10
10 10 12
20 28 30
60 45 29
39 23 33
36 44 59
11 14 16
24 27 21
11 11 13
12 12 14
5 5 7
47 69 32
28 28 23
30 48 34
136 76 39
65 57 53
7 7 9
15 17 11
5 5 7
25 22 22
25 25 21
14 14 16
9 9 11
3 3 5
20 20 16
5 5 7
25 25 22
28 30 37
5 5 7
7 7 9
10 10 12
9 9 11
15 15 17
16 17 32
7 7 9
213 213 213
54 31 45
40 28 42
11 11 13
102 84 50
36 40 36
8 8 10
9 9 11
65 38 54
3 3 5
7 7 9
12 12 15
31 35 29
29 21 31
77 81 39
3 3 5
5 5 5
60 34 41
8 8 16
9 9 11
87 44 59
16 16 117
101 87 56
2 2 4
5 5 7
13 7 30
9 9 11
8 8 15
47 61 39
73 48 59
14 14 14
10 9 21
15 15 19
9 9 11
28 39 133
4 4 11
28 21 27
33 24 25
7 7 9
5 5 11
11 11 13
14 14 37
18 13 20
31 27 18
8 10 22
9 8 33
44 28 25
29 48 26
14 10 35
11 11 13
45 64 37
15 11 13
2 2 25
23 18 19
54 54 41
51 67 44
12 12 14
8 8 10
18 19 34
9 9 11
38 27 28
16 21 16
48 57 40
20 27 21
55 43 39
174 174 119
17 16 32
9 9 15
12 12 14
40 49 28
11 14 29
9 9 11
12 12 14
11 11 13
20 18 17
13 13 15
10 11 15
22 16 24
15 18 32
64 70 43
16 12 18
39 33 25
7 7 9
7 7 9
5 5 7
36 55 39
38 66 34
36 38 26
64 50 44
17 24 17
38 45 39
6 6 8
28 30 30
56 37 27
21 24 18
79 74 55
11 10 22
209 209 209
5 5 7
6 6 8
34 25 26
36 23 26
53 53 35
45 41 38
9 9 11
54 44 62
74 49 38
82 92 46
28 37 39
20 20 17
35 59 27
8 8 10
23 31 20
53 38 48
12 12 14
8 8 10
10 10 12
19 23 26
51 32 31
8 8 10
34 42 28
134 137 137
17 19 19
12 12 14
10 10 12
8 8 10
103 61 51
12 12 14
21 25 27
68 48 38
5 5 7
65 85 36
67 59 43
68 46 35
13 13 15
9 9 11
86 75 69
27 19 19
4 4 6
41 60 35
25 31 22
40 44 34
95 41 50
47 26 32
43 35 46
94 77 61
60 39 67
34 25 20
12 12 14
35 42 51
24 34 36
24 19 19
19 15 17
23 20 20
7 7 9
36 41 23
27 38 40
41 58 42
20 12 12
15 10 11
16 21 29
37 37 26
17 12 18
29 21 23
19 24 18
3 3 5
24 17 15
23 21 21
18 14 15
65 25 29
10 15 15
38 30 30
29 70 35
2 2 4
33 19 27
5 5 7
63 27 25
7 7 7
13 23 16
138 207 207
2 2 4
48 29 23
50 47 41
2 2 4
15 8 8
2 2 4
2 2 4
2 2 4
43 54 32
28 16 16
4 4 6
78 163 110
3 3 5
29 30 23
66 42 33
12 9 10
32 19 18
31 52 37
27 27 21
46 37 28
8 8 10
19 13 13
35 20 25
34 30 24
207 207 207
42 29 25
21 12 12
174 84 89
18 12 13
12 8 9
15 13 11
46 42 24
33 31 28
11 7 8
10 6 8
69 42 32
53 25 86
21 19 13
19 10 14
12 8 8
34 22 18
12 8 9
11 7 8
241 78 109
193 128 128
14 9 10
11 7 9
53 23 34
52 40 29
107 36 28
11 7 9
83 32 54
11 7 8
16 10 11
37 23 20
30 21 16
11 7 9
75 28 40
47 23 26
11 7 9
239 159 159
28 17 24
12 8 9
16 13 14
22 14 13
48 16 23
16 11 12
64 39 51
29 24 25
71 43 51
54 48 30
158 155 155
239 159 159
37 22 17
12 8 10
25 12 15
12 8 10
36 20 29
12 8 9
13 9 10
39 20 27
21 11 15
82 24 28
48 22 24
13 8 10
96 33 40
42 37 27
46 43 36
40 22 23
13 8 10
36 24 20
79 39 47
14 9 10
13 8 10
13 13 10
13 13 10
79 71 61
22 22 16
138 148 68
19 19 13
13 13 10
15 15 11
69 50 29
12 12 10
33 56 25
27 22 15
33 28 14
22 17 12
15 15 11
12 12 10
47 46 22
29 34 17
17 20 28
45 40 23
32 24 17
31 41 19
20 20 14
75 58 32
33 30 17
68 97 35
34 29 21
12 12 9
63 64 40
27 22 18
36 28 19
40 42 22
30 33 17
58 41 39
30 45 26
11 11 9
37 37 17
46 33 27
13 13 19
11 11 8
34 40 24
29 40 21
37 27 19
10 10 8
45 27 22
20 28 19
40 63 35
20 20 12
30 23 21
13 13 10
20 20 12
21 21 13
31 34 16
37 27 18
196 196 130
63 71 35
16 13 9
9 9 7
88 51 51
18 19 35
30 33 19
49 64 22
9 9 7
8 8 11
9 9 7
31 43 19
14 14 10
17 17 12
14 16 17
30 41 43
51 70 31
8 8 10
9 9 7
10 10 9
55 49 47
7 7 9
12 12 14
18 23 13
208 208 208
7 7 9
10 10 12
22 31 23
12 12 14
20 26 27
52 35 45
58 38 46
10 10 12
21 25 20
201 135 135
11 11 9
27 25 21
40 29 41
9 9 11
13 13 20
57 73 33
6 6 8
7 7 9
22 22 31
10 11 30
58 48 48
26 25 19
42 54 39
26 26 22
11 11 13
36 40 25
96 38 39
37 58 44
7 7 9
7 7 9
8 8 9
9 9 11
43 42 39
11 11 13
6 6 8
32 30 64
43 43 32
20 19 28
46 38 27
27 20 21
82 97 59
16 16 16
27 22 23
11 11 13
39 47 55
40 48 47
44 31 38
52 44 33
43 50 60
35 39 27
13 13 21
24 24 25
7 7 9
37 37 28
8 8 12
9 9 11
83 77 79
5 5 7
8 8 13
76 84 53
13 13 27
13 13 15
15 16 31
10 10 13
72 59 42
7 7 9
14 11 35
11 11 13
32 23 24
40 29 29
48 43 27
16 13 14
12 12 14
8 8 10
41 41 32
8 8 10
9 9 10
19 24 20
9 9 16
3 3 4
36 34 25
40 29 48
53 39 50
8 8 10
10 10 16
11 11 22
5 5 5
59 63 43
4 4 11
5 5 7
3 3 9
34 21 34
14 14 16
8 8 10
2 2 5
23 31 24
6 6 9
4 4 8
11 11 13
9 9 11
24 30 24
25 20 20
9 9 11
20 15 20
31 37 19
17 22 19
26 19 19
11 11 13
5 5 8
14 14 16
41 27 30
11 11 13
210 210 210
33 52 37
68 131 51
11 11 13
20 16 22
67 49 39
10 10 12
7 7 9
124 183 183
17 17 14
9 9 11
29 34 24
41 53 37
6 6 15
39 33 39
9 9 11
36 41 29
9 9 11
20 16 17
38 31 28
7 7 9
9 9 12
23 29 25
7 7 9
9 9 11
17 17 13
11 11 13
11 11 13
9 9 11
21 21 18
11 15 12
14 19 18
5 5 7
39 29 41
7 7 9
42 46 33
20 25 21
24 34 25
27 21 19
16 19 16
3 3 6
43 32 27
5 5 7
19 19 20
13 15 14
11 11 13
118 172 118
5 5 8
18 15 13
20 16 16
71 50 61
35 27 25
21 21 19
25 24 49
8 8 10
33 25 33
8 8 10
23 19 26
91 51 56
29 26 29
90 84 54
19 15 19
61 48 64
8 8 10
37 39 27
8 8 10
10 10 12
50 62 43
71 42 70
19 25 37
28 36 38
32 42 57
24 28 28
11 11 13
7 7 9
18 15 15
8 8 10
36 27 28
43 32 43
12 12 14
7 7 9
24 35 32
35 53 41
28 28 21
10 10 12
36 31 27
34 21 24
10 10 12
31 23 31
72 51 38
55 52 38
37 27 27
23 16 17
5 5 7
44 67 49
8 8 8
30 30 20
17 25 18
3 3 5
40 46 59
13 15 18
2 2 4
50 50 36
4 4 18
26 14 14
39 44 24
77 33 47
12 8 8
33 18 27
12 22 14
40 38 31
2 2 4
164 160 109
9 6 6
14 10 15
2 2 4
21 11 11
19 16 16
15 23 25
54 28 19
43 37 23
30 45 63
13 18 13
5 5 7
16 23 24
26 36 20
7 7 9
34 37 25
6 6 8
19 25 20
133 104 65
42 21 23
33 50 37
6 6 8
64 48 35
21 38 35
15 18 17
7 7 9
6 6 8
13 10 16
9 6 8
51 30 35
39 22 18
12 8 9
24 12 13
45 41 32
38 17 20
40 19 16
84 63 49
10 6 8
14 11 10
10 6 8
25 16 14
10 6 8
56 32 23
15 10 11
10 6 8
25 22 20
237 158 158
28 15 13
36 24 20
58 21 31
58 22 25
11 7 9
29 15 15
57 53 28
28 27 21
11 7 9
27 20 16
11 7 9
81 41 42
19 10 11
11 7 9
33 33 21
82 26 42
41 28 22
34 15 15
39 24 24
17 11 12
81 27 41
42 39 22
56 25 33
64 43 34
12 8 9
33 17 22
12 8 9
14 9 14
52 34 34
27 16 19
44 31 19
28 25 26
55 38 23
38 31 29
12 8 9
12 8 10
12 8 10
40 27 27
12 8 9
20 15 15
16 11 12
63 27 27
121 82 81
20 17 14
30 23 28
42 21 21
40 14 16
48 34 21
47 77 43
53 59 29
19 23 13
14 14 16
38 35 21
44 29 21
56 56 27
20 20 15
37 32 24
42 27 17
17 16 25
12 12 9
53 106 44
62 80 47
21 17 12
18 18 13
24 19 17
34 28 19
45 34 21
28 26 15
26 26 14
12 12 9
15 15 11
37 51 22
35 35 19
30 30 17
55 48 29
41 31 21
13 13 13
29 39 20
110 218 107
30 20 13
47 45 18
71 117 40
11 11 9
50 40 31
16 16 12
56 47 44
12 12 9
37 47 17
12 12 9
51 46 25
63 66 45
52 40 42
40 36 21
15 19 12
91 87 42
10 10 8
10 10 11
19 19 14
14 14 11
29 23 15
56 40 23
37 27 19
47 66 38
30 27 26
10 10 8
35 36 20
65 51 27
125 98 52
23 39 26
15 15 11
22 20 36
27 38 26
25 20 18
45 21 18
30 26 16
28 28 15
12 16 17
7 7 9
45 27 27
34 62 44
102 46 32
14 14 12
57 84 45
59 59 34
33 33 19
13 13 15
2 2 6
44 62 48
28 22 23
47 40 48
14 14 16
8 8 10
14 14 16
8 8 10
11 11 13
5 5 7
8 6 17
15 15 15
77 48 56
14 14 13
5 5 7
5 5 7
34 26 36
31 34 23
13 13 10
9 9 11
7 7 9
25 25 21
211 211 211
13 13 13
23 33 24
7 7 9
49 71 35
33 42 28
9 9 11
44 73 58
7 7 9
6 6 8
9 9 11
15 15 26
209 209 209
33 24 26
48 44 39
22 22 19
65 80 59
9 9 11
214 128 141
13 13 15
9 9 11
28 26 18
55 51 63
17 24 23
29 31 19
30 30 30
9 10 19
45 33 34
7 7 9
48 34 50
44 31 33
13 13 15
9 9 12
14 14 16
9 9 14
40 34 28
10 10 13
23 19 23
8 8 10
234 88 170
12 12 22
6 6 8
2 2 4
47 30 50
35 29 25
20 25 19
14 14 16
17 19 32
53 46 33
59 42 38
46 41 36
14 14 16
13 13 33
9 9 11
57 49 32
11 11 17
5 5 7
11 11 17
10 10 12
11 11 28
10 10 12
9 9 20
6 6 6
14 13 40
6 6 10
41 61 33
9 10 17
29 48 33
35 49 29
25 47 26
61 55 31
62 70 33
43 43 146
8 8 10
4 4 9
70 55 42
6 6 9
7 7 9
37 31 52
70 30 47
12 12 18
11 15 12
10 10 12
27 31 30
10 10 12
36 50 31
37 37 27
100 57 52
24 18 18
9 9 11
15 15 17
124 97 63
9 9 9
91 100 64
118 50 57
29 40 95
37 35 32
158 110 62
39 23 25
6 6 8
5 5 7
12 12 14
6 6 8
24 31 25
66 52 59
22 28 30
15 11 15
22 22 21
7 7 9
11 11 13
5 5 7
9 9 11
7 7 9
11 11 23
23 17 19
84 75 53
9 9 11
31 25 31
34 50 52
27 37 38
34 38 33
10 10 12
58 42 37
7 7 9
7 7 9
7 7 9
9 9 11
42 29 24
47 33 47
5 5 7
17 21 18
12 12 14
12 12 14
76 157 108
11 11 13
7 7 9
28 47 34
5 5 7
25 19 27
47 74 39
50 59 41
7 7 10
10 10 12
34 35 35
47 47 36
23 21 55
39 48 43
21 18 18
8 8 10
18 25 26
12 12 12
6 6 8
10 10 12
33 25 35
12 12 14
34 47 46
29 22 29
18 14 18
25 25 20
14 14 16
4 4 6
55 42 37
41 33 41
10 10 12
64 48 54
31 23 21
5 5 7
27 32 22
37 40 29
16 22 22
213 213 213
92 69 68
7 7 9
79 109 61
211 211 211
9 9 11
72 72 53
5 5 7
26 55 32
5 5 7
78 76 32
7 7 9
18 25 25
19 14 14
79 69 43
11 9 10
29 42 33
75 41 59
11 14 14
17 11 11
3 3 5
2 2 4
6 6 8
34 34 24
35 21 17
26 20 18
39 22 22
158 163 163
19 16 13
16 16 18
20 29 21
13 9 9
20 11 13
204 204 204
23 20 17
0 0 0
11 7 7
21 32 34
36 21 19
17 14 14
42 46 53
31 29 23
15 10 11
6 4 4
51 25 23
35 33 22
41 34 22
16 12 12
59 62 41
27 24 21
25 14 14
5 5 7
4 4 6
21 21 17
5 5 7
14 10 10
4 4 6
8 9 17
64 54 38
23 25 15
67 33 57
30 33 27
13 10 11
6 6 8
24 14 17
5 5 7
90 86 34
44 22 40
9 6 7
52 35 26
62 39 33
59 19 22
11 7 8
60 35 25
102 68 36
44 27 18
83 28 28
10 6 8
17 11 19
27 14 15
10 7 12
10 7 8
24 21 23
46 24 26
14 9 11
32 32 19
194 129 129
11 7 8
23 18 15
10 7 8
99 70 48
85 50 40
17 14 13
27 20 14
87 46 37
18 12 11
27 18 15
18 12 13
146 100 69
51 27 25
17 13 13
40 16 20
59 28 24
27 14 14
68 39 25
41 34 28
16 10 12
12 8 9
29 26 23
12 8 9
32 16 23
12 8 9
28 18 17
55 36 28
14 9 10
48 37 27
12 8 9
12 8 10
10 7 7
64 37 53
23 12 13
25 18 18
28 18 20
12 8 10
51 34 27
51 48 32
13 8 10
13 8 10
13 8 10
13 8 10
16 11 12
28 23 21
35 27 19
27 27 16
49 67 29
13 13 10
33 49 24
31 24 17
12 12 10
123 151 58
13 13 10
20 20 14
16 16 11
13 13 8
12 12 9
239 239 159
115 72 43
15 15 11
63 66 54
21 26 14
24 34 23
20 20 14
60 68 50
11 11 9
21 21 15
40 27 18
19 16 11
36 33 19
52 40 34
17 21 12
15 17 10
28 24 16
11 11 9
11 11 9
25 25 15
70 101 54
11 11 9
54 59 26
20 20 14
10 10 8
10 10 8
32 30 18
58 60 29
43 54 21
52 40 34
40 52 24
16 16 12
222 151 100
12 12 9
10 10 8
13 13 10
32 37 19
28 33 15
48 39 25
14 14 10
9 9 8
21 21 18
9 9 8
20 20 12
45 30 23
9 9 7
9 9 8
18 18 10
43 37 15
36 44 18
43 50 41
26 32 18
46 38 25
7 7 9
6 6 8
16 16 12
17 17 14
8 8 10
19 21 16
61 50 51
23 18 25
53 53 33
49 39 39
20 14 16
29 23 24
7 7 9
50 50 37
6 6 8
8 8 10
40 37 35
77 50 57
27 27 22
10 10 12
32 38 28
210 210 210
28 28 23
32 29 24
100 85 34
7 7 9
75 47 62
22 22 19
34 34 27
48 65 38
3 3 5
9 9 11
5 5 7
3 3 5
12 12 14
10 10 8
25 25 18
24 23 29
57 54 30
35 46 46
9 9 11
54 85 40
12 12 14
29 35 26
20 23 44
11 11 13
11 11 13
9 9 11
19 11 16
7 7 9
41 41 32
21 21 15
55 67 35
31 39 39
71 38 59
28 27 19
5 5 7
30 24 35
13 13 16
36 36 24
43 43 31
9 9 11
39 39 30
12 12 14
12 11 41
8 8 8
39 37 24
8 8 10
9 9 11
41 52 38
9 9 11
20 30 41
6 6 8
28 25 23
211 211 144
60 31 34
12 12 14
4 4 6
15 15 17
10 9 16
4 4 6
46 32 47
11 11 14
12 15 35
7 7 18
12 14 20
10 10 12
49 28 40
28 37 32
9 9 11
10 10 14
11 11 13
11 11 21
11 11 13
11 11 13
12 12 14
5 5 9
8 8 10
71 75 46
18 18 15
7 7 13
9 9 16
7 7 9
52 59 41
36 36 28
38 30 22
14 14 16
13 13 11
24 31 22
31 55 38
29 24 20
13 13 17
14 13 13
30 22 23
14 14 16
212 212 212
14 18 15
14 14 16
27 33 27
212 144 144
3 3 9
11 11 13
9 9 17
38 27 19
52 37 46
56 33 46
51 62 40
211 211 211
36 30 30
62 52 42
40 42 23
11 11 34
9 9 11
193 135 133
25 23 19
50 41 37
14 14 10
44 44 34
11 15 17
24 24 21
9 9 11
33 33 25
33 40 39
9 9 11
11 11 13
36 36 134
14 16 21
10 10 12
14 13 24
14 17 15
13 13 15
68 117 85
27 39 23
81 60 68
45 32 28
7 7 10
53 57 30
9 9 11
22 29 31
19 26 19
13 18 14
9 10 21
18 27 27
7 7 9
11 11 13
7 7 9
30 43 36
12 11 23
74 59 43
238 238 161
70 107 48
10 10 12
171 171 116
36 27 38
34 28 40
6 6 8
8 8 10
8 8 8
25 39 27
19 23 20
35 27 37
28 33 23
174 174 174
87 63 73
24 24 19
6 6 8
4 4 6
125 255 255
26 32 34
44 54 59
35 25 37
10 10 12
8 8 10
25 34 26
13 13 13
14 17 19
8 8 10
18 16 34
36 47 50
255 189 131
11 11 13
5 5 7
66 90 80
29 25 25
29 29 46
38 38 27
82 180 180
52 33 41
4 4 6
42 55 27
57 47 46
25 21 21
20 20 16
47 30 35
30 30 23
15 12 12
15 20 20
17 17 13
17 32 24
5 5 7
10 10 10
28 28 21
20 21 26
25 16 21
3 3 5
19 27 20
13 10 10
184 121 255
2 2 4
5 5 7
2 2 4
17 20 20
23 23 15
33 49 36
14 34 25
33 76 76
9 6 6
28 39 26
2 2 4
31 65 33
14 9 14
42 32 25
3 3 3
41 27 23
21 29 20
8 8 10
6 6 8
59 28 36
20 28 21
41 25 34
72 32 33
4 4 6
21 20 16
27 42 27
6 6 9
5 5 7
20 14 15
24 18 15
32 23 34
38 26 28
35 20 26
15 24 17
49 49 36
6 6 8
8 8 10
5 5 7
46 55 47
4 4 6
6 6 8
115 171 171
19 11 12
9 6 7
128 125 85
19 13 10
12 7 15
24 19 14
20 11 43
27 16 14
26 21 19
18 10 17
27 23 23
52 45 29
30 15 14
10 6 8
11 7 8
192 128 128
24 12 17
27 11 13
44 18 20
11 7 11
17 14 12
12 8 9
37 21 21
39 20 17
54 33 25
32 16 14
57 30 38
38 21 24
68 27 36
29 17 44
46 34 34
11 7 9
11 7 8
61 46 29
21 15 14
199 133 133
25 21 16
22 15 14
16 10 22
21 18 14
16 9 9
15 9 9
45 22 31
18 10 10
197 131 131
87 27 41
173 56 79
22 12 11
29 32 27
44 41 30
18 10 10
40 19 16
43 54 35
24 14 14
28 24 19
89 46 45
12 8 9
30 16 16
12 8 10
32 24 20
34 27 29
13 8 10
32 17 23
13 8 10
17 17 12
15 15 19
54 59 35
18 18 13
116 228 73
24 19 14
82 107 41
104 97 37
52 44 30
28 22 16
12 12 9
21 21 15
20 20 14
35 43 28
12 12 9
12 12 9
47 47 24
37 35 18
11 11 9
28 33 23
29 39 27
50 37 25
76 51 42
51 41 31
15 17 28
44 26 22
26 23 13
23 19 13
14 14 10
26 26 14
15 15 18
26 22 15
17 17 12
55 40 32
10 10 8
43 41 23
15 15 11
87 41 29
28 32 44
188 129 125
22 22 13
26 23 20
18 23 13
38 73 55
9 9 8
88 50 53
19 19 12
88 61 34
10 10 8
43 55 23
25 25 14
29 29 17
97 48 34
50 35 31
18 18 10
22 19 11
57 40 31
49 42 28
74 60 39
17 17 10
137 192 64
53 53 128
39 36 19
56 91 48
25 30 16
28 19 30
28 37 21
5 5 7
23 16 24
21 21 13
21 30 21
48 58 24
210 210 210
120 176 120
32 31 26
18 16 11
25 36 38
18 20 16
25 32 17
30 39 41
11 11 13
46 40 23
5 5 7
24 39 34
35 46 23
47 33 27
15 14 17
25 21 17
20 23 18
15 15 13
36 32 23
28 32 26
12 12 14
13 13 20
19 19 15
30 28 20
26 23 20
30 21 32
7 7 9
23 30 19
20 20 17
10 10 12
90 72 43
13 13 15
92 58 36
7 8 19
22 20 19
16 16 15
6 6 10
41 24 32
17 17 19
30 22 32
7 7 9
27 36 17
8 8 10
11 11 13
79 49 39
20 26 28
14 14 16
14 15 23
23 34 36
13 12 25
13 13 15
7 7 9
33 38 29
36 30 23
35 35 24
20 18 15
42 53 53
45 28 29
12 12 14
25 19 20
47 32 45
38 41 30
41 41 31
15 15 17
9 9 13
8 8 10
8 8 10
12 12 14
10 10 12
59 73 57
8 8 10
33 37 27
9 9 13
65 45 72
6 6 8
37 26 21
10 10 14
3 3 5
39 39 29
56 91 48
12 12 14
20 20 17
84 84 51
14 13 25
10 10 12
2 2 4
11 11 13
34 56 62
12 12 14
9 8 16
12 12 13
38 46 30
30 42 25
42 31 44
56 39 52
27 27 23
28 38 40
10 10 12
19 24 20
36 30 23
8 8 10
22 18 24
209 209 209
42 29 22
14 15 32
10 10 13
11 9 26
18 18 29
5 5 7
25 25 22
15 15 16
209 209 209
11 13 26
75 48 56
4 4 6
8 8 10
49 33 45
11 11 18
14 14 16
7 7 12
31 23 24
7 7 9
32 26 20
16 16 18
208 208 208
45 35 25
80 61 39
20 19 24
40 56 101
8 8 10
34 30 23
32 24 34
28 24 30
14 14 16
19 22 44
6 6 13
8 8 10
9 9 11
13 13 15
17 20 21
20 25 38
11 11 13
38 38 29
216 147 147
31 51 40
10 10 10
12 12 20
9 9 11
24 24 17
38 32 24
34 36 33
230 230 154
51 46 38
11 11 13
35 51 27
5 5 7
47 40 40
65 62 49
108 113 67
13 16 18
34 31 26
22 22 16
14 19 15
8 9 13
39 58 45
47 66 37
26 32 25
45 32 42
138 144 68
7 7 9
9 9 11
14 14 16
52 41 39
8 8 10
10 10 12
45 32 27
62 57 43
8 8 10
6 6 8
8 8 22
32 34 23
126 184 126
32 27 39
28 34 34
30 48 40
36 30 40
32 24 32
33 38 42
62 65 51
42 31 38
210 210 210
13 11 11
34 24 36
16 16 14
101 75 44
27 21 22
16 13 14
41 53 64
5 5 8
20 16 16
26 22 20
7 7 9
15 12 13
11 11 13
5 5 7
3 3 5
66 57 63
30 45 34
29 17 21
5 5 7
24 17 18
71 80 43
3 3 5
51 26 41
40 30 27
2 2 4
5 5 7
18 11 13
28 32 25
19 16 10
29 31 18
32 21 23
2 2 4
23 24 29
22 15 15
2 2 4
34 20 34
28 13 14
27 24 16
6 4 4
34 23 36
20 13 14
37 64 28
44 36 24
2 2 4
56 87 60
24 27 22
21 30 22
39 31 32
30 51 47
22 18 25
20 15 16
7 7 9
58 56 39
4 4 6
14 11 13
6 6 8
39 56 44
19 27 34
65 55 33
43 39 44
20 14 14
60 26 35
18 12 12
11 8 10
29 39 25
18 14 15
18 33 24
18 13 14
45 64 37
10 7 8
31 19 18
6 6 8
12 9 10
19 15 14
49 46 26
12 8 9
58 20 22
24 12 12
9 6 8
30 17 15
237 158 158
11 7 9
18 10 10
159 106 73
13 8 8
73 34 40
58 42 28
34 23 29
55 52 43
21 13 11
13 8 9
29 23 14
45 19 23
162 152 74
58 30 23
15 12 13
91 36 30
37 31 20
65 43 25
15 12 14
15 10 11
43 21 18
14 9 10
11 7 9
37 18 26
19 16 14
20 11 14
11 7 9
41 27 22
40 17 20
29 15 20
15 11 20
57 34 30
25 18 17
24 11 13
46 27 20
31 27 25
21 14 12
83 39 50
44 18 15
26 23 18
16 10 12
66 46 23
30 19 15
24 15 19
20 17 14
16 12 11
201 134 134
19 11 11
48 23 33
44 40 24
17 11 11
12 8 9
41 34 22
13 8 10
13 8 10
21 11 11
27 22 15
42 66 32
47 46 26
21 18 15
27 48 26
12 12 10
69 69 35
20 20 14
12 12 10
45 55 29
13 13 12
21 21 15
44 52 22
27 36 25
33 41 21
79 72 45
61 42 48
16 16 12
49 62 29
55 42 26
40 30 21
34 36 24
35 26 18
12 12 9
80 49 52
255 173 108
16 16 12
31 41 25
48 55 20
18 16 19
98 36 33
11 11 10
38 35 19
11 11 9
22 22 16
58 66 21
64 38 31
17 17 12
22 22 16
11 11 8
18 22 16
10 10 8
24 18 13
18 18 13
66 44 25
25 27 19
65 45 27
18 18 13
28 32 17
10 10 8
36 39 17
18 14 10
24 31 17
27 25 20
9 9 10
9 9 7
16 16 12
46 74 42
45 32 22
54 77 35
64 38 29
26 28 18
9 9 11
49 53 33
27 36 19
20 20 16
23 33 23
29 38 20
48 48 102
16 12 18
83 76 53
43 59 50
15 15 11
66 60 32
6 6 8
20 20 17
32 40 39
3 3 5
24 24 16
46 56 54
31 52 23
10 10 8
21 21 20
5 5 7
10 10 12
33 45 18
34 38 27
48 51 34
26 26 21
5 5 7
52 73 58
17 16 20
51 52 37
68 39 46
65 75 89
37 50 30
24 24 25
28 35 25
50 54 46
16 16 14
18 18 15
29 40 42
9 9 11
9 9 11
23 23 19
211 211 211
131 91 36
54 40 33
58 58 43
7 7 9
42 36 45
8 8 10
25 29 23
36 27 38
8 8 12
49 53 37
54 58 48
37 39 39
14 17 29
101 90 58
45 51 31
56 49 40
49 34 35
10 10 12
12 12 36
40 48 29
9 9 15
10 10 18
214 214 214
160 152 59
14 14 16
36 40 34
210 210 210
4 5 12
10 10 12
11 11 19
14 18 20
10 10 18
8 8 15
12 12 14
21 26 20
12 12 14
23 23 18
10 10 12
17 20 29
74 57 46
24 17 18
43 62 48
28 32 23
43 36 25
220 153 77
12 12 14
16 12 17
12 12 15
62 56 38
15 19 18
87 67 42
40 29 30
12 12 21
40 31 32
12 12 20
6 6 8
8 8 11
42 50 59
60 39 58
31 31 23
45 61 51
12 11 21
13 12 29
33 33 27
30 46 26
12 12 14
10 10 12
37 63 39
10 10 12
35 26 27
7 7 10
30 33 23
152 162 152
7 7 9
6 6 8
7 7 9
40 33 26
17 13 19
7 7 12
6 6 8
7 7 9
33 25 26
57 49 36
12 17 14
29 35 30
95 86 61
45 49 56
58 58 43
9 9 11
26 28 27
46 28 28
35 40 35
4 4 6
11 11 13
20 17 18
55 34 49
27 19 19
211 143 143
14 17 15
11 11 11
211 211 211
26 26 21
8 8 10
97 76 52
29 21 31
31 31 27
100 92 65
7 7 9
10 10 12
15 12 13
216 216 216
26 23 47
89 69 39
10 10 13
45 52 37
11 9 11
18 22 19
40 32 27
37 26 26
42 26 30
49 52 57
7 7 9
162 111 111
9 9 11
143 211 143
39 46 43
124 95 58
31 59 34
49 33 28
8 8 11
2 2 7
142 211 142
212 212 212
10 10 12
45 39 39
37 43 32
51 51 35
35 53 31
9 9 12
10 10 12
25 31 26
25 19 19
30 43 34
25 18 24
21 27 22
20 17 20
12 12 14
26 36 51
10 10 12
51 45 36
31 25 26
14 14 16
8 8 10
24 30 30
21 31 24
10 10 12
26 24 22
59 26 34
214 214 146
11 11 13
7 10 12
96 45 57
9 9 12
6 6 8
32 27 25
73 107 40
48 108 58
49 31 40
7 7 9
21 36 31
37 31 37
74 34 48
26 34 35
15 11 12
3 3 6
33 47 38
24 19 13
30 20 33
2 2 4
24 17 26
133 200 133
205 94 137
22 40 32
160 106 106
27 20 29
9 14 16
50 26 33
14 9 10
19 10 10
2 2 4
39 22 33
2 2 4
54 47 68
38 53 49
15 10 10
49 46 46
15 10 10
27 24 22
2 2 4
23 29 23
41 30 33
19 14 15
4 4 6
18 17 18
20 14 15
205 205 205
7 7 9
16 22 24
11 10 10
4 4 6
85 88 60
12 9 9
6 6 9
11 8 9
6 6 8
7 7 9
28 17 20
23 15 13
20 29 30
4 4 6
163 110 110
6 6 8
32 20 22
47 47 33
18 24 19
16 11 11
12 9 11
255 81 119
22 15 15
6 6 8
3 3 5
17 16 13
185 84 123
28 14 14
15 10 11
14 12 9
25 14 16
17 14 14
84 63 41
25 23 23
130 85 85
19 19 15
55 42 26
34 19 15
16 14 12
51 28 40
10 7 8
59 38 18
93 26 23
13 8 9
41 22 24
25 23 17
20 13 13
31 42 30
39 41 36
30 23 17
24 12 17
48 20 21
232 105 105
15 10 11
39 17 15
11 7 9
22 14 12
15 12 12
11 7 9
11 7 9
11 7 8
9 6 6
11 7 9
11 7 8
31 28 21
12 8 9
28 23 23
35 23 18
59 38 39
18 15 13
12 8 9
21 17 19
43 19 18
49 38 23
52 33 23
59 47 30
12 8 9
43 60 32
17 11 12
34 18 18
12 8 12
46 33 22
12 8 10
127 73 39
26 14 27
31 18 17
22 13 13
46 22 25
12 12 10
17 20 15
45 46 36
29 39 20
120 57 43
37 46 32
21 21 12
48 81 44
35 53 17
33 25 16
239 239 159
13 13 10
12 12 9
16 16 12
13 13 10
12 12 9
14 14 11
29 29 15
22 17 11
20 25 18
24 19 14
11 11 9
37 44 22
70 70 35
34 34 35
11 11 9
66 79 57
61 56 26
16 16 12
48 38 26
90 80 38
37 37 25
52 49 27
22 23 34
11 11 11
75 48 35
237 237 158
16 16 12
18 18 13
42 43 21
13 13 9
26 36 20
13 13 10
25 33 23
33 45 22
39 49 30
29 40 24
14 14 10
38 24 14
58 78 42
47 34 21
36 36 25
14 14 11
9 9 7
22 17 12
28 28 18
38 28 19
52 51 26
61 65 26
14 14 11
16 16 12
16 16 14
10 10 12
46 40 26
10 10 13
74 71 31
48 48 27
14 14 13
6 6 8
5 5 7
50 50 95
10 10 12
47 50 26
31 24 33
130 185 91
8 8 10
38 31 38
11 11 13
62 77 48
12 12 14
66 44 50
20 20 18
13 13 22
16 16 15
7 7 9
9 9 11
22 22 14
45 55 39
24 24 18
21 21 19
15 16 16
48 41 29
11 11 13
7 7 9
111 164 111
12 12 14
24 21 22
8 8 10
21 29 31
50 32 32
33 35 27
54 42 28
20 20 25
62 37 52
12 12 17
25 25 14
26 38 38
29 23 23
32 32 23
13 13 15
11 11 13
34 34 32
8 8 12
11 11 13
8 8 10
60 51 42
8 8 27
9 9 11
54 66 34
72 82 44
12 12 14
47 59 53
41 56 24
15 15 13
29 35 21
40 46 25
5 5 7
19 19 18
18 18 15
19 30 22
12 14 23
14 14 29
30 23 32
55 40 37
9 9 11
23 18 24
39 35 25
14 14 16
8 8 14
12 12 14
14 14 16
54 36 50
43 43 31
26 26 21
13 13 30
43 33 33
9 9 11
14 13 24
35 27 28
12 12 14
23 31 20
38 43 39
30 23 30
14 14 16
7 7 9
12 12 14
12 12 14
58 35 49
44 44 142
17 17 18
8 8 11
12 12 16
74 51 41
30 40 31
64 41 57
8 8 10
43 50 32
61 45 62
30 23 24
54 45 31
8 8 10
12 12 14
29 40 30
14 14 16
12 12 14
57 42 51
8 8 10
19 19 21
10 10 12
11 11 14
14 14 16
27 34 25
8 8 10
17 17 19
57 61 36
34 53 39
10 10 12
87 42 56
35 44 34
8 8 10
30 30 24
54 63 41
11 11 24
31 43 29
9 9 11
7 7 9
10 10 12
10 10 12
10 10 12
24 32 20
32 46 32
5 5 7
10 10 12
25 20 27
55 35 40
18 23 20
15 15 17
11 11 18
10 10 12
65 65 45
103 61 57
63 56 43
12 12 14
8 8 10
3 3 5
7 7 9
9 9 11
58 46 33
56 34 39
33 51 28
49 37 48
5 5 7
36 29 32
9 9 11
17 23 17
9 9 11
28 21 22
26 16 35
12 12 14
17 15 15
19 21 19
7 7 9
7 7 9
22 16 23
10 10 17
43 46 34
22 25 17
40 28 23
19 15 16
30 21 24
35 39 36
50 61 34
28 22 23
32 51 30
31 40 40
13 13 15
3 3 6
198 196 94
35 25 23
19 23 23
13 13 17
136 203 192
67 76 84
6 6 6
6 6 8
74 37 42
39 39 28
44 27 27
6 6 8
29 19 19
19 20 18
11 11 11
42 33 25
21 21 16
46 34 34
34 42 29
17 20 20
8 8 8
70 69 32
97 56 88
10 10 10
22 16 16
26 16 18
22 17 22
34 43 68
23 26 23
46 28 31
5 5 7
35 23 35
15 10 11
2 2 4
24 16 16
57 43 29
54 32 28
17 11 13
22 20 21
46 43 37
9 13 12
5 4 17
35 53 26
28 36 24
55 22 26
29 24 24
2 2 4
44 26 23
10 16 18
2 2 4
15 23 14
18 12 18
33 24 20
17 15 11
2 2 4
13 8 9
48 31 25
2 2 4
3 3 5
7 7 9
6 6 8
12 10 11
39 58 40
29 26 37
49 39 52
4 4 6
21 16 17
8 8 10
19 14 21
39 35 26
3 3 5
3 3 5
25 17 18
55 25 53
18 14 19
6 6 8
26 21 19
39 28 22
8 8 10
14 11 12
15 11 10
3 3 5
49 73 50
26 23 19
207 207 207
4 4 6
31 40 28
26 19 15
74 35 51
34 40 35
208 208 208
40 20 21
13 10 12
21 13 12
77 45 24
29 26 28
112 79 45
78 44 31
10 6 8
37 24 19
33 20 16
24 12 16
28 25 22
24 16 15
237 158 158
12 8 9
108 37 57
18 11 14
38 20 23
35 28 23
18 10 11
43 47 32
23 12 12
21 12 13
22 12 29
80 52 35
11 7 9
11 7 9
54 32 22
13 8 9
11 7 8
31 31 22
39 19 27
13 9 10
36 18 18
33 27 26
238 159 159
11 7 9
30 29 42
33 30 31
37 31 17
70 33 25
30 23 18
12 8 9
27 14 19
41 36 29
13 9 10
12 8 9
16 11 12
22 12 16
12 8 9
16 10 12
13 8 10
26 14 18
19 11 14
12 8 9
53 53 42
24 20 18
82 28 42
81 38 29
12 8 10
12 8 9
13 8 10
32 39 27
26 26 16
26 30 21
40 30 21
19 19 13
25 23 22
30 40 21
28 33 22
66 47 26
67 29 22
44 31 18
17 17 13
239 239 159
64 47 34
59 43 54
31 24 15
12 12 9
24 17 12
59 61 25
89 55 43
19 19 14
192 192 128
31 24 17
22 17 12
20 18 23
20 20 14
11 11 9
11 11 8
41 41 28
51 41 26
25 30 20
39 49 30
50 67 39
51 67 32
17 17 13
10 10 8
93 65 35
27 27 15
237 237 158
14 17 13
15 18 11
39 42 20
10 10 8
56 99 44
45 40 23
23 23 13
9 9 8
29 28 15
28 20 15
26 36 18
17 17 12
9 9 7
68 40 30
54 37 21
71 55 25
20 20 12
14 14 11
8 8 7
28 36 27
19 15 16
28 34 22
10 10 12
51 51 32
10 10 12
16 16 15
36 63 39
12 12 14
23 21 20
66 37 44
9 9 11
79 107 57
34 41 30
53 58 36
11 11 13
14 14 16
10 10 12
11 11 13
39 29 29
29 20 16
23 17 28
33 24 35
195 195 132
21 21 18
69 102 63
9 9 11
14 14 16
20 28 30
17 15 57
56 43 29
9 9 11
35 33 22
32 25 21
6 6 14
24 32 34
29 21 19
213 213 213
13 13 15
7 7 9
22 32 28
66 51 24
7 7 9
29 46 28
6 6 8
20 20 17
30 33 45
19 22 17
7 7 10
5 5 7
24 32 27
14 10 12
8 8 10
44 34 26
64 83 51
11 11 13
140 208 140
25 29 25
31 38 29
18 18 16
61 39 49
6 6 8
68 68 50
54 54 32
21 21 18
57 37 39
12 11 17
22 19 17
9 9 11
11 11 19
18 18 15
3 3 6
31 23 24
12 15 17
7 7 9
17 17 16
34 34 26
220 154 151
7 7 9
19 21 16
18 18 15
77 94 55
57 40 52
12 12 14
78 52 55
8 8 10
16 16 15
12 12 14
11 11 18
17 23 18
39 53 33
12 12 13
216 216 216
14 14 16
7 7 11
35 30 19
43 31 57
37 30 40
118 72 90
74 65 49
5 4 10
6 6 8
10 10 12
40 30 31
64 38 50
8 8 10
47 50 94
9 9 11
15 16 27
45 39 28
31 26 25
4 4 6
34 40 31
29 22 23
9 9 13
12 12 14
47 63 38
12 12 14
26 24 22
8 8 10
12 12 14
30 38 31
55 57 49
12 12 14
32 55 41
16 16 18
7 7 9
211 211 211
14 14 16
73 49 42
6 6 8
83 40 48
32 28 28
15 17 15
212 212 212
14 14 16
6 6 8
14 14 16
22 41 20
45 44 35
36 28 29
43 36 31
66 68 44
5 5 7
16 12 14
12 12 14
35 38 33
7 7 9
25 34 36
22 22 18
19 23 19
56 40 30
77 49 45
76 55 52
154 215 106
11 11 26
11 11 13
212 212 212
12 12 14
19 14 15
11 11 13
6 6 8
19 15 21
26 27 22
13 13 15
27 38 74
33 28 28
13 13 15
5 5 7
22 27 27
9 9 11
49 56 49
7 7 9
33 31 28
30 30 25
11 11 13
14 11 13
11 11 13
9 9 11
9 9 11
16 26 16
16 14 12
36 28 23
9 9 11
13 17 15
17 13 13
37 63 35
25 19 20
39 28 30
19 19 15
32 23 23
78 85 54
68 50 67
183 198 141
83 65 121
23 33 46
63 37 37
22 15 20
30 52 41
8 8 10
7 7 4
29 25 29
23 14 23
20 14 15
69 43 52
69 50 33
29 24 24
34 42 46
6 6 8
5 5 8
4 4 6
19 11 11
10 12 10
130 194 130
8 13 13
38 38 27
36 45 37
39 26 36
60 44 32
3 3 11
28 19 17
10 14 16
23 23 17
45 26 31
15 19 23
2 2 4
0 0 0
23 40 33
9 9 9
31 24 20
10 7 8
36 31 23
2 2 4
25 16 26
14 22 12
67 135 46
15 10 11
2 2 4
2 2 4
23 34 34
71 42 63
22 15 16
8 12 9
17 21 21
19 15 15
11 9 7
40 37 32
7 7 9
32 28 18
28 15 19
12 16 18
19 31 17
45 44 29
6 6 8
40 36 32
38 27 28
5 5 7
5 5 7
38 22 26
30 24 28
7 7 9
10 8 8
12 17 17
23 53 19
5 5 7
10 14 11
81 70 48
62 37 45
54 25 24
22 16 14
26 20 18
38 38 42
36 28 22
5 5 7
33 40 37
9 12 10
20 24 25
11 14 16
16 12 13
10 7 8
6 6 8
38 24 20
7 7 9
42 30 17
32 17 15
24 12 13
25 14 12
19 11 15
53 17 25
25 20 12
33 28 40
18 14 12
25 17 14
48 21 25
13 8 10
84 32 47
70 28 32
40 30 17
37 19 16
52 24 20
16 13 16
14 9 10
35 40 25
13 9 9
11 7 8
39 17 16
66 35 36
15 10 10
204 136 136
11 7 9
11 7 8
19 12 14
20 12 11
48 47 27
73 37 33
37 28 26
20 13 14
28 14 15
43 37 31
12 8 9
32 23 20
54 32 39
151 148 101
239 159 159
23 14 18
35 18 25
18 10 10
35 23 19
63 77 46
25 20 20
66 38 31
46 39 48
39 19 27
37 28 33
12 8 9
45 43 32
40 39 39
26 15 15
30 24 23
12 8 10
17 10 10
57 35 27
18 18 13
73 46 33
32 38 20
12 12 9
46 41 22
43 36 30
19 19 14
20 20 14
17 17 14
27 33 18
59 43 25
87 67 51
79 36 26
26 33 42
18 18 10
42 32 29
43 32 27
28 37 19
47 47 22
32 50 31
40 44 22
11 11 9
80 70 39
11 11 9
23 23 14
22 28 20
26 26 37
62 45 25
48 34 29
13 12 19
11 11 8
33 38 17
46 57 26
10 10 8
16 16 12
42 34 29
10 10 8
21 21 12
21 24 15
13 13 10
15 15 11
27 36 22
34 25 18
66 33 32
35 35 20
21 21 15
42 30 21
33 47 40
33 33 16
23 31 19
10 10 12
12 12 9
49 30 16
40 68 31
13 13 10
14 14 11
66 57 29
107 154 105
28 28 18
8 8 10
5 5 7
71 49 61
31 28 21
10 10 12
52 86 50
7 7 9
9 9 11
13 13 12
18 23 13
57 45 48
46 52 38
13 13 11
33 32 21
34 25 27
41 50 28
23 23 19
40 46 25
21 26 47
17 17 14
5 5 7
19 16 17
4 4 6
25 25 20
25 25 20
5 5 7
18 18 16
32 23 34
20 20 17
39 39 30
15 16 23
7 7 9
12 12 14
7 7 9
7 7 9
16 13 14
11 11 13
28 37 39
16 16 15
6 6 12
15 15 13
11 11 13
23 23 18
11 11 13
9 9 11
30 22 32
29 33 24
5 5 7
47 27 38
23 21 16
30 22 18
7 7 9
30 23 25
56 46 46
11 11 13
5 5 7
67 67 49
14 14 29
6 6 8
13 13 14
15 15 26
18 22 20
14 14 16
32 32 25
78 65 43
41 32 43
10 10 12
12 12 14
8 8 10
8 8 10
32 32 25
47 60 32
5 5 7
12 12 19
28 22 29
11 11 13
39 28 40
14 14 31
8 8 10
23 30 24
83 58 38
6 6 8
59 59 44
4 4 8
73 45 94
9 9 11
10 10 12
8 8 10
24 32 33
146 104 99
17 17 16
15 15 42
29 21 22
8 8 10
9 9 31
11 11 20
14 14 16
46 36 49
23 19 17
208 208 208
118 91 102
5 5 7
14 14 27
6 6 12
45 47 52
98 57 43
16 20 16
44 34 25
3 3 6
32 36 41
59 54 37
24 19 24
28 21 22
11 11 13
25 39 30
10 10 12
11 11 13
12 12 14
14 14 16
11 11 13
23 32 25
14 14 16
35 42 30
210 210 210
16 16 18
9 9 11
24 24 43
49 58 44
5 5 7
10 10 12
47 47 34
4 4 6
35 57 41
9 9 11
28 38 37
116 130 47
37 25 27
70 58 44
11 11 13
46 46 34
17 14 15
52 33 30
43 43 33
56 40 58
33 29 36
12 12 14
12 12 14
44 44 32
16 22 17
38 65 45
23 19 24
8 8 10
21 25 21
119 173 119
23 24 22
11 11 13
34 42 32
7 7 9
15 20 106
10 10 12
12 12 12
19 19 15
205 147 100
23 30 24
16 13 12
31 23 23
6 6 8
25 20 21
36 27 24
11 11 13
15 11 12
27 21 22
11 11 13
23 18 25
53 36 29
9 9 11
23 33 24
13 13 15
19 16 17
30 22 20
9 9 11
33 22 23
10 14 10
13 13 15
68 68 56
8 8 10
5 5 7
6 6 7
7 7 9
40 22 28
41 50 36
7 7 9
38 30 31
78 93 90
80 33 34
21 15 15
9 12 14
22 32 26
34 42 28
16 12 11
2 2 4
20 13 37
2 2 4
48 22 29
35 25 23
3 3 5
11 16 18
29 29 21
17 25 27
9 6 7
68 57 46
84 59 69
29 38 36
3 3 5
52 46 41
10 8 10
40 38 24
2 2 4
82 99 43
35 23 36
18 12 12
49 26 33
10 10 7
13 8 10
197 131 131
13 20 15
40 60 47
9 14 16
41 41 53
2 2 4
36 28 32
10 7 7
24 36 24
55 72 33
10 6 8
2 2 4
7 11 11
46 29 29
28 19 20
11 7 7
15 22 16
54 40 37
8 5 5
64 34 45
19 16 14
7 7 9
25 17 18
6 6 8
4 4 6
6 6 8
86 70 55
27 22 22
15 10 27
141 209 141
121 194 126
76 38 49
16 20 24
27 26 26
31 39 35
119 83 58
18 27 28
13 17 14
4 4 6
25 35 26
12 9 10
5 5 7
40 40 28
20 21 17
51 36 28
24 34 25
18 16 15
17 26 17
66 85 57
5 5 7
43 30 27
74 40 35
29 27 27
32 23 20
26 27 19
3 3 5
19 21 15
45 56 41
3 3 5
137 202 97
48 26 35
23 19 16
41 32 20
36 17 18
41 30 19
10 7 8
20 17 14
40 38 28
20 17 18
28 25 19
35 20 28
10 7 8
18 11 11
10 7 8
46 31 27
22 12 12
10 7 8
198 132 132
31 32 32
65 35 28
11 7 8
38 16 14
15 9 9
47 26 19
27 18 12
18 10 11
39 36 29
34 15 13
19 16 16
14 9 10
39 26 20
22 13 12
49 20 18
11 7 9
91 51 34
26 23 21
32 33 33
11 7 9
14 9 35
36 18 25
24 13 13
21 19 14
83 31 28
12 8 9
14 9 10
54 36 21
30 20 13
64 62 29
39 19 20
28 19 15
34 30 17
56 35 42
50 47 28
36 25 22
47 39 26
69 34 75
12 8 10
12 12 9
25 33 19
28 37 17
39 49 24
15 15 11
45 48 38
61 87 44
27 21 15
15 15 11
39 54 24
39 31 27
41 25 19
17 17 20
11 11 9
11 11 9
33 27 22
27 24 16
39 30 26
21 18 28
28 31 17
61 56 42
53 37 27
54 54 23
28 27 25
43 36 19
15 15 11
238 238 158
42 37 27
106 94 47
11 11 8
32 24 17
27 21 19
16 16 12
11 11 12
163 240 77
25 37 20
25 21 14
88 42 35
43 34 29
145 204 50
10 10 8
84 59 33
69 56 54
33 54 26
31 31 23
20 16 39
10 10 8
57 71 28
17 17 12
19 17 18
41 29 20
65 49 34
16 13 31
14 14 11
33 47 24
195 195 132
205 205 205
40 29 42
208 208 208
20 16 22
66 53 82
12 12 14
18 17 23
25 35 29
10 10 12
22 22 22
16 16 14
22 29 24
8 8 10
45 33 33
5 5 7
21 28 22
10 10 8
29 20 20
36 27 36
3 3 6
93 61 33
45 45 32
24 21 18
37 44 24
14 14 14
7 7 9
30 30 23
11 11 13
9 9 11
5 5 7
9 9 11
7 7 9
28 33 22
76 59 32
13 13 15
52 52 39
15 15 17
9 9 11
7 7 9
20 30 28
13 13 15
22 23 26
11 11 13
7 7 9
36 52 46
19 19 16
41 41 31
19 19 20
32 27 18
26 32 32
36 36 28
5 5 7
58 66 42
5 5 7
14 14 16
7 7 9
33 28 26
10 10 12
206 206 140
120 66 50
35 50 31
33 33 24
12 13 30
70 50 60
72 50 58
11 12 24
26 35 24
5 5 7
36 25 37
26 26 22
17 17 16
6 6 8
16 16 33
6 6 8
11 11 17
42 61 39
12 12 14
19 19 21
29 29 24
12 12 14
9 9 11
234 159 165
40 40 93
89 67 77
210 210 210
52 46 49
12 12 14
44 51 34
86 84 40
12 12 14
9 9 17
10 10 12
20 16 22
10 10 12
13 13 22
15 15 28
9 9 12
10 10 12
6 6 8
41 44 32
34 30 26
34 38 27
46 37 28
8 8 10
5 5 8
13 13 21
43 48 32
19 19 36
17 17 27
18 17 35
10 10 12
26 23 29
45 45 34
18 23 18
60 91 38
67 48 53
45 28 34
8 8 10
41 29 32
67 82 54
23 34 24
21 25 21
10 10 12
63 85 43
22 17 17
38 27 40
26 21 21
56 39 29
12 12 14
23 31 24
42 29 30
49 64 50
29 38 31
36 36 29
8 8 10
23 32 25
22 25 20
29 23 31
10 10 12
33 37 62
96 63 73
44 48 29
10 10 12
10 10 12
13 10 11
8 8 10
28 20 21
28 30 22
207 207 207
9 9 11
46 46 33
15 15 17
32 35 20
18 14 14
21 21 17
10 10 12
10 10 12
35 43 43
6 6 8
12 12 12
7 7 9
7 7 10
77 67 47
30 23 23
52 33 25
21 21 21
43 43 33
77 54 43
7 7 10
9 9 11
9 9 11
59 41 47
118 107 64
54 48 34
18 25 19
20 24 21
7 7 9
213 213 213
64 75 60
67 79 42
9 9 11
9 9 11
93 51 49
10 10 13
23 27 21
9 9 18
72 40 47
26 27 21
26 20 20
27 19 20
14 11 12
42 46 26
21 25 17
9 9 11
205 205 205
15 15 17
26 23 20
3 3 5
5 5 7
9 9 11
71 99 43
2 2 4
40 25 40
54 43 37
2 2 4
10 16 18
35 28 23
2 2 4
51 35 26
17 22 15
2 2 4
70 55 42
19 11 10
31 23 40
2 2 4
28 15 19
2 2 4
2 2 4
30 20 31
27 18 15
16 16 12
50 38 47
32 48 41
30 37 23
33 26 24
2 2 4
5 5 5
26 16 17
56 69 33
14 9 9
11 7 13
14 10 14
25 14 20
18 27 17
14 9 9
44 46 51
17 22 17
17 11 12
20 36 24
26 25 21
53 41 35
21 17 17
47 36 27
6 6 8
31 22 48
20 28 30
42 19 23
71 41 34
13 17 14
14 21 20
30 21 30
16 28 16
50 34 28
18 31 27
17 25 18
9 9 12
206 206 206
53 61 37
7 7 9
12 9 10
11 8 9
3 3 5
12 9 10
20 11 11
25 15 18
47 34 36
17 12 14
15 12 13
47 34 26
48 81 47
40 66 50
8 8 10
29 22 19
8 8 10
5 5 7
26 42 22
68 42 30
5 5 7
7 7 10
77 66 68
36 36 27
54 44 35
8 8 10
2 2 4
192 128 128
86 57 50
36 28 19
161 109 109
26 18 15
9 6 8
9 6 8
10 6 8
19 16 18
64 46 33
47 31 23
15 10 11
15 10 11
13 8 9
24 20 33
36 18 26
10 7 8
10 7 8
18 15 16
35 21 26
64 60 25
37 23 17
36 20 20
26 21 21
13 9 17
211 96 98
21 18 14
26 13 13
28 14 19
24 21 16
11 7 9
11 7 8
11 7 9
64 43 36
11 7 8
13 9 10
33 30 22
11 7 9
19 10 12
11 7 9
12 8 9
69 30 26
34 20 22
22 17 19
12 8 9
12 8 9
38 20 21
18 14 14
16 16 31
239 159 159
154 150 150
38 31 18
12 8 9
30 26 21
49 40 37
12 8 9
39 26 17
36 18 16
12 8 9
12 8 9
38 35 20
32 32 19
25 29 22
48 57 34
74 74 43
12 12 9
118 73 32
239 239 159
85 60 33
239 239 159
55 39 31
49 29 22
30 23 21
39 63 30
11 11 9
20 20 13
58 93 30
32 43 26
38 34 21
60 40 24
23 33 22
16 16 12
20 20 14
36 45 30
20 20 14
26 35 25
11 11 9
13 13 15
33 33 19
10 10 8
19 15 11
47 80 37
14 14 11
34 41 30
46 39 22
52 43 21
26 18 17
21 16 15
14 14 10
38 28 19
19 15 13
237 237 158
34 25 17
31 47 31
15 15 11
13 13 10
17 21 12
115 91 67
18 18 10
28 28 17
36 32 24
15 14 23
25 17 11
16 16 12
19 19 13
33 52 33
119 61 80
26 26 21
33 46 34
63 41 33
48 28 28
13 13 11
17 17 15
6 6 8
10 10 12
24 24 17
104 64 55
51 60 43
12 12 14
10 10 12
14 14 16
64 86 55
52 43 31
8 8 11
9 9 11
43 39 25
10 10 12
14 13 20
9 9 11
11 11 13
17 17 16
66 91 58
9 9 11
32 46 23
13 13 11
31 40 32
26 34 34
33 39 33
18 25 19
21 19 14
96 47 37
5 5 7
21 21 19
41 34 31
13 13 15
24 28 18
37 26 27
7 7 9
30 27 37
49 42 32
44 28 30
12 12 14
111 54 104
12 12 14
7 7 9
43 57 28
138 130 69
23 23 18
58 40 33
38 28 40
19 19 16
6 6 8
9 9 11
12 12 14
12 11 34
32 20 26
40 33 25
20 20 122
11 11 14
7 7 9
35 63 35
47 41 52
39 66 49
159 156 77
9 9 11
15 15 13
14 14 16
10 10 24
28 30 23
47 34 40
18 22 19
12 12 14
13 13 15
11 12 32
56 56 42
12 12 14
17 14 34
14 14 16
21 21 22
14 14 19
27 20 28
11 11 16
10 10 12
44 67 54
47 33 42
16 18 45
9 9 16
12 12 26
10 10 12
11 11 21
20 16 17
21 25 27
10 9 30
13 13 15
18 15 20
12 12 14
59 68 40
84 58 80
17 17 33
34 34 28
15 15 13
60 53 37
26 21 22
26 34 35
28 38 29
10 10 13
43 45 31
16 16 18
61 48 29
43 39 31
24 31 25
6 6 8
11 11 14
13 13 15
6 6 8
8 8 10
45 53 34
45 45 32
56 38 50
8 8 10
9 9 12
18 13 15
48 59 38
24 18 19
28 36 29
67 68 42
11 11 13
17 21 17
4 4 6
22 18 24
11 9 34
73 83 48
12 12 14
63 49 81
32 42 34
10 10 12
27 34 28
7 7 9
17 17 15
12 12 14
12 12 14
21 19 19
21 17 19
71 42 51
16 16 18
53 39 33
23 18 19
26 35 37
29 40 29
8 8 10
15 18 15
60 53 43
26 26 21
7 7 9
12 12 14
10 10 12
39 37 28
136 51 77
46 34 28
68 44 42
47 36 33
62 61 58
66 35 44
58 51 36
5 5 8
10 10 12
23 23 18
9 9 11
195 195 136
13 9 11
21 26 22
38 38 26
33 56 40
21 15 23
51 43 31
34 59 37
65 52 36
20 16 17
24 18 26
11 11 13
39 28 24
16 13 14
25 25 20
36 21 25
32 27 23
28 18 16
10 10 12
95 43 41
43 59 35
15 15 17
132 81 107
207 207 207
16 13 17
70 92 48
2 2 4
2 2 4
10 10 12
15 12 10
60 38 42
39 30 24
106 119 75
7 13 18
46 46 32
49 32 24
2 2 4
15 11 11
59 30 26
19 16 13
4 4 4
2 2 4
98 138 138
24 13 13
19 30 18
51 26 32
63 47 45
2 2 4
15 28 29
20 20 11
22 15 15
12 8 9
53 60 39
26 22 17
25 31 31
46 22 25
21 13 14
43 50 31
25 16 25
10 7 8
25 13 13
78 122 76
45 30 45
2 2 4
2 2 4
31 41 38
2 2 4
10 7 8
26 17 19
31 21 32
26 18 18
31 22 32
4 4 7
205 205 205
27 21 18
3 3 5
6 6 8
56 49 34
3 3 5
16 19 13
2 2 4
9 12 11
26 18 19
15 27 18
32 35 41
14 10 11
6 6 8
19 12 12
4 4 6
36 19 23
67 56 36
28 16 20
18 18 14
13 10 11
34 23 18
13 10 12
11 14 12
47 66 40
12 10 13
51 31 24
30 19 14
46 45 52
16 16 12
11 7 8
4 4 6
19 35 21
21 19 15
18 16 15
46 74 67
33 19 18
4 4 6
32 48 25
11 9 9
6 6 8
21 18 15
33 25 17
212 212 212
14 11 13
8 5 6
19 10 11
10 6 8
33 16 13
19 11 11
22 19 15
10 6 8
39 29 46
52 52 26
24 21 14
9 6 7
15 10 11
63 26 37
35 25 32
10 7 8
10 7 8
46 31 23
9 6 7
19 10 10
238 158 158
68 39 28
24 16 12
113 61 28
29 18 19
52 29 21
17 11 12
23 18 18
42 32 31
32 16 16
30 16 16
42 39 39
11 7 9
13 8 10
186 124 86
79 60 34
62 32 32
28 16 14
43 19 18
30 20 17
15 12 11
163 158 108
255 50 95
28 14 15
12 8 9
40 26 26
11 7 9
27 26 26
31 16 21
22 19 15
163 109 58
57 31 45
28 22 20
40 37 21
102 97 94
18 18 13
12 12 9
17 17 13
46 35 26
31 29 16
28 33 23
23 19 17
12 12 9
43 33 17
21 27 15
89 48 44
34 26 18
17 17 12
11 11 9
11 11 8
26 35 17
27 30 15
11 11 9
97 37 27
35 28 20
11 11 9
11 11 7
63 40 35
23 18 13
20 20 11
17 17 12
15 15 11
10 10 8
17 17 13
10 10 8
49 49 26
58 31 21
48 74 45
26 26 16
30 30 16
20 16 11
44 32 22
19 15 14
16 16 12
23 23 14
40 47 22
202 202 134
9 9 7
237 237 158
15 15 11
183 183 84
9 9 7
12 12 9
16 16 12
9 9 7
26 23 21
34 40 29
11 11 13
23 18 13
10 10 12
40 29 45
37 30 25
22 22 15
45 29 25
15 15 15
10 10 12
20 14 18
19 15 21
8 8 10
44 50 41
16 16 12
9 9 14
7 7 9
7 7 9
57 76 49
18 18 14
14 18 31
29 36 23
11 11 13
9 9 11
214 214 214
32 37 29
12 12 14
211 211 211
13 13 15
96 54 54
7 7 9
21 19 21
40 36 27
198 198 134
11 11 13
5 5 7
79 52 46
52 31 38
9 9 11
24 35 25
11 11 13
36 28 48
17 17 47
7 7 9
5 5 7
81 47 36
48 31 28
13 13 15
6 6 12
93 52 42
55 40 70
5 5 7
11 11 13
47 35 43
25 26 21
8 8 10
10 10 12
10 10 12
5 5 7
10 10 12
38 38 30
8 8 10
10 10 12
35 36 42
78 45 56
7 7 9
12 12 14
24 24 20
35 37 33
31 31 32
10 11 24
8 8 10
10 10 12
216 216 216
48 38 53
16 20 21
25 36 36
23 16 16
17 17 48
173 118 173
29 45 45
8 8 10
8 8 10
14 14 16
30 35 28
42 34 28
50 31 43
19 23 46
23 18 18
42 35 27
30 26 20
20 20 16
5 5 10
37 29 37
9 9 11
86 63 38
217 80 113
214 214 214
25 21 19
58 55 35
6 6 8
8 8 10
10 10 20
29 29 22
43 43 34
35 24 22
21 27 29
6 6 6
17 14 19
76 75 49
10 10 13
74 48 62
4 4 6
46 57 30
45 30 34
7 7 10
30 30 25
37 31 25
42 33 39
30 18 18
8 8 22
40 45 58
8 8 10
33 36 24
27 27 23
38 29 30
11 11 13
33 27 25
8 8 10
14 14 16
32 44 54
12 12 14
26 18 21
12 12 14
48 41 36
66 66 47
24 32 24
36 39 29
8 8 10
14 14 16
47 39 29
10 10 12
23 23 19
8 8 15
10 10 12
25 33 21
12 12 14
19 25 20
12 12 14
66 38 49
47 69 36
24 20 26
11 11 13
8 8 10
26 26 27
12 12 14
12 12 14
24 19 20
43 31 30
39 32 32
24 34 25
23 20 21
32 60 56
105 48 34
30 36 27
14 14 16
10 10 12
26 20 19
10 10 12
60 59 44
7 7 9
19 27 27
14 18 15
13 13 15
8 8 6
27 27 21
11 11 13
18 24 19
11 11 13
9 9 11
44 50 42
8 8 10
81 88 56
21 14 14
7 7 9
22 29 23
66 29 37
49 24 28
32 39 28
28 34 25
48 28 43
5 5 7
5 5 7
48 63 47
29 44 29
9 9 11
54 64 35
82 58 64
15 20 16
6 6 14
7 7 9
5 5 7
14 11 12
22 31 22
20 25 20
18 23 23
5 5 7
43 48 43
67 33 42
24 17 19
23 30 20
5 5 7
5 5 7
37 29 48
2 2 4
22 29 22
2 2 4
80 105 64
13 20 20
15 27 23
52 62 32
13 20 22
41 17 18
21 31 50
133 139 93
2 2 4
2 2 4
204 204 204
21 32 34
48 47 38
33 37 24
66 23 35
10 7 7
14 22 24
32 16 21
23 50 44
46 57 41
45 29 32
17 26 18
2 2 4
2 3 12
2 2 4
32 21 24
39 29 27
3 3 5
162 109 162
12 8 10
17 20 14
11 16 13
24 12 12
33 29 30
56 26 35
59 58 36
37 31 23
56 42 48
15 8 8
13 9 10
205 205 205
21 21 16
25 19 24
36 44 26
3 2 5
3 3 5
6 9 6
3 3 5
36 60 41
7 7 9
36 53 30
14 10 11
3 3 5
7 7 9
31 28 35
34 21 21
96 54 43
39 33 25
32 17 23
66 75 44
18 31 23
24 39 28
24 19 24
208 208 208
25 17 15
4 4 6
25 18 15
4 4 6
8 8 10
44 29 21
13 11 12
32 20 18
25 25 16
34 21 25
16 23 25
27 17 17
14 9 9
20 20 16
9 7 8
34 28 24
7 7 9
68 37 32
12 8 9
66 22 27
63 51 51
23 21 14
14 9 10
7 4 6
36 24 25
27 22 14
30 15 15
73 41 25
37 18 20
59 24 35
9 6 13
72 37 74
85 54 63
11 7 8
10 7 8
11 7 8
20 17 17
238 158 158
11 7 8
52 35 41
35 20 17
53 27 30
238 159 159
25 13 14
147 67 67
11 7 9
15 10 21
238 159 159
11 7 9
13 8 8
11 7 9
11 7 7
40 22 21
25 17 13
11 7 8
145 42 67
21 12 12
12 8 9
41 32 20
55 29 30
41 29 23
41 21 20
39 39 28
40 37 30
100 48 54
24 13 17
12 8 14
25 13 13
19 19 14
12 12 9
32 24 28
36 33 31
33 44 18
22 22 12
63 68 39
38 30 40
47 37 26
18 21 34
52 40 36
13 13 9
69 85 42
36 36 34
56 76 44
71 50 27
25 22 14
15 17 18
17 17 12
17 17 12
238 238 158
17 17 17
200 200 133
25 25 16
66 52 22
18 18 13
16 16 12
23 33 22
39 27 16
43 36 21
33 26 16
20 26 13
15 15 11
53 59 22
42 34 19
10 10 8
193 131 128
27 20 19
24 52 17
24 19 16
21 17 26
54 61 27
17 22 12
27 17 11
18 18 13
21 23 25
12 12 9
29 38 20
57 47 20
18 18 11
41 57 31
25 30 24
111 94 42
40 24 24
10 10 12
7 7 9
34 51 36
8 8 10
40 52 31
28 28 19
212 212 212
199 199 136
158 158 107
28 28 23
13 13 15
10 10 12
38 31 26
22 24 17
10 10 12
54 37 48
8 8 10
19 23 15
7 7 9
18 27 21
7 7 9
29 23 21
126 248 69
56 80 44
5 5 7
26 25 20
31 40 20
31 41 33
39 33 25
23 23 20
32 53 45
14 14 16
12 12 10
47 58 34
64 99 54
5 5 7
9 9 11
102 188 142
7 7 9
7 7 9
23 23 19
25 34 27
40 47 54
5 5 7
37 45 29
9 9 11
40 47 40
7 7 10
46 68 37
27 24 34
11 11 13
81 55 31
11 11 13
16 16 18
19 19 16
10 10 12
6 6 9
37 42 33
10 10 12
13 13 15
8 8 10
11 11 14
44 37 32
24 26 19
8 8 10
30 21 31
17 17 14
47 31 29
29 26 22
33 23 26
10 10 12
42 35 24
50 40 36
148 86 77
212 212 212
10 10 12
30 30 23
30 23 24
64 26 34
68 61 52
10 10 12
35 24 38
44 37 29
19 19 18
29 29 23
12 12 14
58 69 43
23 28 21
24 24 23
12 12 14
130 188 88
42 42 31
7 7 9
40 43 24
20 20 18
14 14 16
12 12 10
14 14 16
8 8 10
6 6 8
19 17 26
29 36 36
69 47 56
8 8 10
59 77 86
25 25 18
36 27 26
17 17 31
20 14 18
16 16 18
47 56 52
40 45 32
11 11 14
15 15 17
8 8 10
6 6 8
48 56 32
8 8 10
30 22 23
44 28 34
19 19 16
23 32 29
12 12 14
72 44 70
23 18 20
30 20 20
8 8 10
23 31 23
34 34 23
22 25 21
14 14 16
32 32 25
6 6 8
80 62 39
39 28 40
46 57 35
32 35 32
50 50 30
19 19 18
37 50 33
53 60 33
8 8 10
10 10 12
36 57 46
14 14 16
45 49 43
12 12 14
50 62 43
50 50 37
62 62 45
63 34 42
128 187 128
12 12 14
25 28 23
4 4 6
36 26 27
15 15 16
12 12 14
65 76 38
35 40 29
88 55 55
57 38 48
143 212 143
57 30 33
22 19 15
46 31 35
36 27 22
12 11 21
87 33 45
9 9 11
116 56 66
63 70 52
22 27 23
20 27 21
14 14 16
50 65 41
13 13 15
88 56 73
20 31 23
52 61 43
11 11 13
5 5 7
9 9 11
13 13 15
9 9 11
9 9 11
23 30 20
11 11 13
13 16 12
7 7 9
24 23 29
38 38 29
9 9 11
53 49 39
11 14 16
212 212 142
13 16 14
10 10 12
39 56 32
23 24 17
7 7 9
3 3 5
27 33 19
207 207 207
53 37 41
5 5 7
72 50 44
5 5 7
5 5 7
18 15 34
120 112 75
33 24 24
70 43 62
2 2 4
120 180 120
2 2 4
47 36 40
13 19 20
50 52 52
28 24 18
40 27 31
33 82 48
2 2 4
21 24 32
58 44 44
23 23 15
33 47 24
37 30 24
58 70 38
61 41 59
3 3 5
4 4 6
14 22 19
21 14 14
31 16 16
32 32 22
16 18 20
11 15 17
11 14 12
51 55 35
8 8 10
32 29 23
30 38 31
53 55 36
22 20 14
36 28 20
59 59 41
27 19 19
2 2 4
3 3 5
6 6 8
19 27 17
58 40 43
11 16 12
91 97 59
163 110 110
132 136 136
4 4 6
99 54 32
3 3 5
37 25 39
43 40 22
196 132 132
6 6 8
4 4 6
24 37 30
24 14 14
7 7 9
17 11 12
24 17 25
29 37 25
45 26 26
195 131 131
23 15 17
3 3 5
4 4 6
13 9 10
26 54 23
36 36 27
15 12 11
155 73 73
44 46 28
46 35 33
6 6 8
35 24 24
20 14 14
11 8 9
70 52 46
6 6 8
19 25 27
5 5 7
11 8 10
15 9 9
10 10 9
9 9 11
10 10 12
38 41 20
11 7 8
10 7 8
161 112 76
91 51 41
26 29 34
24 13 13
31 28 21
23 13 13
63 46 32
15 12 13
39 19 24
26 23 34
10 7 8
16 11 12
13 9 10
33 23 24
56 25 24
11 7 8
28 15 20
13 9 9
11 7 9
35 36 20
18 15 15
11 7 9
33 33 28
238 159 159
28 25 36
58 20 16
71 39 33
65 38 22
11 7 9
51 49 31
33 19 20
22 19 20
21 11 11
64 33 39
65 33 27
19 16 17
34 19 19
27 27 21
40 29 17
29 18 18
12 8 9
25 13 13
24 18 16
18 10 10
53 41 18
19 16 17
19 13 11
48 35 24
11 11 9
11 11 9
12 12 9
33 36 28
11 11 9
11 11 9
198 198 132
28 38 20
155 228 103
47 45 34
25 25 14
16 16 12
46 44 22
77 55 29
46 49 24
47 47 26
12 12 9
11 11 9
17 22 13
21 23 12
23 23 14
32 28 16
198 198 132
67 51 26
11 11 15
43 40 22
16 16 12
44 57 44
24 18 13
10 10 8
43 27 26
27 36 18
68 49 111
36 36 18
13 13 17
40 39 27
29 47 19
33 30 20
10 10 11
25 25 13
23 30 16
17 17 10
15 15 11
13 13 10
9 9 8
72 70 25
7 7 7
25 31 13
24 24 17
37 46 32
8 8 10
21 28 29
28 34 26
17 17 15
7 7 9
20 20 17
23 14 23
10 10 12
10 10 12
16 16 12
20 20 18
45 34 23
22 26 17
42 35 30
22 22 18
31 39 25
23 23 16
46 38 29
18 17 24
9 9 11
45 50 29
9 9 11
7 7 9
42 38 38
11 11 13
221 149 221
13 13 15
55 38 60
30 22 32
96 46 58
7 7 9
73 77 39
39 25 39
197 197 134
22 22 19
58 37 33
89 71 39
10 10 12
11 11 13
23 23 16
44 53 44
34 25 22
17 16 14
12 12 14
7 7 9
2 2 4
22 22 20
12 12 14
10 10 12
55 62 37
53 34 46
27 24 21
23 31 24
17 16 46
19 20 19
34 30 19
11 11 13
8 8 15
32 39 26
21 21 18
18 17 45
4 4 6
29 22 30
15 15 32
85 57 48
43 39 34
44 80 46
11 11 13
12 12 14
6 6 8
87 46 85
8 8 10
22 23 27
10 10 16
12 12 14
65 83 48
17 17 14
119 113 113
12 12 14
10 10 12
47 44 33
6 6 8
8 8 10
212 212 212
33 28 25
10 10 12
12 12 14
14 14 22
12 12 14
9 8 21
210 210 210
27 35 37
11 11 13
14 13 25
42 35 31
22 17 18
34 32 26
10 10 12
19 15 16
13 13 15
29 38 30
55 87 61
12 12 14
20 25 21
50 42 34
45 41 32
10 10 12
5 5 11
77 47 53
23 17 48
14 15 35
186 181 95
8 8 10
6 6 8
11 11 15
32 33 26
72 51 42
40 34 31
10 10 12
28 36 25
10 10 12
26 23 61
12 12 14
40 48 37
15 15 17
8 8 10
21 17 18
38 44 30
214 214 214
42 42 32
22 29 22
10 10 12
35 25 31
8 8 10
14 14 16
10 10 12
25 25 22
6 6 8
8 8 10
40 35 26
34 24 30
45 37 35
46 52 34
8 8 10
48 40 32
43 27 32
68 68 51
14 14 14
30 30 23
52 37 33
7 7 9
19 29 26
6 6 8
8 8 10
122 177 122
37 24 32
10 10 12
16 23 20
10 10 12
12 12 14
10 10 12
21 18 39
36 24 32
28 28 25
25 16 17
36 45 28
52 58 42
24 29 20
15 19 17
8 8 10
8 9 14
178 178 178
9 12 10
8 8 10
11 11 13
40 30 40
11 11 13
21 28 30
43 43 34
213 213 213
11 11 14
17 17 13
37 27 39
25 29 25
16 20 22
19 15 21
11 11 13
96 66 87
22 19 20
6 6 8
41 71 32
29 35 21
44 26 26
33 36 26
7 7 9
30 34 20
97 192 91
5 5 7
19 26 21
7 7 8
27 18 19
9 9 11
34 24 21
38 26 28
19 14 27
19 15 13
209 209 209
13 13 15
5 5 7
34 25 25
19 14 15
47 54 26
115 109 77
17 12 13
5 5 7
6 5 21
7 7 9
16 22 18
2 2 4
40 23 27
48 55 34
3 3 5
23 16 17
46 53 37
2 2 4
28 16 16
19 16 16
18 15 15
17 33 18
22 33 18
36 43 51
48 40 24
15 12 17
22 22 16
3 3 5
15 10 17
6 6 8
42 42 29
11 12 24
10 7 8
12 17 14
65 65 45
65 39 49
17 25 18
12 19 19
19 12 15
43 27 36
3 3 5
17 12 13
5 5 7
3 3 5
16 12 13
69 37 23
5 5 7
43 24 23
19 13 13
76 79 54
36 35 36
4 4 7
51 30 36
28 29 24
3 3 5
89 52 34
17 26 19
7 7 9
4 4 6
204 142 137
45 50 29
11 8 9
3 3 5
11 7 9
3 3 5
4 4 6
3 3 5
11 8 9
35 42 33
28 28 21
51 25 31
32 17 18
10 13 14
21 11 11
4 4 6
18 13 18
29 19 33
3 3 5
24 21 17
32 29 24
13 10 11
20 15 16
36 27 32
5 5 7
19 17 18
26 33 26
5 5 7
3 3 5
29 20 21
31 17 17
83 84 51
7 7 9
31 19 17
13 9 10
160 158 158
82 31 36
10 6 8
20 10 10
35 17 14
10 7 8
10 7 8
31 14 17
15 8 9
58 27 22
8 5 7
185 84 123
10 6 8
10 7 8
18 9 13
17 13 13
222 148 100
21 14 11
27 12 14
17 11 10
32 18 24
87 50 42
25 17 14
49 39 28
27 20 14
41 17 24
13 8 10
41 38 24
31 28 30
20 16 15
38 53 29
36 15 20
30 13 15
29 30 27
33 20 28
18 15 21
11 7 9
82 44 49
15 10 11
26 12 13
14 11 16
21 17 19
50 28 33
22 14 25
44 26 27
40 29 21
25 13 18
54 36 29
226 154 102
46 74 44
60 59 40
42 28 25
20 20 16
46 43 24
31 24 17
46 38 31
20 25 18
39 47 35
11 11 9
40 40 21
72 52 28
29 23 20
17 21 12
13 13 19
41 30 21
41 54 40
51 32 29
15 15 20
72 34 28
85 45 37
34 32 13
13 13 10
47 59 35
31 22 16
16 14 17
35 31 27
44 62 23
10 10 8
66 96 36
47 43 50
10 10 8
10 10 8
125 89 61
50 50 26
18 18 13
9 9 8
13 17 9
45 32 22
58 100 24
16 16 11
11 11 7
11 10 35
43 48 38
63 37 24
9 9 7
19 24 12
16 16 27
7 7 11
35 31 41
36 42 28
210 210 210
19 17 13
136 198 134
45 35 26
21 17 31
28 29 19
31 26 36
23 18 19
15 18 12
17 17 17
36 48 32
21 24 18
7 7 9
36 27 28
48 32 33
13 13 15
7 7 9
7 7 9
56 40 56
41 38 25
41 34 34
11 11 13
9 9 11
5 5 7
16 16 14
26 26 20
9 9 11
32 28 23
17 17 15
24 19 44
15 15 17
9 9 11
24 20 21
41 32 31
7 7 9
9 9 11
11 11 13
35 35 20
27 27 22
10 10 12
33 45 27
7 7 15
116 85 58
75 66 73
9 9 12
34 34 20
13 13 10
9 9 11
211 211 211
42 28 38
67 30 49
62 64 31
84 75 54
10 10 12
41 33 33
25 20 65
30 35 28
76 51 48
22 22 19
64 69 57
11 11 14
10 10 12
213 213 213
49 58 33
9 9 11
8 8 10
7 7 9
12 12 14
10 10 12
32 54 38
48 48 35
29 23 37
31 31 40
12 12 14
26 24 15
8 8 10
7 7 18
14 14 16
60 53 33
25 33 35
91 49 66
58 37 37
44 60 46
10 10 12
11 11 13
99 89 61
20 28 29
12 12 18
15 15 17
52 50 36
6 6 8
13 13 15
57 47 34
10 10 12
30 28 24
79 67 67
19 18 38
8 8 10
23 28 24
23 26 18
19 22 20
36 28 33
83 77 106
6 6 8
63 48 29
53 74 59
76 71 40
4 4 6
44 70 43
45 40 31
8 8 10
36 30 23
38 46 60
37 42 42
52 33 71
47 50 36
35 39 42
13 13 15
64 84 40
219 219 150
81 92 64
20 24 18
18 19 49
37 40 27
12 12 14
39 27 41
19 19 21
10 10 12
59 68 54
43 62 36
10 10 12
25 32 26
15 15 39
29 29 24
55 37 52
75 71 51
10 10 13
24 21 48
30 23 31
37 44 38
68 68 49
71 71 46
22 29 23
8 8 10
23 17 19
11 11 14
25 32 26
80 59 35
36 36 28
14 15 31
12 12 14
46 46 29
74 58 59
11 11 14
106 77 90
36 47 37
6 6 8
12 12 14
12 12 14
10 10 12
42 38 28
29 34 24
64 57 39
6 6 8
59 35 44
98 107 60
10 10 12
52 63 43
14 14 16
41 63 53
40 36 31
28 28 25
81 71 41
60 63 51
73 46 29
9 9 11
16 16 15
17 21 23
4 4 6
33 25 35
20 15 20
35 52 43
34 41 32
49 46 35
44 58 36
48 34 29
20 20 17
20 28 26
66 73 45
5 5 7
22 28 22
31 31 24
12 8 9
19 25 24
37 23 23
64 43 31
8 8 20
36 36 24
37 25 22
78 56 48
16 15 44
24 38 21
7 7 9
40 23 23
219 219 148
31 21 32
7 7 9
32 32 23
28 40 22
61 66 45
27 39 34
23 18 19
53 47 34
2 2 4
5 5 7
21 28 22
27 30 19
65 56 36
3 3 5
7 7 9
13 18 14
44 51 30
32 31 25
43 51 25
33 22 34
27 16 18
22 19 16
5 5 7
13 13 9
61 32 29
14 22 19
13 9 10
29 37 44
6 6 8
3 3 5
15 10 10
5 5 7
2 2 3
13 19 30
22 16 16
49 95 47
2 2 4
2 2 4
205 205 205
9 13 15
18 10 10
12 17 13
6 6 8
28 19 19
29 16 19
3 3 5
23 13 15
98 58 45
26 56 35
5 5 7
21 14 14
31 19 21
28 15 20
31 25 20
22 38 25
24 16 16
3 3 5
3 3 5
2 2 4
10 14 11
25 15 15
34 48 27
19 27 29
28 16 19
21 15 15
4 4 6
6 6 8
35 17 21
150 100 68
14 19 18
51 41 35
61 34 49
50 39 39
16 12 13
5 5 8
3 3 5
36 22 30
26 26 19
31 52 24
31 39 47
13 10 11
14 9 9
13 10 11
14 11 15
61 46 39
47 25 32
15 22 16
45 45 32
6 6 8
30 19 18
24 20 17
43 17 31
12 9 10
32 23 34
28 15 27
24 16 16
11 7 9
21 12 13
9 6 7
86 43 26
58 37 22
27 24 18
20 17 14
32 17 20
16 9 10
31 28 21
25 18 12
9 6 7
237 158 158
13 9 10
37 18 26
27 13 19
79 39 60
10 7 8
9 6 8
32 20 15
11 7 8
61 20 25
26 20 13
25 14 12
12 8 9
9 6 6
196 130 89
20 11 11
16 12 10
52 37 30
83 32 33
16 12 29
19 10 10
45 30 19
11 7 8
98 75 79
24 20 14
11 7 8
11 7 9
41 22 27
12 8 9
31 38 18
46 19 22
12 8 9
31 17 17
18 15 12
15 10 11
32 40 18
53 60 29
97 41 47
204 142 95
26 23 15
26 35 25
19 19 14
38 47 26
66 43 23
26 35 18
30 34 24
11 11 9
11 11 8
24 31 22
14 14 10
20 26 14
35 35 18
21 21 15
33 24 22
18 18 13
30 30 17
34 41 20
11 11 8
81 78 37
107 59 67
10 10 8
125 177 82
20 20 15
26 22 14
79 55 29
53 81 28
29 29 16
21 23 13
10 10 8
41 41 19
16 16 12
33 33 17
9 9 8
14 14 10
241 163 109
9 9 8
9 9 7
14 17 12
30 20 13
33 25 17
36 43 44
24 26 17
39 52 30
44 66 35
59 36 30
39 52 29
33 28 20
22 26 20
28 21 16
23 28 16
24 17 25
19 26 20
32 32 24
32 39 39
29 41 21
6 6 9
27 23 21
7 7 9
31 31 22
5 5 5
38 64 45
29 27 22
9 9 11
9 9 11
20 27 21
11 11 13
11 11 13
12 12 14
9 9 11
22 22 17
11 11 13
38 40 25
120 78 63
26 28 21
7 7 9
16 16 13
11 11 13
46 49 31
16 16 14
13 13 16
5 5 7
7 7 9
10 10 21
13 13 10
15 15 17
75 91 49
24 24 20
11 9 32
36 36 27
6 6 10
24 20 16
18 18 37
9 9 11
28 32 26
8 8 10
12 12 14
14 14 16
14 14 16
8 8 10
12 12 14
34 39 40
10 10 12
22 29 23
214 214 214
14 14 16
35 40 28
19 20 30
47 42 30
12 12 14
6 6 8
11 11 13
16 16 18
19 20 43
8 8 10
70 45 58
19 20 38
36 39 24
17 17 15
10 10 12
24 23 58
6 6 8
73 48 35
50 44 36
63 50 63
4 4 6
67 48 55
10 10 12
111 74 52
27 35 35
24 24 21
12 13 40
40 37 49
12 12 14
35 35 27
14 14 12
38 32 29
8 8 15
26 21 47
75 102 85
45 32 30
36 47 29
37 54 40
37 36 23
12 12 14
8 8 10
40 59 67
26 32 26
8 8 10
39 59 28
78 159 78
8 8 10
23 23 18
12 12 14
32 29 29
33 33 27
25 25 19
8 8 10
33 25 33
13 15 33
45 67 38
29 36 30
206 206 206
4 4 10
19 16 17
108 125 76
21 28 29
44 56 34
151 212 145
34 45 37
8 8 10
17 16 41
40 27 29
10 10 12
64 42 36
68 27 38
51 51 180
30 40 31
35 31 21
42 39 45
12 12 14
8 8 10
17 14 43
8 8 10
10 10 12
46 34 28
72 189 93
10 10 12
5 5 7
36 47 55
36 26 28
8 8 10
31 31 21
34 26 26
36 41 44
12 12 14
59 84 35
8 8 10
67 47 30
10 10 12
41 49 36
55 45 31
32 30 20
45 38 31
60 50 55
20 23 14
6 6 8
56 89 58
34 23 31
25 31 26
32 25 34
12 12 14
10 10 12
16 16 18
14 17 13
24 33 33
10 10 12
16 19 17
21 30 22
10 10 12
3 3 5
35 37 41
10 13 15
69 36 30
7 7 9
27 35 30
21 28 19
9 9 11
42 42 41
27 21 22
33 35 24
21 17 23
15 20 16
58 48 34
57 57 43
21 33 21
67 72 46
17 15 37
167 150 104
44 37 39
61 47 40
12 17 12
207 207 207
10 10 17
21 23 22
35 46 30
18 31 33
46 39 46
9 9 11
15 33 18
17 13 14
35 41 26
25 25 46
12 12 9
7 7 9
5 5 7
3 3 5
21 15 16
55 35 52
43 32 30
30 51 19
31 28 34
29 37 26
7 7 9
14 20 13
27 19 20
2 2 4
21 15 21
37 28 37
8 11 9
104 52 47
18 13 11
34 37 45
16 21 21
38 75 32
5 5 7
19 29 18
24 17 15
13 9 10
16 12 16
27 43 22
2 2 4
39 26 21
53 53 37
22 40 28
69 19 26
32 22 19
13 10 16
5 5 7
3 3 5
32 44 23
5 5 7
14 20 24
53 53 38
9 9 9
3 3 5
22 33 29
19 28 30
3 3 5
15 26 15
30 19 13
5 5 7
16 11 12
2 2 4
5 5 7
60 47 36
21 21 15
72 53 39
3 3 5
54 32 39
15 9 9
33 21 21
8 5 7
37 33 28
14 10 11
6 6 8
20 32 22
168 168 168
19 39 22
12 9 28
27 24 24
21 21 14
19 14 15
23 31 20
4 4 6
39 40 38
25 34 22
33 36 24
4 4 6
20 31 42
15 15 11
15 13 11
15 9 9
12 18 19
15 9 9
15 15 11
14 11 12
23 21 21
48 23 18
18 15 13
26 37 21
13 10 11
21 15 13
10 7 8
13 17 14
16 23 25
14 8 8
11 8 10
207 207 207
12 17 18
14 9 11
183 122 83
13 9 10
50 33 25
33 15 19
9 6 7
13 9 10
12 8 9
37 19 15
55 47 23
61 26 28
10 6 8
16 13 15
17 9 10
31 23 19
33 18 21
20 18 19
55 22 20
47 24 32
238 158 158
38 18 26
43 41 29
25 24 24
18 13 13
12 8 9
11 7 9
30 25 18
33 16 14
45 33 18
17 9 9
238 159 159
28 25 18
31 14 16
50 38 26
55 20 26
31 15 16
130 40 24
11 7 9
59 35 19
50 50 37
34 33 21
63 43 31
12 8 9
38 21 17
21 11 12
25 17 17
35 38 19
11 11 9
72 107 37
18 22 15
21 21 15
37 50 20
27 36 24
30 30 16
15 15 18
80 53 24
53 48 25
27 34 28
25 30 20
49 49 21
37 28 16
43 67 48
21 17 11
11 11 8
49 41 26
10 10 8
43 58 24
23 28 14
18 18 13
124 72 37
39 49 22
26 18 15
14 14 11
30 37 15
20 16 15
19 15 11
73 80 27
17 17 12
36 26 18
38 46 21
32 32 28
24 24 15
59 115 37
156 156 72
55 46 37
51 22 15
15 15 11
9 9 7
25 23 13
198 198 132
7 7 9
42 42 36
59 28 38
17 18 19
7 7 9
54 46 33
44 40 20
8 8 10
9 9 22
30 27 19
7 7 9
43 66 37
14 14 16
26 44 33
36 50 21
30 38 21
30 33 18
7 7 9
27 30 34
48 51 31
7 7 9
48 37 24
32 43 45
8 8 10
60 47 57
11 11 13
5 5 7
59 61 39
18 18 16
35 31 25
9 9 11
29 22 31
8 8 11
9 9 11
29 21 22
13 13 15
9 9 11
11 11 13
26 29 35
11 11 13
44 49 33
22 17 21
44 44 27
40 40 28
28 28 24
18 18 15
23 23 21
5 5 7
17 17 13
12 12 14
148 218 148
32 28 22
64 43 36
10 10 12
68 31 50
12 12 14
69 52 43
21 15 22
61 36 49
56 36 53
7 7 9
19 19 16
33 25 35
57 49 31
36 28 29
47 56 35
6 6 8
24 21 22
58 58 35
206 206 206
26 21 23
12 12 14
30 37 27
7 7 13
12 12 14
8 8 10
47 57 33
12 12 14
224 110 162
10 10 12
35 26 37
8 8 15
21 27 22
88 113 114
23 23 20
43 61 38
24 32 32
16 16 18
41 48 54
10 10 12
31 28 21
30 25 17
26 40 33
48 53 33
31 39 31
22 22 17
149 160 71
69 46 39
6 6 8
18 14 20
34 40 30
17 22 19
4 4 6
18 18 33
12 12 14
8 8 10
12 12 15
19 17 56
12 12 25
13 13 15
12 12 14
51 33 47
10 10 12
47 54 36
40 26 32
208 208 208
29 25 29
50 36 51
13 13 15
57 81 43
22 29 23
50 32 31
15 15 17
55 59 50
10 10 12
24 32 34
31 28 24
49 65 36
32 32 26
13 13 15
10 10 9
19 19 17
53 53 39
14 14 17
88 58 50
33 44 34
40 53 31
10 10 12
45 41 54
36 60 56
13 13 15
12 12 14
30 38 32
20 16 22
30 28 30
10 10 12
13 13 15
44 30 46
6 6 8
6 6 6
39 39 30
10 10 12
41 31 23
12 12 14
44 32 46
31 49 29
14 14 16
20 14 22
25 34 22
33 44 46
12 12 14
6 6 8
181 181 181
14 14 16
49 19 20
19 17 17
211 211 211
6 6 8
53 74 42
25 19 26
72 64 42
32 52 38
10 10 12
34 26 27
53 41 34
112 52 69
38 29 27
12 12 14
11 11 23
19 22 20
9 9 12
33 28 29
19 17 30
19 24 20
17 15 43
15 15 18
48 56 36
32 24 34
20 15 16
5 5 7
11 11 14
29 36 36
19 16 14
11 11 13
19 14 20
23 23 21
28 33 27
21 16 17
62 74 38
95 64 46
4 4 6
5 5 7
7 7 9
7 7 37
42 30 51
5 5 7
13 13 15
27 47 40
23 15 17
22 32 24
35 30 23
3 3 5
90 63 36
163 163 110
5 5 7
54 47 30
10 7 7
2 2 4
55 36 31
30 43 34
7 5 5
2 2 4
5 5 7
9 7 7
16 18 18
3 3 5
130 195 130
42 29 32
46 35 32
25 13 13
61 49 32
51 22 29
35 52 27
69 79 48
33 33 23
10 16 18
208 139 94
34 39 32
23 33 24
3 3 5
18 14 14
44 83 30
28 19 20
3 3 5
5 5 7
30 33 31
34 21 27
2 2 4
59 41 29
3 3 5
56 70 41
5 5 7
3 3 5
15 19 16
22 33 20
32 23 20
7 11 9
3 3 5
14 21 21
33 30 29
62 69 46
37 43 28
4 4 13
2 2 4
92 53 71
11 19 19
12 8 9
52 22 36
10 7 7
14 9 11
132 198 132
3 3 5
196 131 131
4 4 7
3 3 5
22 33 24
70 45 68
16 24 26
16 26 16
4 4 6
14 11 12
18 18 14
16 13 12
2 2 4
7 10 8
7 7 9
14 20 22
60 44 34
38 52 147
2 2 4
24 35 19
3 3 5
7 7 9
39 48 46
4 4 6
5 5 7
12 16 13
48 65 51
191 128 128
29 16 22
40 28 42
22 16 15
2 2 4
6 6 8
6 6 8
33 22 17
22 12 12
9 12 11
46 27 20
11 8 10
20 17 15
4 4 6
34 15 41
22 11 11
27 18 11
18 9 9
10 6 8
55 26 29
71 35 43
15 12 11
10 7 8
195 130 130
9 6 7
28 24 25
33 22 17
46 25 20
51 24 20
15 8 8
10 7 8
41 39 33
36 35 22
47 27 26
19 10 10
13 9 19
59 23 37
50 36 26
11 7 9
12 8 9
11 7 9
49 29 37
76 48 46
35 18 15
11 7 9
30 27 20
11 7 8
30 13 15
11 7 9
31 16 16
37 34 20
10 7 7
11 7 8
53 49 37
231 154 104
23 13 13
25 14 18
23 12 17
17 21 15
57 39 26
11 11 9
37 24 18
25 34 24
30 30 17
18 18 13
42 25 17
36 41 20
16 17 16
44 44 70
15 15 11
22 18 12
25 17 14
36 27 18
10 10 8
48 38 25
36 27 19
19 25 13
15 15 11
36 36 18
15 15 11
10 10 8
18 25 12
17 17 13
15 15 11
21 21 13
27 27 15
24 28 13
57 46 36
10 10 8
33 26 36
107 89 40
17 17 12
36 29 20
31 20 23
27 37 19
42 80 44
69 50 37
21 27 18
86 181 57
16 16 12
15 15 13
6 6 9
8 8 10
15 15 18
18 18 14
7 7 9
33 53 58
10 10 12
10 10 16
13 13 15
18 24 19
9 9 11
23 18 19
209 209 209
61 93 45
39 47 34
32 32 26
7 7 9
7 7 9
34 29 33
63 63 83
47 44 28
45 41 55
212 212 212
12 12 15
9 9 11
11 11 13
38 32 19
19 19 24
5 5 7
36 36 42
69 46 36
5 5 7
38 50 27
9 9 11
28 28 20
9 9 11
18 18 16
6 6 10
47 38 34
30 41 42
11 11 13
61 58 37
44 54 30
37 62 41
211 211 211
12 12 14
7 7 9
36 23 19
8 8 10
90 43 52
66 37 27
11 11 13
16 16 16
8 8 10
50 66 55
4 4 6
13 13 15
17 21 23
95 39 35
21 24 17
9 9 11
8 8 10
13 13 21
44 33 35
26 38 35
51 76 39
40 45 29
12 12 14
20 20 18
10 10 12
38 36 31
12 12 14
11 11 27
12 12 14
5 5 7
12 12 14
49 34 51
22 23 15
8 8 10
16 16 18
12 12 14
29 26 15
64 61 44
15 15 17
41 50 37
46 60 35
12 12 14
6 6 8
27 24 19
23 27 20
8 8 10
45 28 34
3 3 8
12 12 14
10 10 12
10 10 12
10 10 12
17 14 14
44 44 33
21 21 19
26 37 25
79 75 60
50 60 31
20 16 17
24 24 19
51 42 32
210 210 210
14 13 31
13 13 15
38 29 30
8 8 10
47 53 33
34 30 28
50 58 38
13 17 14
7 7 18
176 176 121
8 8 10
10 10 12
35 25 25
23 33 24
75 75 55
44 29 33
8 8 10
217 217 217
11 14 11
8 8 10
19 25 35
63 44 108
55 55 36
81 91 60
12 12 14
41 28 38
13 13 15
17 17 19
15 16 27
8 8 10
63 49 61
22 33 25
24 32 25
37 35 27
17 14 16
8 8 10
14 14 17
12 12 14
56 56 131
24 20 21
9 9 12
58 41 82
10 10 12
8 8 10
29 37 30
214 214 214
22 29 23
32 41 33
12 12 14
91 63 74
21 21 17
12 12 14
10 10 12
26 21 22
25 25 17
17 17 19
47 43 31
8 8 10
42 37 29
60 38 53
197 98 72
34 46 28
17 20 21
10 10 12
34 30 30
12 12 14
26 20 18
23 18 19
14 14 16
29 34 30
145 215 215
8 8 10
17 27 18
8 8 10
68 81 42
63 58 42
26 26 21
11 11 11
102 53 40
212 212 212
33 23 35
34 43 32
52 20 28
18 15 18
60 78 69
13 18 19
8 8 10
34 26 36
11 11 13
9 9 11
16 16 13
9 9 11
4 4 6
26 19 20
9 9 11
33 24 25
31 23 32
31 35 24
27 20 17
13 16 18
41 44 30
9 13 15
6 7 15
22 31 24
43 66 40
22 16 16
3 3 6
4 4 6
19 25 20
23 37 26
49 65 30
7 6 17
16 24 26
5 5 7
47 52 34
3 3 5
5 5 7
35 24 30
3 3 5
8 8 9
17 12 13
18 24 19
16 27 16
26 12 16
22 67 43
16 10 11
74 71 56
2 2 4
2 2 4
3 3 5
21 19 16
28 20 24
36 43 32
3 3 5
26 43 29
21 30 32
39 27 19
3 3 5
46 38 38
19 28 20
64 39 34
28 42 24
38 18 23
16 11 12
18 13 12
14 22 16
34 28 21
14 10 16
18 14 14
5 5 7
28 20 18
59 32 42
21 39 33
30 38 23
18 15 13
5 5 7
3 3 5
36 43 38
40 49 59
52 33 31
2 2 4
17 12 13
161 68 55
35 23 18
5 5 7
45 24 21
19 19 15
9 6 8
25 31 15
206 206 206
32 20 21
28 31 19
132 99 45
3 3 5
68 35 26
13 16 12
186 125 63
21 28 28
11 6 6
37 24 21
30 20 20
60 29 39
2 2 4
23 16 13
33 65 44
33 33 25
41 27 21
6 4 4
3 3 5
33 28 34
10 7 8
22 16 16
3 3 3
3 3 5
4 4 6
58 35 58
27 18 18
19 20 15
27 25 15
2 2 4
2 2 4
19 17 12
25 14 17
15 13 13
3 3 5
32 27 27
4 4 6
31 15 23
95 56 43
18 9 9
26 13 19
8 5 7
70 40 28
11 7 8
75 50 35
12 8 9
42 32 21
44 52 19
12 9 20
27 16 14
21 12 12
10 7 8
14 9 11
48 43 28
13 8 15
20 17 14
50 47 27
212 49 70
75 39 48
12 8 9
21 16 18
26 26 26
53 37 27
15 12 13
21 12 25
59 28 22
14 8 17
25 16 21
19 10 11
17 11 12
11 7 8
35 20 22
37 31 28
83 22 32
45 26 29
24 21 17
37 19 26
11 7 9
25 19 15
23 13 38
45 71 35
27 23 14
22 22 16
19 16 11
38 44 29
11 11 9
199 199 133
54 46 26
46 53 26
26 31 24
238 238 158
31 31 17
17 17 12
36 34 19
9 9 6
11 11 8
39 51 50
65 51 19
34 30 28
64 90 34
19 19 14
16 16 12
46 37 17
25 19 14
14 14 11
31 21 14
26 20 14
16 16 12
40 33 19
8 8 16
36 44 21
26 26 13
17 14 10
19 19 12
16 13 11
20 21 29
18 18 29
19 20 30
8 8 9
16 16 12
13 13 10
44 37 24
18 18 16
10 10 12
5 5 7
209 209 209
45 43 42
16 16 13
13 13 15
23 22 25
26 26 29
27 27 22
8 8 10
210 210 210
7 7 9
7 7 9
36 36 26
38 29 21
27 21 22
28 32 23
30 37 28
31 40 22
41 38 29
29 23 30
21 17 18
23 23 25
10 10 12
9 9 11
26 26 19
16 16 13
27 27 22
10 11 27
99 66 46
22 17 15
41 54 32
30 20 19
9 9 11
30 21 22
61 49 54
11 11 13
74 51 65
4 4 6
9 9 11
29 32 22
168 168 114
37 24 27
35 25 36
19 17 31
207 207 207
23 25 44
46 34 35
22 43 32
15 15 42
8 8 10
26 26 22
35 26 28
210 210 210
23 19 25
45 39 33
48 59 63
3 3 5
14 12 30
5 5 7
14 14 16
12 12 14
6 6 8
40 30 42
210 210 210
47 89 36
8 8 10
8 8 10
6 6 8
28 28 24
25 20 18
8 8 10
29 32 25
4 4 6
26 26 22
6 6 8
14 13 30
37 45 58
32 38 22
45 52 62
35 27 28
12 12 14
29 29 23
11 11 18
12 12 14
10 10 12
29 26 22
55 55 41
43 39 32
23 35 22
32 22 23
34 41 41
56 72 40
52 29 35
8 8 10
30 30 23
10 10 12
12 12 14
57 67 80
12 12 14
4 4 6
14 14 16
16 16 14
80 43 46
72 58 45
68 55 75
27 25 25
32 32 38
10 10 12
27 35 37
15 15 17
215 215 215
37 59 40
16 16 14
12 12 14
49 70 39
46 41 54
35 49 39
32 32 24
11 11 21
26 26 21
210 210 210
45 57 32
18 23 23
48 44 39
91 89 62
40 30 31
10 10 12
63 58 49
13 13 38
8 8 10
26 38 26
8 8 10
44 28 42
14 14 25
10 10 12
55 41 33
217 217 217
8 8 10
14 14 16
29 25 23
43 64 56
10 10 12
20 20 22
12 12 14
10 10 12
41 51 38
38 35 27
15 15 17
12 12 14
54 54 42
14 14 16
9 9 12
34 59 28
26 19 20
6 6 8
27 19 19
5 5 12
8 8 10
27 36 27
37 60 39
20 37 30
18 14 15
10 10 12
10 10 12
68 48 39
42 31 44
26 19 19
23 18 19
8 6 21
30 30 26
10 10 12
38 35 33
41 49 39
12 12 14
55 55 41
31 24 25
9 9 12
10 10 12
11 11 13
23 18 25
34 41 29
42 30 44
17 25 25
5 5 7
25 25 21
53 38 54
12 12 14
21 18 21
10 10 12
17 19 50
15 19 19
30 38 34
138 111 71
11 11 11
19 14 15
59 59 42
194 131 91
73 73 53
9 9 11
30 39 31
8 8 10
46 33 33
4 4 6
7 7 9
18 26 18
38 20 21
22 32 24
5 5 7
65 66 91
5 5 7
31 65 36
29 40 23
16 16 12
78 92 58
49 36 22
8 10 21
7 7 9
66 43 33
24 28 17
7 10 9
38 25 21
22 15 16
47 24 32
28 21 19
2 2 4
2 2 4
35 23 20
7 7 9
175 128 60
18 11 14
24 21 21
124 40 47
19 14 14
42 27 25
32 32 32
65 40 30
28 16 15
51 38 49
16 11 18
23 16 17
5 8 6
2 2 4
26 18 19
3 3 5
50 71 41
5 5 7
92 51 30
201 135 93
3 3 5
2 2 4
23 22 28
17 23 25
5 8 6
56 101 37
20 11 11
35 55 38
5 5 7
22 14 14
3 3 5
12 9 10
3 3 5
5 5 5
2 2 4
2 2 4
34 56 46
2 2 4
2 2 4
2 2 4
21 31 27
29 20 16
89 87 51
17 17 15
2 2 4
10 18 10
7 7 9
46 35 24
43 32 28
25 15 17
16 11 12
3 3 5
4 4 6
18 12 12
82 46 27
18 18 14
24 20 24
28 41 21
28 37 35
36 55 30
3 3 5
26 38 38
166 116 116
27 18 15
34 33 29
6 6 8
16 10 10
40 26 35
35 52 28
3 3 5
16 10 10
21 17 14
10 14 13
121 83 83
54 38 34
7 7 9
38 22 18
20 18 13
165 111 111
35 38 26
10 7 8
24 21 21
12 8 10
15 10 10
136 201 136
43 24 36
31 17 16
21 14 11
48 33 24
18 10 10
17 10 9
15 13 14
8 5 7
49 42 26
10 6 8
32 21 16
61 26 21
15 12 13
27 21 21
20 11 15
22 11 11
28 18 15
87 119 58
71 53 29
34 17 17
40 18 16
32 32 17
68 53 74
24 20 15
40 31 29
42 22 35
182 121 59
197 131 131
57 82 48
26 17 14
78 51 31
17 14 15
57 52 31
194 88 129
15 12 11
50 21 24
11 7 9
18 12 13
19 16 17
105 41 52
11 7 9
13 9 9
21 11 11
39 44 23
42 46 21
11 11 9
59 59 36
24 24 15
19 19 13
26 34 18
74 46 38
24 24 14
16 16 31
10 10 8
35 26 24
11 11 8
31 34 16
28 32 14
17 21 15
40 40 22
17 17 12
12 12 16
40 29 20
42 47 21
45 38 20
39 43 19
16 20 14
22 17 12
42 49 28
25 25 16
29 33 18
20 16 15
25 25 20
16 16 12
36 22 20
104 57 28
9 9 8
18 18 13
9 9 7
38 30 21
18 18 16
43 54 23
7 7 9
44 41 28
16 16 13
24 27 19
54 41 37
36 44 30
31 23 33
64 53 33
14 18 14
41 29 43
8 8 10
21 25 15
8 8 10
28 31 18
24 33 34
49 39 27
16 16 14
30 32 39
11 11 13
10 10 12
55 76 42
47 31 47
16 16 13
7 7 9
36 39 26
28 28 19
64 39 49
54 38 51
30 33 40
42 65 47
7 7 17
38 43 26
45 36 33
32 39 28
29 27 40
15 15 30
9 9 11
170 170 117
198 198 134
9 9 11
41 37 26
32 26 28
36 36 29
47 34 43
20 20 18
41 32 37
10 10 12
19 19 12
23 33 35
10 10 12
14 14 16
15 18 16
16 16 18
49 49 121
214 214 214
12 12 14
37 39 23
14 14 16
16 15 34
26 26 22
16 16 18
30 42 37
30 42 28
6 6 8
22 22 18
23 18 19
14 14 16
10 10 12
32 23 27
13 13 15
10 10 12
55 47 34
24 27 27
39 22 25
4 4 6
34 25 20
212 212 212
60 52 53
47 52 58
214 214 214
14 14 16
13 13 15
37 33 31
39 39 44
76 44 49
19 19 37
42 29 24
12 12 14
33 33 25
6 6 8
11 9 21
15 15 17
8 8 10
8 8 10
91 113 61
21 28 29
34 38 48
19 15 16
12 12 14
47 38 39
10 10 12
33 30 24
44 44 37
184 123 57
23 27 21
39 56 35
111 99 73
40 40 31
20 27 23
124 79 93
22 31 23
16 16 21
6 6 8
21 23 41
10 10 12
20 19 36
57 73 41
4 4 6
8 8 10
11 11 26
17 17 19
43 43 33
94 38 39
20 20 17
17 17 19
11 11 13
39 32 24
72 52 64
10 10 12
17 13 19
97 57 78
23 25 21
10 10 12
36 50 41
63 63 47
64 64 48
11 11 13
34 28 38
65 47 42
30 19 17
39 29 54
10 10 12
13 13 20
38 37 26
4 4 6
10 10 13
19 19 16
39 41 39
24 24 21
44 34 28
8 8 10
8 8 10
10 10 13
24 24 20
14 20 15
8 8 10
29 35 27
10 10 12
41 34 25
10 10 12
12 12 14
55 69 45
84 63 39
29 23 24
26 26 21
6 6 8
10 10 12
12 12 14
48 58 37
8 8 10
210 210 210
68 45 35
61 39 33
121 169 115
36 26 38
96 113 67
39 51 35
48 48 35
70 70 51
22 30 27
19 23 19
11 16 18
14 14 16
29 28 37
19 24 24
6 6 8
8 8 10
16 16 18
10 10 12
20 20 18
76 51 59
22 33 29
26 26 22
13 13 15
37 32 29
21 16 17
57 50 43
52 38 35
36 26 26
53 53 32
58 43 41
25 32 25
9 9 11
51 47 34
41 59 31
17 22 18
21 21 19
6 6 8
23 34 36
35 30 32
34 38 25
5 5 7
35 23 22
18 12 10
42 45 28
15 23 16
16 9 9
6 6 8
45 45 31
2 2 4
37 37 28
20 14 22
36 32 26
15 15 18
25 35 23
28 21 21
3 3 5
3 3 5
4 5 15
24 24 18
2 2 11
3 3 5
2 2 4
11 7 8
31 31 23
31 21 23
2 2 4
40 40 28
30 45 23
55 81 60
15 10 11
17 11 16
17 26 18
15 9 9
2 2 4
29 15 18
37 17 17
23 34 24
21 27 15
55 39 43
30 32 21
82 49 48
2 2 4
45 39 31
2 2 4
44 42 57
2 2 4
3 3 5
5 5 7
2 2 4
34 55 41
11 7 34
12 18 13
33 21 18
35 21 20
29 22 33
20 14 15
2 2 4
11 8 9
37 37 49
3 3 5
3 3 5
2 2 4
8 12 12
37 42 36
3 3 5
11 16 18
27 31 28
19 11 11
29 46 32
56 28 23
14 9 10
2 2 4
33 42 22
20 13 15
53 36 34
47 27 43
21 14 11
3 3 5
3 3 5
135 138 135
4 4 6
2 2 4
38 20 20
38 31 26
45 24 23
3 3 5
2 2 4
3 3 9
3 3 5
10 7 10
60 26 21
4 4 6
15 8 7
205 205 205
8 8 10
39 49 39
2 2 4
15 22 16
3 3 5
19 13 13
14 11 11
4 4 6
5 5 7
34 41 23
18 25 25
50 45 39
3 3 5
4 4 6
5 5 7
35 18 15
4 4 6
30 14 21
62 37 46
9 6 7
19 12 14
10 6 7
37 22 18
12 8 9
17 11 33
17 9 9
12 8 9
66 31 38
40 32 24
106 38 38
30 17 20
10 7 8
36 24 25
10 6 8
61 21 21
15 12 10
28 29 25
10 6 8
11 7 8
16 13 11
11 7 8
62 24 37
185 84 84
38 16 16
37 21 21
238 159 159
45 35 22
42 37 23
18 12 12
24 14 17
27 13 13
30 18 14
15 10 11
149 138 67
11 7 9
25 16 14
34 26 18
11 11 9
20 29 13
46 31 18
50 31 17
222 161 94
19 15 11
22 22 13
24 38 18
49 40 34
18 24 17
16 16 12
17 17 12
23 23 17
16 20 11
29 38 19
15 18 11
34 25 17
37 39 23
23 23 14
10 10 8
48 56 37
34 42 23
30 27 16
23 31 16
35 26 18
16 16 12
29 40 17
32 37 18
27 36 18
9 9 8
33 41 25
37 43 20
58 43 36
53 24 25
9 9 7
22 22 12
31 34 15
55 90 55
46 38 34
212 212 212
10 10 12
35 45 26
5 5 7
14 14 12
15 15 18
8 8 8
50 46 29
23 31 20
8 8 10
65 85 88
9 9 11
23 23 20
9 9 11
10 10 12
24 24 20
56 58 58
16 16 15
85 53 61
9 9 11
65 116 45
25 22 25
35 28 25
13 13 15
13 13 27
11 11 13
17 13 19
18 18 19
9 9 11
34 24 25
57 47 41
18 18 15
7 7 10
13 13 15
54 39 26
33 36 25
37 47 31
35 42 25
17 16 23
8 8 10
9 9 11
8 8 10
29 29 23
10 10 12
9 9 11
45 35 33
210 210 210
210 210 210
10 10 12
14 14 16
11 11 13
24 28 22
6 6 8
16 12 13
77 42 51
6 6 8
32 29 24
24 24 20
7 7 9
10 10 12
19 24 28
82 65 44
18 18 15
56 40 56
18 18 15
5 5 7
30 31 34
66 49 69
38 31 27
6 6 16
24 29 31
43 43 40
6 6 8
10 10 12
29 38 30
45 34 35
10 10 12
206 206 206
31 23 33
8 8 10
76 85 49
54 39 31
64 42 35
85 99 38
44 62 34
48 57 42
10 10 12
23 23 20
13 13 15
31 31 25
46 54 47
46 53 66
78 71 55
26 25 28
4 4 6
12 12 14
60 48 44
68 44 49
29 23 30
11 11 13
29 37 39
42 42 31
13 13 15
4 4 6
29 23 31
28 36 38
21 26 22
8 8 10
42 49 49
17 25 18
50 41 45
8 8 10
44 44 31
135 139 94
26 35 23
13 13 15
11 12 18
33 33 27
14 14 16
35 31 23
15 15 26
31 22 32
65 84 59
38 35 46
13 13 15
8 8 10
8 8 10
13 13 15
23 23 18
14 14 26
13 13 15
13 13 15
56 56 36
6 6 8
43 59 52
10 10 12
23 27 29
42 50 39
10 10 12
14 14 16
8 8 10
12 12 14
25 25 22
50 50 182
25 22 74
6 6 8
12 12 14
13 13 15
4 4 6
42 52 28
10 10 12
42 64 32
103 212 103
51 41 49
13 13 15
37 26 39
8 8 10
43 51 30
10 10 12
12 12 14
10 10 12
212 212 212
29 30 31
12 12 14
34 49 28
49 36 54
38 27 40
24 31 25
10 10 12
12 12 14
50 58 43
6 6 8
12 12 14
65 55 37
54 44 60
19 16 17
33 33 26
8 8 10
12 12 14
109 160 109
6 6 8
108 71 45
61 38 50
46 47 39
34 21 25
34 30 39
123 74 70
11 11 13
10 10 12
12 12 14
7 7 9
77 54 43
5 5 11
21 31 19
4 4 6
10 10 12
21 21 25
32 38 29
8 8 10
73 58 43
6 6 8
48 30 27
7 7 9
20 25 31
17 17 14
15 17 12
18 14 15
4 4 6
7 7 9
18 13 14
60 42 32
13 15 15
16 16 17
4 4 6
18 18 20
44 25 24
61 50 34
5 6 19
66 31 29
3 3 6
18 27 28
64 73 41
41 40 24
65 32 32
5 5 7
3 3 6
2 2 4
19 27 29
132 193 128
51 18 22
43 32 23
60 40 31
6 4 4
15 25 19
10 6 8
2 2 4
26 33 18
13 20 14
3 3 5
31 44 32
24 30 15
7 11 7
2 2 4
37 30 31
38 31 33
11 7 17
51 34 30
11 21 11
64 36 51
29 21 16
20 23 20
15 10 11
21 29 19
14 23 12
2 2 4
28 23 16
2 2 4
19 11 11
178 178 86
84 65 53
2 2 4
2 2 4
80 66 49
15 8 8
2 2 4
21 15 30
13 9 10
12 18 13
64 29 37
18 12 12
2 2 4
204 204 204
38 22 14
30 28 19
2 2 4
17 26 24
69 71 65
24 12 16
22 19 28
2 2 4
50 53 39
14 9 10
3 3 5
2 2 4
3 3 5
8 15 10
14 21 13
184 122 83
3 3 5
20 13 15
4 4 6
108 104 104
9 13 9
8 8 10
21 29 32
26 17 13
3 3 5
60 21 28
4 4 6
62 28 22
23 20 16
12 17 14
25 17 18
3 3 5
2 2 4
2 2 4
2 2 4
87 28 44
12 9 10
41 23 23
3 3 5
24 16 16
3 3 5
19 27 29
4 4 6
18 15 14
54 65 38
25 32 17
13 10 10
13 10 11
5 5 7
28 28 19
28 22 14
12 8 9
92 31 35
97 29 33
9 6 6
15 10 11
15 13 14
18 11 10
12 10 10
20 11 15
57 39 45
9 6 8
49 26 19
132 25 41
27 13 13
9 6 7
27 13 15
61 24 29
33 17 13
22 12 12
70 24 23
19 11 11
160 157 107
21 14 12
11 7 9
81 38 47
9 6 6
49 23 21
170 55 55
48 51 37
29 21 21
35 33 23
31 28 21
22 14 12
20 17 18
63 28 46
11 7 9
185 85 85
35 43 17
17 17 12
21 21 15
54 75 43
15 15 11
12 12 11
23 23 13
13 13 10
63 31 23
16 20 14
160 236 113
41 33 18
27 27 16
15 18 11
29 46 17
68 70 41
20 20 14
36 54 37
27 27 16
10 10 8
44 27 18
10 10 8
109 53 40
36 33 18
17 24 13
31 29 15
12 12 9
10 10 8
14 14 10
20 20 13
84 84 31
9 9 8
63 66 42
34 25 17
24 24 13
71 68 36
78 42 63
8 8 10
6 6 8
10 10 12
20 19 21
12 12 14
10 10 12
7 7 9
11 11 13
76 49 52
16 16 31
23 27 18
60 31 28
15 15 13
10 10 12
9 9 11
5 5 7
25 25 15
8 8 10
36 30 33
14 14 16
207 207 207
16 16 15
14 14 16
33 28 22
12 12 14
11 11 13
21 25 19
15 15 17
54 76 36
26 26 20
34 41 41
60 51 59
16 16 13
17 17 14
11 11 13
17 21 57
13 13 15
19 19 16
48 33 31
89 77 50
21 28 23
14 14 13
12 12 14
22 22 20
13 13 15
18 21 24
14 14 16
20 20 16
21 21 17
6 6 8
54 72 33
13 13 15
5 5 7
15 15 13
12 12 14
76 55 44
28 31 39
10 10 12
30 30 25
25 25 20
12 12 14
12 12 14
80 52 40
22 29 31
129 76 62
6 6 8
28 30 22
12 12 14
8 8 10
6 6 8
50 33 44
36 40 29
8 8 10
44 59 36
51 50 38
32 31 77
19 22 20
6 6 8
10 10 12
146 141 99
219 219 219
30 30 23
212 212 212
27 26 31
31 43 41
8 8 10
36 25 31
75 52 47
6 6 8
10 10 12
4 4 6
32 25 34
4 4 6
8 8 10
58 71 85
22 29 30
11 11 13
35 21 21
14 14 17
11 12 22
215 215 215
252 143 213
28 25 25
12 12 14
23 17 18
202 202 136
62 55 40
11 12 20
24 20 26
45 27 39
60 60 44
26 26 22
12 12 15
62 37 52
6 6 8
12 12 26
55 69 43
108 121 67
15 15 17
33 41 45
6 6 8
12 12 14
9 9 12
68 101 35
34 24 36
33 33 32
35 40 29
81 78 55
44 33 27
13 14 27
49 62 38
41 69 34
8 8 10
8 8 10
51 42 36
43 79 66
63 63 46
8 8 10
55 50 35
60 69 52
46 30 42
116 127 73
75 64 130
12 12 14
24 32 34
46 82 53
22 19 16
25 22 60
40 56 32
12 12 14
37 49 30
37 45 25
79 42 44
10 10 12
25 22 18
8 8 10
45 51 41
15 15 17
28 33 25
30 23 24
23 23 18
220 153 79
8 8 10
44 25 27
62 45 46
214 214 214
17 16 29
38 38 25
12 12 14
8 8 10
65 85 47
23 33 24
26 23 23
41 37 24
14 14 16
28 20 30
33 38 47
12 12 14
26 28 20
8 8 10
5 5 8
20 20 45
24 25 51
6 6 8
28 22 27
6 6 8
7 6 15
55 33 32
7 7 9
11 11 13
24 34 25
9 9 14
17 23 18
56 51 32
15 20 22
29 17 17
24 18 18
26 31 30
52 65 57
20 15 15
15 15 17
29 56 56
38 28 29
25 34 35
52 49 63
8 12 9
6 6 8
18 14 14
16 19 16
37 33 31
21 21 17
10 8 24
23 18 32
10 10 12
25 25 18
23 18 16
7 7 10
24 24 19
56 39 33
113 167 167
2 2 4
20 26 32
62 40 31
3 3 6
3 3 5
38 76 25
2 2 4
14 20 92
2 2 4
9 7 37
24 13 13
28 17 21
27 21 18
18 12 13
3 3 5
49 51 35
11 15 19
2 2 4
5 5 6
34 22 26
54 57 27
43 43 31
2 2 4
10 14 16
14 10 11
25 19 28
20 33 33
91 97 39
5 8 5
21 25 26
2 2 4
2 2 4
46 31 27
26 33 26
2 2 4
16 9 9
2 2 4
11 7 8
2 2 4
2 2 4
26 46 22
17 29 19
2 2 4
2 2 4
7 11 8
2 2 4
34 24 16
51 23 28
55 26 16
15 12 10
36 42 29
2 2 4
199 133 133
2 2 4
2 2 4
62 21 22
18 13 13
18 12 13
27 18 19
16 10 12
11 17 12
44 44 31
2 2 4
91 131 126
56 20 22
8 5 5
38 41 29
37 21 21
13 8 14
2 2 4
24 33 36
63 42 35
9 6 7
4 4 6
85 46 30
33 36 26
13 7 7
16 12 13
45 91 24
22 30 30
21 12 27
48 25 33
16 24 13
71 48 35
15 8 8
3 3 5
14 10 12
12 8 9
3 3 5
38 49 24
39 29 21
34 31 19
3 3 5
23 39 34
38 37 23
40 31 31
6 6 9
3 3 5
10 7 8
4 4 6
10 7 7
17 15 13
6 7 18
91 26 29
30 16 16
16 10 10
46 36 28
27 22 16
40 24 18
8 5 7
18 12 10
20 13 11
47 35 38
10 7 8
18 15 28
19 11 11
39 19 26
39 22 19
53 26 20
80 83 37
10 6 8
32 23 30
11 7 12
21 18 19
8 5 7
18 18 13
15 10 11
30 12 15
124 121 121
11 7 9
28 14 13
28 25 26
94 37 57
35 27 32
20 17 13
238 159 159
24 16 13
36 18 25
17 16 12
25 14 13
13 9 10
38 30 24
37 31 31
11 11 8
41 41 23
17 17 12
15 15 11
53 76 39
44 46 20
15 17 29
51 40 21
28 28 14
16 16 12
10 10 8
42 37 26
40 37 18
29 26 17
43 35 17
19 19 11
95 83 34
35 45 27
30 34 17
10 10 8
71 102 56
38 62 30
43 67 34
48 68 39
42 64 52
51 37 27
31 36 19
42 41 35
55 63 25
74 107 62
29 25 17
31 22 20
42 38 18
50 27 20
8 8 10
112 50 73
34 34 23
14 14 16
46 92 26
25 21 16
18 18 13
5 5 7
20 28 21
69 43 28
18 18 17
9 9 11
28 24 18
23 31 24
47 35 34
33 25 22
16 16 12
20 21 13
9 10 21
16 16 15
30 38 22
3 3 5
23 29 31
35 28 22
26 34 36
27 27 22
16 16 19
23 23 19
30 37 38
23 25 26
14 14 12
35 43 30
25 18 26
34 40 32
9 9 11
9 9 11
44 33 19
9 9 11
56 96 55
27 27 21
217 99 77
9 9 12
18 14 20
22 18 46
44 44 29
30 34 27
65 56 48
12 12 14
44 51 29
74 94 35
47 33 56
43 28 37
66 50 62
28 36 25
62 36 45
16 12 18
67 71 54
34 34 27
6 6 8
14 14 16
10 10 12
29 26 24
35 22 23
21 23 36
8 8 10
20 20 18
3 3 6
24 22 20
14 14 16
14 15 25
10 10 12
8 8 10
54 38 34
70 43 35
22 22 19
12 12 14
8 8 10
33 33 27
8 8 10
8 8 10
6 6 8
32 33 23
31 31 25
15 15 30
15 12 13
24 33 25
41 50 35
6 6 8
8 8 10
8 8 10
41 58 37
8 8 10
212 212 212
8 8 10
34 34 22
15 15 17
32 39 25
28 21 55
212 212 212
6 6 8
8 8 10
47 33 29
26 32 36
27 22 17
32 38 33
8 8 10
17 23 40
43 62 59
13 13 15
8 8 10
36 54 30
50 40 36
13 13 15
10 10 12
171 117 117
12 12 14
10 10 13
86 83 43
206 206 206
15 15 17
6 6 8
10 10 12
13 13 15
45 56 43
215 215 215
29 37 38
15 15 29
26 21 31
97 109 84
43 73 39
6 6 8
15 15 17
4 4 6
47 47 29
46 46 36
8 8 10
40 26 34
6 6 8
26 36 26
15 15 17
10 10 12
219 219 219
8 8 10
6 6 8
221 151 157
40 46 35
26 26 23
17 17 15
12 12 14
8 8 10
8 8 10
66 41 52
36 29 38
100 140 140
39 46 34
8 8 10
13 13 15
26 35 26
6 6 8
49 32 44
15 21 16
14 19 21
15 15 17
146 141 146
8 8 10
31 26 26
67 77 43
8 8 10
29 38 39
11 15 12
30 57 40
55 45 42
59 50 32
49 77 43
60 56 41
15 12 13
17 13 14
14 14 16
25 19 20
41 29 43
10 10 12
55 46 36
19 16 17
8 8 10
214 214 214
51 50 36
43 43 33
83 47 41
10 10 12
48 58 70
46 24 23
53 53 55
31 31 27
16 16 18
40 46 58
10 14 12
26 21 22
58 35 50
23 29 29
18 24 19
212 212 212
19 23 37
12 12 14
9 9 11
27 21 22
40 27 27
75 54 48
16 12 13
73 64 39
33 28 28
26 31 22
58 74 41
18 27 21
16 20 17
2 2 4
5 5 7
14 19 14
14 14 11
4 4 6
29 26 27
19 27 27
75 64 51
3 3 5
2 2 4
11 7 8
60 25 32
38 30 25
30 47 33
44 43 35
66 45 32
8 12 8
50 40 38
38 25 21
40 26 36
2 2 4
49 68 55
14 9 10
56 56 40
26 26 19
7 11 8
2 2 4
67 25 33
28 45 38
5 5 16
10 12 12
22 15 12
33 18 19
16 28 18
2 2 4
34 34 23
22 15 16
40 22 24
34 34 24
5 6 23
61 46 34
12 19 19
2 2 4
2 2 4
2 2 4
27 18 19
2 2 4
14 22 15
22 18 14
37 18 18
38 54 30
27 43 24
12 21 12
43 34 24
2 2 4
20 14 13
15 23 16
23 35 36
11 7 7
18 12 19
20 25 18
2 2 4
8 5 12
8 12 7
39 41 29
46 56 34
44 35 24
40 40 24
2 2 4
2 2 4
7 7 19
9 13 10
35 44 30
22 42 28
19 11 13
21 13 13
18 13 12
17 11 12
3 3 5
39 22 39
2 2 4
13 8 9
170 170 170
74 48 44
15 22 24
11 16 12
16 13 13
31 26 21
26 19 15
50 47 23
6 6 8
11 7 8
8 5 8
9 6 8
4 4 6
62 70 47
23 12 12
21 18 18
19 13 13
13 19 19
17 23 25
111 83 32
28 18 13
18 22 22
33 18 23
34 22 16
9 6 7
12 7 7
9 6 12
19 16 14
18 27 53
12 12 9
37 24 32
17 11 18
5 5 7
39 52 52
23 19 17
14 9 10
12 6 6
44 29 21
23 12 17
44 21 30
25 12 13
33 28 20
9 6 7
18 10 23
10 6 8
42 22 18
17 14 12
7 4 6
13 11 10
237 158 158
31 31 25
100 38 50
10 6 8
238 158 158
24 16 12
24 21 22
47 21 27
11 7 8
40 20 25
28 15 20
19 12 11
11 7 9
30 15 18
83 35 39
38 21 29
51 23 32
57 24 29
86 33 28
12 8 9
11 7 8
29 29 16
30 25 18
36 26 19
34 23 21
25 19 17
18 18 13
26 30 20
60 48 31
27 35 25
14 14 11
10 10 8
10 10 8
10 10 8
19 24 17
17 22 10
27 21 19
145 142 95
10 10 8
17 17 12
19 19 13
40 38 21
11 11 8
34 51 26
43 32 19
15 15 11
9 9 8
44 39 19
198 198 132
17 17 12
9 9 7
67 48 32
23 32 16
23 23 19
8 8 8
21 19 14
26 32 20
19 19 12
14 18 14
29 35 23
28 35 21
10 10 12
71 54 35
74 44 35
44 61 36
10 10 12
16 20 22
31 30 22
16 12 18
41 36 30
32 32 24
17 17 15
45 40 24
45 36 21
9 9 11
23 23 20
24 24 19
56 40 31
28 28 20
11 11 13
20 20 17
32 40 24
11 11 13
3 3 5
37 31 25
7 7 9
65 86 45
15 15 17
25 23 19
5 5 7
5 5 7
17 17 15
72 49 40
20 20 16
66 33 37
31 24 34
38 55 69
11 11 13
44 56 56
55 65 42
8 8 10
35 31 22
16 15 33
8 8 10
104 119 68
214 214 214
55 59 37
12 12 14
34 41 26
37 28 35
45 30 43
8 8 10
24 18 26
22 29 31
19 19 18
19 20 57
18 18 38
53 50 49
48 59 30
39 32 25
43 26 35
38 29 42
13 15 10
92 56 73
48 65 56
51 49 32
37 40 30
47 44 28
12 12 14
44 35 27
24 32 34
49 68 36
39 30 41
29 29 23
210 210 210
31 31 24
10 10 12
10 10 12
10 10 12
35 37 24
216 216 216
10 10 12
29 24 21
40 40 31
193 134 131
8 8 10
13 13 15
39 47 46
49 34 32
10 10 12
44 53 62
33 40 25
210 210 210
17 17 19
54 46 28
51 52 34
50 38 52
15 15 17
13 13 15
22 28 30
15 15 17
35 46 48
20 18 40
214 214 214
35 42 27
27 36 28
32 32 26
33 33 27
10 10 12
198 129 145
25 33 26
28 36 27
16 16 14
10 10 12
39 35 29
219 219 219
31 24 31
40 26 35
31 31 26
15 15 17
45 68 31
8 8 10
51 39 31
41 54 42
41 54 46
8 8 10
8 8 10
65 45 55
15 15 17
11 11 13
6 6 8
13 13 15
8 8 10
55 41 57
12 12 14
8 8 10
21 26 28
32 41 33
23 18 19
8 8 10
41 31 42
49 29 40
15 15 17
12 12 14
37 59 51
18 14 20
13 13 15
21 29 23
10 10 12
45 55 33
11 11 13
8 8 10
8 8 10
42 36 31
13 13 16
19 23 20
20 15 17
173 120 120
31 23 20
65 43 67
57 33 41
10 10 12
24 18 19
23 27 24
51 36 36
31 38 23
29 19 23
4 4 6
40 40 31
61 54 32
129 187 134
57 34 34
8 8 10
36 26 23
57 31 47
35 31 31
31 31 23
8 8 10
24 20 21
214 214 214
26 36 38
11 11 12
29 29 23
34 44 29
14 14 16
10 10 12
12 12 14
4 4 6
11 11 10
65 71 58
39 97 88
34 34 28
23 31 24
17 21 18
18 23 25
64 38 42
18 22 48
50 26 31
33 40 29
9 9 11
44 35 57
23 19 20
27 31 31
28 42 36
31 51 38
39 25 25
36 26 23
42 31 22
6 6 8
48 54 26
23 21 21
41 41 30
32 22 33
3 3 5
16 28 16
5 5 7
15 11 12
30 19 19
29 40 27
17 10 10
55 34 27
39 69 65
36 36 27
25 51 27
32 22 23
34 25 23
54 61 31
24 29 17
17 20 14
23 14 14
20 35 27
27 19 15
82 54 43
4 3 15
31 42 22
13 9 10
7 11 12
2 2 4
2 2 4
46 53 28
14 14 14
54 31 42
49 34 27
18 50 31
15 19 13
2 2 4
32 35 27
20 13 22
16 11 12
20 37 25
2 2 4
2 2 4
2 2 4
19 13 14
2 2 4
2 2 4
2 2 4
14 9 16
2 2 4
27 24 24
10 7 8
46 51 28
49 50 39
2 2 4
17 11 12
18 24 20
42 47 21
2 2 4
22 22 16
2 2 4
19 14 14
10 6 8
13 20 10
68 62 52
12 8 13
9 9 7
34 25 17
36 47 41
2 2 4
2 2 4
25 28 19
19 13 12
16 19 24
20 13 14
15 11 9
113 61 33
40 38 27
14 9 10
3 3 5
74 20 24
35 28 28
24 14 14
9 14 10
22 19 20
42 34 52
47 40 34
2 2 4
44 14 18
14 9 11
2 2 4
2 2 4
15 15 11
203 93 136
31 21 22
11 15 12
18 28 15
4 4 6
3 3 5
25 11 13
122 120 82
28 35 19
19 14 13
4 4 6
40 49 27
4 4 6
34 21 18
3 3 5
45 36 22
18 15 12
42 23 35
14 8 8
3 3 5
4 4 6
25 15 14
25 21 18
13 20 13
16 28 16
33 22 35
47 53 37
10 6 8
15 14 21
36 27 22
45 29 17
18 12 9
17 9 9
46 36 40
30 12 14
11 7 8
8 5 7
9 6 7
237 158 158
48 23 33
51 18 19
28 12 13
30 15 23
32 15 14
126 121 61
20 19 19
10 7 8
10 7 8
54 26 37
151 148 101
25 13 14
64 57 33
28 25 20
17 14 11
27 33 20
50 21 28
11 7 9
15 13 13
11 7 9
17 17 12
87 47 28
23 23 14
38 31 18
11 11 8
21 16 12
35 30 17
10 10 8
27 45 22
50 66 34
10 10 8
10 10 8
10 10 8
10 10 8
16 16 12
33 39 31
21 21 13
43 33 30
78 52 51
42 57 24
35 58 19
93 94 31
15 15 25
67 52 34
26 20 14
9 9 8
17 15 40
13 13 10
9 9 7
13 16 12
59 74 43
9 9 7
10 10 12
8 8 10
10 10 12
25 26 20
210 210 210
3 3 5
33 37 28
8 8 10
94 73 36
73 69 38
22 18 13
42 61 33
9 9 11
43 34 21
5 5 7
42 55 33
41 37 30
34 34 21
7 7 9
25 30 24
12 12 14
23 23 20
41 34 25
23 25 18
27 20 21
23 23 19
15 15 12
57 57 189
11 12 28
17 20 13
9 9 11
38 45 23
34 27 20
160 160 108
34 41 32
29 21 23
28 36 38
28 37 21
13 13 15
7 7 10
48 51 31
16 14 37
51 34 47
25 34 25
11 11 13
41 31 29
206 206 206
34 25 26
12 12 14
8 8 10
23 20 16
8 6 27
14 14 16
33 42 23
10 10 12
30 24 27
35 35 28
14 14 16
10 10 12
10 10 12
10 10 12
6 6 8
78 72 48
10 10 12
62 53 70
62 62 39
47 35 30
44 39 31
36 27 28
20 20 17
8 8 10
35 42 43
12 12 14
20 15 21
38 31 24
18 31 18
53 35 38
8 8 10
10 10 12
17 16 44
12 12 14
58 76 43
6 6 8
13 13 13
8 8 10
34 28 25
50 50 33
10 10 12
15 15 17
42 30 39
26 19 20
40 49 35
38 27 28
12 12 15
21 26 31
27 27 23
55 83 81
8 8 10
15 13 43
79 60 39
49 42 32
8 8 10
12 12 14
13 13 15
10 10 13
10 10 12
10 10 12
75 92 54
17 17 19
15 15 17
58 46 41
32 43 45
35 35 27
6 6 8
13 13 15
17 22 18
12 12 14
11 11 13
78 90 58
68 68 49
11 11 13
56 44 56
58 43 33
23 23 18
53 53 41
179 179 179
21 25 25
24 28 63
13 13 15
8 8 10
43 37 24
11 11 13
26 20 26
38 50 33
6 5 8
24 29 25
30 28 24
27 36 28
4 4 6
29 40 30
65 65 49
13 13 15
13 13 15
41 34 22
52 38 54
50 41 37
34 52 43
13 13 15
13 13 15
11 11 13
16 16 29
10 10 12
47 43 61
18 14 16
36 30 26
50 42 46
37 30 27
28 24 22
42 51 35
15 15 17
11 11 13
10 10 12
17 17 19
15 19 16
39 36 27
8 8 10
10 10 12
12 11 22
21 28 30
50 80 41
21 25 21
16 19 30
10 10 12
64 69 45
14 14 26
222 178 114
12 14 29
58 75 68
60 78 50
8 8 10
21 17 17
47 58 52
34 30 37
43 35 25
38 39 32
53 89 43
24 20 20
207 207 207
36 56 42
47 54 40
30 30 22
177 177 177
18 14 15
27 35 36
12 12 14
11 11 21
35 49 37
32 55 45
13 13 16
39 51 33
10 10 12
37 36 24
38 31 26
18 22 19
7 7 9
205 139 205
15 15 17
34 24 21
10 10 12
11 14 13
13 9 10
12 18 16
240 160 81
11 15 12
19 13 14
113 95 59
24 17 26
36 28 22
5 5 8
59 50 39
5 5 8
3 3 5
4 4 6
30 24 20
16 11 12
2 2 4
36 25 40
56 64 38
17 13 11
18 26 20
17 34 23
44 44 30
32 21 22
3 3 5
39 51 23
28 18 17
2 2 4
2 2 4
8 12 12
52 42 31
25 19 25
13 8 10
31 55 38
24 24 17
9 5 5
15 10 11
0 0 0
2 2 4
21 30 34
36 47 40
70 54 49
2 2 4
19 12 14
43 23 19
24 30 31
158 158 105
61 58 37
6 4 4
3 3 13
39 31 21
16 10 12
43 97 45
13 29 25
19 11 12
2 2 4
21 21 15
2 2 4
14 9 10
19 29 31
8 5 7
107 161 107
33 64 78
33 22 34
7 11 8
2 2 4
2 2 4
56 33 30
41 37 24
2 2 4
43 27 19
48 32 24
2 2 4
2 2 4
18 15 13
45 43 27
33 15 17
21 21 15
2 2 4
51 46 35
15 32 38
41 49 29
31 21 22
14 24 14
6 9 7
46 37 26
205 205 205
13 19 21
55 26 35
62 44 51
20 25 15
27 21 27
38 20 30
9 6 7
16 10 10
25 14 14
2 2 4
23 20 13
66 38 47
48 36 24
166 166 166
156 237 112
13 19 19
199 132 132
11 7 8
3 3 5
3 3 5
2 2 4
2 2 4
35 40 22
3 3 5
206 138 146
5 5 8
4 4 6
45 30 23
16 13 9
25 21 20
46 60 44
33 41 27
205 205 205
3 3 5
23 30 20
23 15 15
16 11 11
24 16 12
4 4 6
29 36 37
3 3 5
5 5 7
9 6 7
18 9 9
51 27 20
36 25 22
10 6 8
47 17 22
30 28 31
30 20 13
7 4 6
8 5 7
61 66 46
39 17 21
18 11 10
9 6 8
20 19 16
23 15 12
18 10 11
49 32 37
11 7 8
67 51 31
67 42 35
16 13 10
11 7 8
11 7 9
11 7 9
238 159 159
11 7 9
10 7 8
34 17 18
11 7 8
32 33 17
60 60 30
23 23 14
31 21 18
10 10 8
14 15 26
87 105 35
10 10 11
136 58 28
29 34 26
61 42 34
16 21 15
42 32 17
21 21 15
17 17 13
81 63 28
24 21 18
12 12 9
28 25 14
154 227 71
38 29 16
28 31 16
28 38 27
27 37 19
25 25 14
21 28 15
15 15 11
45 36 24
13 13 10
8 8 10
10 10 12
36 22 16
5 5 7
189 132 92
19 19 14
26 18 28
17 17 15
43 35 25
63 44 37
46 64 38
19 19 16
11 11 13
53 35 51
5 5 7
36 46 29
17 17 15
24 19 66
52 31 45
22 18 12
40 51 38
35 25 26
29 29 23
36 51 31
21 26 26
35 43 32
35 39 25
54 67 74
26 26 19
7 7 9
54 36 30
15 15 17
69 43 61
37 37 25
7 7 9
9 9 12
13 13 15
140 206 140
9 9 11
61 52 46
3 3 6
45 31 30
9 9 11
2 2 4
54 31 42
37 47 25
13 13 15
10 10 12
53 39 23
62 47 156
48 55 41
28 28 24
6 6 8
29 29 23
2 2 4
8 8 10
8 8 10
27 35 37
20 20 16
8 8 10
4 4 6
25 36 28
26 17 19
23 23 21
12 12 14
10 10 21
8 8 10
12 12 14
37 52 29
14 14 16
152 224 112
45 57 40
13 13 10
8 8 10
20 27 21
27 21 28
37 52 39
41 25 36
55 59 37
23 23 20
10 10 12
53 38 31
12 12 14
205 205 205
6 6 8
75 46 65
22 22 18
10 10 12
8 8 10
75 52 48
16 16 14
20 20 21
6 6 8
61 54 32
13 13 15
11 11 13
31 36 25
33 24 33
38 48 42
71 49 57
39 34 26
11 9 27
13 19 14
39 39 31
10 10 12
12 12 14
28 28 37
10 10 25
51 32 45
68 48 53
13 13 15
21 15 16
32 43 33
10 10 13
27 42 37
67 86 46
8 8 10
17 17 32
29 34 20
17 17 14
25 25 21
31 36 23
11 11 13
39 58 37
8 8 11
15 15 17
59 59 43
75 47 62
54 78 43
26 44 28
72 90 53
34 24 36
57 81 46
36 51 48
30 21 27
15 15 17
93 75 81
61 65 41
40 30 42
60 82 74
6 6 8
217 217 217
38 46 43
23 31 33
24 17 25
15 15 17
45 55 48
49 41 36
46 36 46
15 15 17
8 8 10
8 8 10
30 25 30
13 13 15
15 20 22
34 59 30
15 15 17
12 12 14
45 58 35
38 38 30
117 169 117
52 52 39
31 35 35
23 19 20
32 41 55
37 44 31
6 6 8
6 6 8
36 39 27
44 51 45
49 69 56
8 8 10
25 19 25
13 13 15
69 42 62
22 17 17
37 44 38
13 15 13
12 12 14
12 12 14
19 24 21
27 43 20
6 6 8
208 208 208
104 46 55
53 44 39
10 10 12
73 64 51
10 10 12
21 25 21
14 14 16
16 16 18
24 37 33
24 20 21
56 56 39
14 14 16
62 81 45
12 12 14
45 37 41
11 11 14
21 32 21
35 19 27
30 23 32
36 42 30
38 27 40
17 14 14
7 7 9
36 36 36
212 212 212
9 9 11
32 28 25
18 18 15
150 152 102
14 11 16
8 8 10
16 12 12
22 25 19
32 16 54
2 2 4
33 23 24
69 69 48
21 15 15
7 9 11
32 39 39
21 15 16
44 24 22
35 19 24
22 26 32
25 22 23
33 47 27
38 25 35
11 7 8
15 21 16
32 24 18
25 22 23
10 10 10
25 32 22
48 92 32
72 52 33
23 13 16
24 16 26
12 22 12
16 16 12
13 9 10
60 62 34
2 2 4
27 22 24
48 27 40
44 41 27
9 14 16
10 10 6
15 10 11
44 24 36
31 44 25
61 32 37
19 12 14
12 18 20
8 12 8
7 7 7
2 2 4
35 36 27
129 194 129
55 40 41
2 2 4
28 18 28
16 20 20
16 35 32
2 2 4
18 27 12
35 15 20
2 2 4
9 9 10
18 12 13
43 44 50
14 17 12
2 2 4
22 22 16
10 6 7
9 6 11
10 15 17
12 8 9
12 18 13
22 14 16
19 33 19
29 14 22
20 20 14
2 2 4
30 23 20
21 11 11
25 25 24
48 34 25
12 19 14
28 23 15
20 12 12
9 6 7
16 12 10
46 25 35
2 2 4
17 10 10
11 7 7
63 73 34
2 2 4
28 18 20
9 14 16
35 38 19
16 18 12
2 2 4
18 9 13
23 13 13
2 2 4
21 30 17
3 3 5
14 9 18
20 33 20
14 9 11
40 51 58
23 30 36
17 26 28
6 6 8
41 33 51
16 20 13
12 8 9
15 10 9
3 3 5
14 14 10
50 17 16
35 42 50
20 31 31
44 36 54
33 31 16
50 39 24
4 4 6
45 25 23
29 18 20
64 29 34
5 5 7
12 7 7
10 5 5
51 28 35
10 7 9
54 29 31
53 34 40
16 9 10
30 18 16
54 49 27
28 21 15
24 11 11
23 13 12
83 52 23
35 19 19
25 22 17
25 13 11
10 7 8
46 37 43
235 157 157
35 28 28
41 32 23
10 7 8
26 17 14
194 129 129
9 6 8
30 16 25
10 7 8
10 7 8
55 22 31
65 23 25
97 29 58
12 8 9
47 23 30
16 11 12
55 52 31
34 29 24
11 11 12
33 33 17
15 15 11
10 10 8
10 10 8
16 16 12
18 23 13
10 10 6
14 12 8
21 21 13
43 78 43
18 18 13
34 29 18
35 39 19
34 36 17
56 50 19
43 27 20
38 48 23
10 10 8
15 15 11
34 29 16
9 9 8
84 51 45
28 42 20
15 15 11
47 63 23
11 11 9
17 19 13
8 8 10
15 13 10
44 51 40
71 35 46
19 24 15
39 22 39
17 27 27
9 9 11
9 9 11
84 53 43
12 12 9
45 44 37
42 42 90
35 40 22
10 10 12
20 20 24
9 9 11
46 36 36
26 34 27
9 9 11
3 3 5
9 9 11
15 15 17
9 9 11
7 7 9
38 35 27
25 20 16
36 26 27
3 3 5
52 57 31
11 11 13
9 9 11
50 28 38
22 30 32
25 30 25
23 17 18
9 9 11
9 9 11
15 15 17
51 34 40
26 26 22
11 11 13
12 12 14
10 10 12
36 29 30
12 12 14
14 20 14
171 171 116
33 36 24
9 9 21
9 9 12
8 8 10
64 45 46
76 74 40
26 19 14
41 33 42
13 13 15
8 8 10
12 12 14
14 14 16
21 16 17
53 57 68
11 11 16
10 10 12
51 34 25
164 65 59
6 6 8
14 14 16
48 28 40
8 8 10
8 8 10
10 10 12
39 28 40
8 8 10
14 14 26
58 54 36
8 8 10
47 47 40
8 8 10
8 8 10
22 25 20
177 177 122
28 21 22
219 219 219
55 43 63
29 22 31
46 33 31
31 40 32
10 10 12
40 40 29
12 12 14
33 35 26
44 44 33
25 19 26
13 13 15
8 8 10
38 28 40
12 12 24
8 8 10
15 20 21
62 62 45
21 18 16
42 64 28
41 36 23
15 21 16
18 23 25
82 73 53
10 10 12
20 23 18
15 15 17
66 59 32
17 17 19
10 10 12
8 8 10
10 10 12
34 43 25
29 29 21
13 13 15
13 13 15
52 52 38
208 208 208
31 33 36
46 46 42
11 11 13
85 71 46
13 13 15
15 15 17
13 13 15
15 15 17
79 79 56
10 10 12
33 24 33
15 15 17
24 24 18
77 52 46
219 219 219
6 6 8
15 23 30
15 15 17
13 13 15
101 78 52
74 51 62
47 47 38
32 29 24
79 123 47
28 25 25
54 61 64
6 6 8
40 67 48
10 10 13
24 33 26
25 21 27
76 82 53
19 16 17
11 11 13
6 6 8
12 12 14
15 15 17
37 37 27
10 10 12
41 45 35
40 67 36
31 40 35
23 23 27
24 18 18
4 4 6
15 15 17
8 8 10
11 10 27
10 10 12
35 47 36
26 36 38
50 44 34
12 12 14
10 10 12
41 57 36
32 35 32
41 35 32
41 31 29
45 48 38
8 8 10
12 12 14
12 12 14
8 8 10
45 39 39
212 212 212
109 97 66
219 219 149
6 6 8
4 4 6
17 24 26
9 7 23
39 47 35
8 8 10
28 37 29
19 16 21
13 10 11
21 35 48
24 24 19
35 31 26
95 72 44
51 61 56
38 29 24
212 212 212
10 10 12
48 43 37
25 34 32
7 7 9
27 31 39
20 16 17
5 5 8
80 51 72
49 49 37
32 47 29
57 46 35
4 4 6
207 139 139
33 23 20
205 137 205
46 54 38
18 18 13
21 21 17
39 41 45
14 22 16
2 2 4
37 23 28
58 79 41
47 57 31
68 35 47
6 10 8
2 2 4
14 16 16
45 31 25
3 3 5
24 36 19
28 49 42
25 50 22
14 14 10
15 10 11
2 2 4
24 36 24
11 9 8
15 8 8
33 44 21
2 2 4
2 2 4
119 55 33
14 9 10
7 9 24
36 23 22
35 23 24
2 2 4
216 141 50
15 8 8
13 23 11
14 20 20
38 23 23
12 19 21
2 2 4
25 38 40
2 2 4
2 2 4
12 8 8
2 2 4
2 2 4
50 31 26
6 4 4
30 46 41
11 7 8
30 18 17
47 20 31
42 42 35
14 9 10
2 2 4
25 22 30
2 2 4
2 2 4
8 8 8
2 2 4
2 2 4
20 15 18
2 2 4
27 18 15
43 64 24
226 226 151
137 205 205
2 2 4
49 35 19
18 12 10
85 33 29
2 2 4
8 5 5
13 19 14
2 2 4
28 23 25
13 9 10
2 2 4
45 47 30
19 10 10
34 22 29
2 2 4
49 25 34
204 204 204
12 6 6
2 2 4
15 22 24
2 2 4
60 44 42
45 45 48
74 49 34
17 24 26
2 2 4
3 3 5
17 11 12
2 2 4
32 29 19
11 7 9
61 40 31
4 4 6
2 2 4
30 34 46
12 17 13
31 22 23
20 12 11
27 18 16
10 7 8
14 12 10
4 4 6
2 2 4
10 7 8
26 34 22
13 9 10
15 23 16
5 5 6
32 18 21
87 128 91
7 7 9
3 3 5
6 4 5
27 15 15
32 25 37
16 13 13
30 24 18
39 31 26
22 11 10
46 37 42
12 8 9
51 24 26
15 8 8
46 30 27
24 18 18
228 152 103
9 6 7
24 21 15
14 11 9
36 20 29
12 10 8
29 15 15
31 18 15
9 6 7
14 9 11
8 5 7
38 22 22
11 7 8
17 9 9
16 10 10
33 30 20
28 14 19
88 49 26
43 18 23
79 39 45
56 88 40
15 15 11
18 15 11
54 26 25
16 19 14
59 42 25
20 25 14
59 59 25
10 10 8
56 61 20
36 42 31
18 18 13
25 34 24
58 52 22
16 16 12
149 77 43
24 27 15
41 62 46
15 15 11
23 18 39
21 33 23
16 16 10
32 39 26
18 18 13
80 91 28
25 34 16
10 10 12
28 28 18
8 8 10
15 15 30
50 70 29
45 76 26
10 10 12
31 24 17
7 7 9
45 44 28
144 212 144
170 170 116
73 73 36
12 12 14
5 5 7
18 18 17
51 50 40
27 30 18
18 18 13
21 21 17
29 29 24
23 23 20
34 38 23
30 24 22
5 5 7
41 55 24
8 8 12
13 13 13
9 9 11
24 17 18
36 36 23
9 9 11
207 207 207
32 44 24
5 5 7
30 26 23
22 28 20
20 20 18
25 25 21
30 26 21
16 16 14
60 72 40
11 11 13
4 4 6
23 23 20
31 47 34
48 48 36
31 31 24
57 58 26
12 12 14
13 13 16
23 23 16
27 33 23
12 12 14
35 25 22
206 206 141
3 3 6
28 28 20
74 74 53
194 136 133
28 28 24
58 43 27
25 25 20
10 10 12
30 45 23
36 36 29
8 8 10
12 12 14
14 14 16
16 16 18
35 35 29
40 44 25
40 45 32
67 57 32
38 42 26
12 12 14
15 15 29
208 208 208
48 28 40
10 10 12
19 19 16
63 61 41
38 27 40
13 13 15
35 30 23
23 24 37
8 8 10
65 42 58
42 61 41
16 16 19
13 13 15
26 21 28
18 18 15
52 52 41
54 57 32
42 70 52
15 15 17
8 8 10
6 6 8
4 4 6
12 12 14
48 35 50
15 16 20
32 23 24
10 10 12
33 26 34
11 11 13
13 13 15
30 30 23
97 89 87
30 24 26
19 20 39
20 26 21
44 50 33
208 103 148
8 8 17
49 40 32
44 33 45
39 39 25
55 47 44
64 36 56
12 12 14
60 94 52
212 212 212
13 13 15
40 49 36
40 30 42
10 10 12
32 35 36
12 12 14
85 83 46
13 13 15
29 37 37
79 61 51
11 11 13
11 11 13
11 11 13
6 6 8
54 36 30
35 44 33
29 45 39
15 15 17
8 8 10
52 31 52
10 10 12
8 8 10
8 8 10
15 20 15
29 42 38
8 8 10
32 42 36
36 36 29
8 8 10
49 49 37
28 21 21
27 31 40
186 94 92
23 23 20
45 33 45
20 24 21
29 23 25
20 22 40
73 64 45
19 19 20
13 13 15
10 10 13
25 16 33
75 58 41
12 12 14
24 32 25
52 34 46
26 20 21
33 46 43
10 10 12
39 27 40
24 39 28
28 21 22
27 21 40
30 22 18
10 10 12
44 33 47
94 94 54
25 33 35
10 10 12
67 55 57
46 26 34
35 33 25
41 39 27
53 53 44
12 12 14
10 11 23
16 21 18
10 10 12
16 16 18
27 37 24
33 36 26
44 34 27
34 55 29
29 42 29
8 8 10
16 21 16
26 19 21
21 28 28
24 18 20
42 31 27
12 12 14
8 8 10
26 20 21
30 33 40
23 33 30
48 65 36
14 14 16
35 32 33
16 13 14
6 6 8
6 6 8
12 12 14
17 12 13
15 11 12
2 2 4
13 9 9
21 25 25
15 25 12
4 4 6
30 25 21
17 21 14
46 36 36
27 28 31
2 2 4
13 8 10
78 36 37
17 24 18
44 36 26
28 15 13
2 2 4
30 16 20
3 3 5
2 2 4
45 30 23
29 22 22
53 31 29
40 50 51
28 48 34
54 28 33
2 2 4
19 25 25
21 14 28
45 34 24
6 10 9
27 35 35
25 33 17
26 35 26
72 46 35
18 12 12
30 18 18
2 2 4
2 2 4
34 26 29
36 17 16
63 42 37
29 21 25
2 2 4
42 49 34
17 15 15
25 14 14
2 2 4
17 17 14
23 19 20
15 10 11
27 41 20
10 15 15
2 2 4
10 6 7
2 2 4
17 11 13
21 14 15
14 18 18
13 9 10
21 35 15
48 30 23
15 23 14
22 16 24
20 16 16
2 2 4
2 2 4
27 14 18
45 38 28
14 26 18
30 22 16
71 33 30
12 8 9
35 19 24
24 11 16
28 40 21
2 2 4
8 13 9
2 2 4
2 2 4
12 7 7
53 38 28
27 41 23
21 17 17
33 22 23
12 8 9
2 2 4
9 6 7
18 10 10
8 5 6
26 17 27
2 2 4
33 41 41
16 9 9
2 2 4
25 14 12
15 8 8
11 17 17
10 16 16
35 39 23
15 22 22
17 10 10
40 18 23
2 2 4
2 2 4
15 10 11
14 9 9
10 10 11
23 23 16
12 7 7
15 29 21
34 31 35
52 38 34
14 8 8
41 54 33
4 4 6
2 2 4
4 4 6
3 3 5
7 5 5
11 7 7
50 43 36
23 16 26
19 27 18
2 2 4
14 24 14
3 3 5
8 11 9
5 5 7
16 10 8
106 32 42
9 6 7
105 30 30
14 12 10
8 5 6
10 6 8
235 106 74
19 12 9
9 6 7
191 127 127
17 9 9
62 25 37
10 6 8
27 25 23
40 24 17
15 8 8
63 35 63
78 25 34
43 25 28
53 49 34
34 36 25
11 7 9
11 7 9
19 13 13
11 7 9
23 18 12
31 43 30
23 21 17
10 10 8
34 48 31
55 44 24
13 13 9
45 37 30
15 15 11
60 47 30
23 24 13
29 25 40
21 21 23
23 19 13
70 52 41
19 19 14
51 33 24
17 17 13
32 22 13
9 9 8
9 9 7
52 56 25
26 26 15
15 20 10
33 30 18
27 40 20
26 22 17
136 197 134
12 12 14
7 7 9
210 210 210
5 5 7
9 9 11
44 62 37
23 23 19
14 17 12
172 78 84
40 28 43
29 35 26
47 37 38
13 13 12
41 55 37
10 10 12
9 10 33
21 26 15
32 30 29
19 19 17
21 21 17
42 38 19
43 39 24
11 11 13
29 33 25
21 24 16
11 11 13
9 9 11
9 9 11
31 25 31
12 12 10
26 36 28
11 11 13
36 30 30
9 9 11
7 7 9
20 20 16
24 20 15
54 74 39
28 27 30
111 85 56
105 101 69
11 11 13
9 9 11
25 28 23
39 29 30
10 10 12
211 211 211
26 18 28
51 41 31
6 6 8
44 44 33
34 38 25
11 11 13
21 21 19
134 130 130
69 49 54
40 35 24
10 10 12
35 35 34
38 38 28
44 32 40
12 12 14
20 20 17
4 4 6
24 24 19
10 10 12
12 12 14
78 52 57
12 12 14
10 10 12
24 18 20
151 213 106
45 41 29
12 12 14
45 45 31
46 46 34
4 4 6
8 8 10
22 27 29
36 42 43
23 33 24
57 48 33
15 14 32
8 8 10
22 30 23
14 14 16
61 101 70
201 137 201
51 64 45
35 32 36
15 15 17
29 21 31
52 33 56
24 24 21
21 29 22
44 42 32
44 40 53
8 8 10
17 17 19
6 6 8
20 20 17
10 10 12
34 31 35
6 6 8
28 28 22
10 10 12
13 13 15
6 6 8
23 32 24
73 77 46
17 17 19
60 51 39
15 15 17
22 22 19
27 28 26
22 48 22
52 64 43
10 10 12
47 34 49
26 26 49
18 18 18
44 40 30
6 6 8
15 15 17
62 71 57
10 10 12
100 165 47
46 33 46
193 98 90
11 11 13
11 11 13
29 43 25
41 48 29
73 63 48
46 46 36
27 25 74
34 39 24
31 42 38
26 26 22
8 8 10
24 33 25
70 70 51
16 13 36
11 11 13
10 10 12
67 48 39
48 34 50
29 23 24
46 29 32
208 208 208
93 81 61
83 42 32
33 46 34
21 21 18
90 79 52
57 64 39
13 13 15
13 13 15
45 62 31
10 10 13
57 46 39
19 25 58
14 12 56
61 41 58
17 21 21
35 43 50
21 15 17
13 13 15
58 76 48
10 10 12
27 45 30
43 29 41
68 44 64
25 33 26
19 19 46
40 46 31
43 67 56
12 12 14
17 17 19
22 24 31
4 4 6
21 33 24
12 12 14
21 31 38
14 14 16
20 24 26
52 36 44
8 8 10
32 22 22
44 48 37
70 43 49
33 32 42
42 42 32
26 23 19
10 10 12
26 26 21
8 8 10
16 16 18
27 27 20
19 32 19
10 10 12
72 44 53
21 16 17
57 57 40
22 26 20
8 8 10
33 35 25
6 6 8
30 22 24
10 10 12
30 30 25
63 84 36
36 24 16
41 53 28
7 7 9
52 35 30
52 49 62
11 11 11
26 35 28
71 75 47
2 2 4
21 17 18
17 11 11
10 14 16
84 55 55
28 43 22
43 23 21
11 16 18
154 72 102
2 2 4
2 2 4
48 68 50
126 189 189
2 2 4
39 36 30
31 18 27
7 11 13
85 135 58
9 13 13
19 13 14
35 17 18
14 24 19
2 2 4
18 14 18
7 7 7
36 21 31
35 64 31
47 26 21
46 23 43
51 30 33
65 25 35
181 82 120
2 2 4
17 19 15
2 2 4
4 4 14
16 11 12
52 60 50
23 15 17
66 55 41
2 2 4
40 21 19
20 34 23
1 1 8
55 33 25
7 6 21
50 24 29
10 10 7
15 18 12
2 2 4
20 15 17
2 2 4
36 18 18
47 26 32
2 2 4
5 8 6
83 61 45
49 49 73
11 15 10
15 10 11
18 28 29
20 20 14
1 1 3
17 26 28
40 49 40
2 2 4
5 8 7
21 32 34
2 2 4
2 2 4
16 24 17
27 13 18
56 67 61
71 51 46
13 9 10
44 58 36
2 2 4
34 37 38
33 17 12
24 16 17
24 24 18
18 9 12
7 11 13
21 14 13
23 14 13
36 37 21
39 48 35
2 2 4
58 38 45
2 2 4
15 15 11
2 2 4
2 2 4
25 13 12
2 2 4
72 48 59
23 16 21
2 2 4
44 26 19
56 30 48
21 10 11
2 2 4
4 4 6
2 2 4
24 18 14
32 31 36
2 2 4
14 32 20
19 21 16
14 7 9
14 13 12
39 30 37
34 50 23
3 3 5
4 4 6
3 3 5
31 37 37
9 6 12
204 204 204
207 207 207
66 41 29
11 8 9
13 10 11
17 9 9
21 27 17
10 6 6
12 19 17
9 4 4
29 14 15
31 24 26
22 15 12
18 16 13
20 9 8
57 55 32
7 4 6
11 6 6
9 6 7
68 34 36
12 10 11
26 11 11
65 31 37
29 13 18
20 17 14
14 7 7
8 5 6
42 30 25
71 28 25
31 33 33
40 16 25
15 12 14
32 16 22
16 13 14
48 37 27
30 30 18
10 10 7
40 42 20
88 66 32
67 51 27
31 36 18
28 28 16
26 38 17
24 26 32
31 44 42
45 45 23
34 28 19
39 36 18
9 9 8
22 30 13
36 26 18
113 80 39
55 39 20
20 20 14
31 46 30
42 34 30
15 15 11
15 18 14
23 32 31
21 18 16
28 40 29
19 14 16
14 14 13
8 8 10
52 33 38
33 27 19
14 14 16
19 19 16
18 18 16
12 12 14
27 36 26
14 14 12
5 5 7
22 17 17
27 34 20
11 11 13
11 11 13
9 9 11
62 52 47
21 21 18
77 56 60
51 51 39
3 3 5
11 11 13
7 7 9
34 41 23
33 33 22
30 41 30
5 5 7
34 70 30
32 25 35
6 5 22
215 215 215
11 11 10
25 34 36
7 7 9
56 47 37
26 36 38
40 35 28
34 30 23
31 31 27
11 11 13
11 11 13
32 43 45
29 37 28
48 47 29
12 12 14
9 9 12
20 27 28
38 38 38
48 120 53
18 18 20
27 25 21
54 54 40
216 216 216
8 8 10
33 40 32
10 10 12
49 98 66
54 32 95
8 8 10
12 12 14
76 154 110
6 6 8
16 13 17
12 12 14
10 10 12
12 12 14
50 35 47
16 16 18
42 42 32
5 5 8
37 24 33
12 12 14
35 47 36
24 24 20
28 28 19
10 10 12
50 42 38
31 37 41
6 6 8
35 43 24
52 39 30
17 17 18
11 11 21
6 6 8
22 17 24
214 214 214
10 10 12
30 20 20
6 6 8
41 28 38
6 6 8
40 48 29
32 25 26
27 38 40
15 16 52
19 19 21
69 28 40
10 10 12
39 55 40
8 8 10
75 53 42
206 206 141
6 6 8
44 33 26
38 47 40
12 12 10
4 4 6
53 45 63
13 13 15
7 7 11
15 15 17
38 26 36
6 6 8
29 44 22
8 8 10
34 43 45
44 29 41
10 10 13
63 109 57
49 39 31
55 36 49
33 24 35
48 39 34
6 6 8
22 28 24
15 15 17
47 58 46
51 67 44
11 11 13
214 214 214
8 8 10
89 58 52
18 18 15
56 68 59
28 32 22
27 43 31
55 36 50
45 45 35
8 8 10
11 11 13
58 55 37
61 66 36
25 20 27
39 55 46
27 48 43
46 42 30
13 13 15
10 10 13
48 49 38
11 11 13
10 10 12
15 15 17
8 8 10
64 64 45
19 19 42
8 8 10
59 38 50
56 47 41
33 28 28
21 21 17
60 44 36
10 10 12
25 19 21
6 6 8
36 28 28
47 54 56
26 31 31
81 50 59
49 39 34
27 37 23
10 10 12
26 33 32
23 16 24
8 8 10
69 76 88
24 26 19
2 2 4
25 30 30
19 24 22
84 96 60
41 30 27
23 19 20
32 32 39
18 18 16
31 37 35
6 6 8
16 16 18
25 32 27
21 41 28
12 12 14
56 53 39
76 44 46
25 29 22
54 44 40
23 17 17
12 12 14
38 55 44
50 51 60
59 75 53
25 31 26
25 41 28
10 10 12
31 25 25
45 33 46
33 41 28
4 4 6
55 44 43
46 49 34
35 48 29
15 17 14
39 29 41
21 16 16
55 61 43
27 18 18
39 26 36
20 15 15
6 6 8
29 43 22
79 97 47
3 3 6
49 27 36
34 34 20
3 3 6
12 8 8
4 4 12
11 18 15
39 41 41
41 42 57
24 31 18
22 27 27
20 33 33
221 66 74
38 21 19
39 30 45
2 2 4
2 2 4
2 2 4
30 25 25
52 23 38
2 2 4
36 63 32
34 43 57
2 2 4
22 30 17
18 12 20
2 2 4
2 2 4
77 37 31
36 44 29
29 22 44
33 33 23
27 18 19
5 5 6
18 12 13
31 20 22
9 13 10
7 11 13
19 29 21
17 25 23
83 49 35
2 2 4
19 9 13
1 2 7
18 10 10
18 27 29
2 2 4
17 11 12
43 25 29
42 62 31
2 2 4
11 17 11
49 36 39
139 90 61
2 2 4
55 37 31
9 9 6
11 17 12
10 16 18
39 32 22
2 2 4
36 58 48
19 12 15
2 2 4
8 5 5
20 31 33
16 11 12
11 7 8
2 2 4
8 5 6
2 2 4
44 27 32
9 6 7
16 13 11
56 103 29
34 25 16
15 9 15
20 27 19
2 2 4
38 29 29
2 2 4
28 14 18
12 8 9
35 29 22
35 40 30
8 12 14
30 53 50
43 22 26
17 9 9
2 2 4
2 2 4
8 5 7
27 26 32
23 21 19
35 36 23
56 56 42
22 15 24
2 2 4
13 8 9
12 18 20
2 2 4
75 66 34
13 10 8
2 2 4
27 13 19
150 97 67
20 10 10
39 19 20
3 3 5
14 20 47
24 25 19
21 21 15
9 14 9
2 2 4
49 32 34
15 10 12
3 3 5
3 3 5
7 4 4
11 8 9
2 2 4
29 19 13
11 9 7
25 11 15
37 19 36
25 36 38
207 207 207
12 9 10
15 13 11
5 5 7
25 25 17
9 6 7
17 15 16
20 18 16
30 13 14
26 23 15
22 10 10
8 5 6
35 17 23
29 13 19
58 37 47
10 7 8
8 5 15
16 13 14
20 13 14
28 11 13
53 21 29
36 27 31
9 6 8
29 16 14
53 25 36
59 26 33
49 34 32
34 26 17
17 17 12
51 61 31
56 67 24
35 26 18
10 10 8
18 18 13
15 13 15
22 22 13
21 27 19
44 45 25
26 25 14
22 22 13
18 18 13
30 34 23
15 13 11
70 57 26
45 47 30
83 45 38
18 16 36
58 68 21
21 27 19
13 13 11
20 20 17
5 5 7
65 35 36
25 25 21
27 42 18
43 53 35
9 9 11
7 7 9
38 33 22
10 10 12
196 196 133
39 32 39
10 10 12
37 31 22
9 9 11
9 9 11
20 25 16
33 41 28
54 32 45
23 31 33
11 11 13
28 23 17
22 15 17
38 46 33
13 13 15
22 26 18
95 68 34
27 24 20
13 13 15
27 21 22
38 45 37
37 37 30
16 16 14
20 27 21
37 39 25
8 8 10
22 32 23
7 7 9
48 57 55
99 77 57
24 27 18
77 85 53
12 12 14
34 34 43
27 23 17
8 8 10
4 4 6
101 114 63
58 76 38
40 33 26
14 14 16
44 36 32
18 15 17
29 33 34
6 6 8
47 66 38
57 67 38
10 10 12
33 44 29
11 11 22
212 212 212
6 6 8
64 57 41
8 8 10
35 31 23
12 12 14
21 21 17
12 12 14
27 27 21
37 26 37
44 38 32
40 44 28
18 18 16
55 56 36
52 51 41
14 14 16
29 30 91
49 49 37
30 41 26
10 10 12
26 21 19
125 201 86
12 12 15
55 33 41
15 15 17
4 4 6
66 59 29
49 57 31
29 17 23
33 33 26
21 19 46
16 20 22
53 43 38
12 12 14
184 87 95
10 10 12
17 24 26
13 13 15
13 13 15
10 10 12
8 8 10
35 43 31
28 37 39
39 51 36
54 50 35
6 6 8
69 66 47
21 21 16
35 35 55
8 8 10
212 212 212
17 17 19
13 13 15
25 33 27
50 59 37
44 49 24
255 138 99
27 28 24
39 31 31
48 60 32
14 14 20
10 10 21
26 29 21
53 75 132
15 15 17
15 15 17
64 71 46
58 43 49
39 28 41
110 75 55
212 212 212
49 57 42
13 13 15
210 210 210
8 8 10
37 46 33
40 46 47
6 6 8
35 28 20
6 6 8
54 42 36
215 215 215
55 50 43
26 50 33
16 17 25
10 10 13
29 46 32
34 39 50
70 76 58
20 21 47
39 39 29
31 24 26
27 34 25
13 13 15
64 64 46
20 21 16
2 2 4
37 28 39
13 13 15
10 10 12
29 20 21
108 71 58
144 172 80
20 14 14
15 15 17
63 46 55
13 13 15
29 37 22
12 12 14
30 30 25
21 21 19
27 21 28
52 54 44
35 22 24
29 45 45
208 208 208
37 28 39
17 17 19
24 29 25
45 30 41
52 37 53
71 62 46
6 6 8
8 8 9
35 47 41
53 43 35
41 26 37
43 62 41
69 43 62
10 10 12
8 8 10
16 19 18
8 8 10
210 210 210
31 46 42
10 10 12
12 12 14
49 41 55
10 10 12
14 18 16
50 29 38
12 12 14
11 15 17
8 8 10
35 30 30
10 10 12
31 23 28
32 41 43
52 44 33
17 17 17
42 30 26
31 43 29
14 20 16
45 33 47
11 8 9
37 49 35
31 26 28
39 25 36
12 12 14
54 106 42
37 26 37
33 25 27
64 92 102
16 24 17
4 4 6
54 34 31
171 171 171
9 14 14
66 39 25
30 21 22
6 7 19
31 13 16
22 22 16
27 33 33
18 12 13
43 29 24
15 29 20
205 136 136
19 29 21
2 2 4
2 2 4
24 28 26
8 11 8
18 16 13
35 30 16
4 7 22
12 15 15
31 20 26
24 15 22
39 41 23
2 2 4
2 2 4
55 107 40
36 25 33
7 11 13
33 23 24
62 55 66
21 10 12
34 38 19
32 50 27
25 55 37
20 16 16
21 14 19
3 3 5
10 10 11
35 18 35
18 23 15
2 2 4
18 12 20
29 34 32
21 14 15
183 83 122
2 2 4
2 2 4
9 6 7
38 19 30
18 12 13
27 18 19
20 11 14
40 41 27
34 41 27
34 23 25
25 30 21
2 2 4
10 6 7
21 14 21
10 6 7
32 35 31
2 2 4
24 21 23
22 14 15
32 21 32
20 13 20
49 41 27
13 7 7
22 30 17
103 73 45
2 2 4
19 11 11
2 2 4
29 18 18
43 60 35
26 39 17
68 129 90
14 9 10
19 10 12
2 2 4
54 40 73
63 48 23
38 20 33
29 19 13
11 7 8
43 33 43
56 30 37
39 28 29
2 2 4
17 13 15
2 2 4
13 9 10
23 13 10
27 13 15
30 39 39
10 16 12
20 12 15
9 6 7
54 30 37
23 21 23
8 8 6
16 8 8
23 35 21
20 12 12
77 43 55
24 16 13
188 125 85
32 19 16
17 17 12
22 17 15
11 7 8
10 6 7
18 35 28
10 7 8
8 5 6
2 2 4
205 205 205
15 32 22
88 189 98
204 204 204
31 28 17
29 22 17
34 57 38
3 3 5
46 23 21
160 106 106
24 15 13
23 28 18
32 14 23
6 4 5
17 9 9
51 24 34
9 6 7
35 25 22
31 28 26
44 18 37
14 8 18
13 7 7
8 5 6
17 13 13
9 6 7
43 23 23
8 5 7
45 27 30
35 21 16
54 45 32
30 18 14
39 15 15
17 9 9
44 18 18
29 18 15
26 35 24
43 79 43
51 29 20
67 67 32
49 31 24
16 16 12
46 37 26
9 9 8
20 16 15
68 39 24
37 32 16
49 54 39
9 9 8
64 58 29
50 47 29
216 150 70
35 40 21
15 15 11
45 60 34
32 37 20
29 28 19
24 22 18
14 17 14
22 28 23
19 28 21
8 8 10
10 10 12
90 96 33
59 40 32
60 73 55
85 96 95
14 14 16
23 25 18
5 5 7
36 33 28
11 11 13
15 15 11
3 3 5
24 31 23
67 46 63
9 9 11
32 24 34
9 9 11
10 10 16
209 209 209
24 24 19
11 11 13
9 9 11
13 13 15
20 20 17
30 36 22
37 42 33
25 26 18
11 11 13
11 11 13
58 79 40
11 11 13
9 9 11
63 66 51
56 47 35
171 171 117
13 13 15
29 23 30
7 7 13
48 44 29
11 11 13
11 11 13
28 28 23
29 41 28
216 216 216
16 21 16
18 18 20
18 18 17
15 15 13
49 47 30
26 22 23
7 5 21
42 31 33
6 6 8
67 73 41
12 12 14
16 16 15
6 6 8
40 61 38
10 10 12
58 42 37
56 44 41
45 34 28
10 10 12
25 30 18
10 10 12
8 8 10
8 8 10
65 49 40
15 15 13
51 39 65
28 37 29
10 10 12
39 27 24
10 10 12
31 31 25
32 40 31
28 28 26
6 6 8
109 113 77
12 12 12
26 26 21
14 14 16
46 34 40
10 10 12
12 12 15
10 10 12
41 30 31
30 37 25
53 53 38
50 27 26
14 14 16
34 34 28
77 44 53
51 40 45
64 68 51
23 20 23
21 21 17
22 30 23
29 36 25
13 13 15
8 8 10
63 55 40
26 35 28
45 54 63
6 6 8
10 10 12
210 210 210
22 22 20
35 30 36
34 44 44
41 41 30
59 45 33
6 6 8
8 8 10
210 210 210
13 13 15
11 11 13
13 13 15
24 24 26
20 16 22
31 40 30
8 8 10
85 81 44
21 29 31
46 64 38
15 15 17
11 11 13
6 6 8
6 6 8
6 6 8
15 15 17
37 33 45
70 42 51
39 42 30
55 60 53
13 12 30
29 52 36
69 34 52
38 25 30
13 13 15
8 8 10
217 217 217
30 21 27
10 10 12
32 39 21
41 41 31
24 33 35
190 97 190
50 39 36
35 24 26
19 15 15
13 13 15
74 43 29
35 54 47
48 32 44
83 46 41
13 13 15
21 27 22
29 21 31
13 13 15
24 29 25
12 12 15
30 37 37
65 65 47
17 17 14
13 13 15
40 60 49
50 39 30
10 10 12
8 8 10
49 49 156
14 14 16
119 129 100
8 8 10
27 38 40
31 35 26
45 45 34
89 84 53
47 49 35
6 6 8
27 31 23
34 39 28
210 210 210
29 40 34
40 30 31
8 8 10
67 56 58
10 10 12
30 36 31
41 31 43
8 8 10
10 10 12
6 6 8
14 17 15
8 8 10
220 220 152
25 25 20
172 87 87
19 19 28
8 8 10
30 29 19
14 14 16
71 42 71
17 17 15
69 30 36
46 42 37
10 10 12
23 31 24
47 39 29
39 39 29
44 37 32
8 8 10
8 8 10
6 6 8
25 22 16
17 17 13
2 2 4
18 31 35
65 59 40
25 29 29
3 3 5
7 7 9
65 46 34
10 10 11
4 4 6
11 7 9
50 44 23
2 2 4
34 34 20
36 29 58
12 12 8
43 49 55
52 221 70
15 20 46
41 46 55
42 46 24
1 1 1
54 54 37
16 12 12
67 70 48
1 1 3
49 21 21
49 33 43
4 4 20
11 7 8
52 35 42
18 12 20
28 22 15
43 28 61
2 2 4
37 26 19
21 11 14
60 56 31
54 36 110
141 212 141
34 22 17
7 5 6
17 18 15
10 7 8
9 11 9
2 2 4
27 22 19
49 61 29
158 105 105
26 31 41
28 15 19
15 11 11
2 2 4
44 29 24
17 26 18
20 15 15
6 6 6
13 13 10
172 172 115
8 12 9
190 127 127
2 2 4
12 8 9
15 23 16
47 41 37
2 2 4
81 55 86
25 30 37
2 2 4
55 37 28
32 53 37
18 33 33
2 2 4
12 18 13
2 2 4
19 17 13
2 2 4
12 10 8
29 14 17
2 2 4
11 7 7
11 20 17
30 42 32
56 52 46
17 26 18
97 39 24
22 33 32
2 2 4
30 26 17
1 1 11
43 84 54
132 52 44
136 204 136
25 14 20
28 20 20
2 2 4
39 22 24
40 21 18
9 6 7
20 26 26
9 6 7
173 56 115
2 2 4
2 2 4
40 44 43
26 17 13
76 106 64
31 21 33
2 2 4
22 11 11
9 13 9
31 15 14
2 2 4
34 22 35
9 6 7
44 54 81
35 25 29
11 7 28
7 5 7
9 6 7
2 2 4
32 25 23
24 16 26
16 10 10
2 2 4
38 42 32
59 49 42
24 11 13
34 25 21
3 3 5
41 26 19
16 14 14
10 7 8
12 7 7
22 39 28
20 24 17
19 17 13
14 11 14
13 8 8
74 27 23
9 6 7
48 23 33
15 10 11
11 7 7
38 30 31
59 32 24
9 6 7
11 7 8
67 25 25
43 29 32
7 4 4
18 9 9
47 22 27
10 6 8
10 7 8
18 18 13
20 11 11
45 46 46
39 17 25
20 20 14
44 38 22
64 48 21
38 51 28
24 17 11
26 33 23
37 30 20
17 17 12
38 38 19
15 15 11
19 19 14
47 47 35
9 9 8
14 18 13
20 20 12
9 9 7
46 37 35
131 188 86
35 28 24
26 26 18
24 22 18
46 32 48
55 41 24
10 10 12
54 71 50
12 12 14
23 19 18
9 9 11
26 25 63
213 213 213
15 18 11
18 24 18
13 13 11
73 35 40
9 9 11
11 11 13
11 11 13
21 24 19
7 7 9
13 13 15
52 41 32
43 39 59
5 5 7
35 33 25
96 71 39
9 9 11
7 7 9
38 38 24
29 36 22
76 76 54
2 2 4
2 2 4
36 44 45
7 7 9
68 83 45
28 28 23
50 33 26
31 39 28
15 15 13
63 108 61
13 13 15
9 9 11
16 16 13
17 17 13
198 198 135
44 46 24
65 46 43
29 22 24
7 7 9
12 12 14
60 71 43
99 68 78
14 14 16
6 6 8
19 19 17
8 8 10
30 39 31
46 39 35
20 26 28
42 35 39
32 32 20
10 10 12
22 22 41
23 23 20
14 14 16
50 61 52
14 14 16
25 28 19
8 8 10
10 10 12
50 45 27
14 14 16
6 6 8
45 33 47
32 41 24
41 69 39
12 12 14
24 35 36
42 39 38
12 12 14
25 19 27
28 37 29
29 29 23
45 40 31
19 17 38
18 18 15
88 255 160
10 10 12
15 15 17
24 36 36
8 8 10
15 20 22
208 208 208
15 15 13
60 44 32
8 8 10
10 10 12
14 14 16
19 19 15
8 8 10
8 8 10
25 25 20
50 41 44
30 36 36
10 10 12
14 14 12
43 30 45
45 33 31
13 13 15
213 213 213
13 13 15
38 38 30
10 10 13
13 13 15
215 215 215
33 44 32
43 49 35
65 65 31
8 8 10
10 10 12
44 44 33
60 43 51
39 55 38
53 54 53
15 15 17
11 16 41
8 8 10
4 4 6
17 17 19
34 25 26
36 39 42
177 119 86
50 38 39
34 38 46
41 72 31
41 67 67
44 41 32
8 8 10
11 11 13
212 212 212
17 17 19
49 32 29
19 19 31
11 11 13
33 25 35
11 11 13
16 16 16
13 13 15
81 50 49
43 43 33
38 38 28
11 11 13
55 42 37
36 36 29
26 32 74
51 40 49
50 57 36
13 13 15
52 30 38
17 19 18
43 68 36
30 30 33
65 42 47
27 27 21
12 11 25
25 26 20
10 10 12
11 12 26
13 13 15
6 6 8
46 34 27
13 13 15
39 54 42
8 8 10
8 8 10
8 8 10
26 35 29
12 12 15
10 10 12
43 32 33
15 15 17
60 52 45
30 39 24
37 33 33
50 48 37
10 10 12
23 31 25
12 12 14
25 35 25
71 39 54
26 17 17
65 43 30
43 31 29
38 36 27
4 4 6
47 56 50
57 69 62
34 34 25
25 29 29
10 10 12
60 50 43
16 16 18
8 8 10
19 19 19
6 6 8
50 41 35
10 10 12
22 27 29
6 6 8
30 24 31
47 57 36
25 32 30
17 14 15
14 14 16
68 34 37
41 45 42
39 24 27
33 33 25
11 13 11
72 78 54
20 29 23
77 43 49
11 11 13
116 132 64
44 56 33
27 39 22
4 4 19
13 16 16
3 3 6
38 20 23
22 17 14
12 9 10
39 25 58
50 26 18
3 3 5
173 159 80
18 27 19
26 45 20
2 2 4
27 24 21
2 2 4
12 8 9
66 62 32
49 20 24
9 13 15
14 9 10
25 17 18
19 14 15
27 19 27
2 2 4
2 2 4
9 6 7
65 28 34
31 35 31
31 18 21
77 82 56
15 23 15
50 37 62
2 2 4
32 21 34
2 2 4
19 17 14
2 2 4
2 2 4
2 2 4
2 2 4
12 18 19
49 19 16
30 17 17
40 22 17
25 12 12
10 7 8
11 7 8
42 28 22
34 51 38
2 2 4
112 176 125
2 2 4
68 79 41
13 9 10
2 2 4
43 29 21
2 2 4
2 2 4
2 2 4
11 16 12
16 25 14
9 14 16
27 27 19
32 53 19
2 2 4
13 20 14
30 26 16
30 35 31
156 104 104
16 22 22
15 8 8
9 6 7
132 199 199
9 6 7
2 2 4
10 6 8
33 44 44
12 8 9
35 18 20
42 39 30
17 11 12
48 57 38
95 30 46
18 12 13
8 8 10
36 30 58
25 16 13
18 34 28
26 18 15
23 46 26
13 13 10
15 22 24
34 58 24
10 6 6
10 7 7
9 6 7
9 6 7
23 25 24
49 59 58
18 27 19
15 12 11
162 150 75
14 9 11
204 204 204
46 30 23
2 2 4
2 2 4
17 10 9
17 17 12
49 35 23
2 2 4
8 5 6
19 18 21
36 30 27
17 16 14
17 15 15
8 5 6
37 42 33
126 190 126
27 36 24
42 47 51
24 29 25
2 2 4
2 2 4
25 44 22
33 69 61
2 2 4
3 3 5
92 53 34
2 2 4
29 29 31
35 33 19
3 3 5
3 3 5
59 29 48
27 13 14
21 18 14
7 5 6
27 15 12
47 17 15
46 22 30
21 11 16
26 24 15
28 26 16
7 4 6
28 14 15
171 78 54
8 5 7
33 34 24
8 5 6
10 7 8
68 33 25
15 8 9
55 20 36
15 15 11
40 29 20
47 59 28
25 27 28
39 32 17
27 25 35
17 17 13
16 16 12
38 61 39
37 33 23
22 22 13
9 9 8
42 35 28
9 9 7
35 23 23
9 9 7
42 35 22
8 8 10
8 8 10
61 40 37
19 19 16
17 22 17
43 61 53
39 34 24
48 43 29
13 13 11
6 6 9
17 17 15
64 64 48
44 33 35
29 25 15
57 46 66
15 17 10
9 9 11
59 45 56
35 40 23
9 9 11
9 9 11
17 17 16
14 14 11
48 37 35
29 24 18
5 5 7
47 47 35
13 13 15
7 7 9
9 9 11
7 7 9
21 21 17
37 26 39
208 208 142
30 33 33
32 43 35
7 7 9
3 3 6
51 51 38
39 26 21
24 34 25
29 23 31
10 10 12
45 45 35
25 20 21
95 83 50
29 23 21
142 190 130
4 4 6
24 18 19
10 10 12
40 28 42
10 10 12
16 16 18
12 12 14
39 27 30
47 35 48
63 45 30
6 6 9
2 2 4
14 14 16
25 25 22
33 33 27
54 70 44
30 30 24
210 210 143
20 26 21
10 10 12
16 16 18
21 21 18
63 45 36
27 24 19
12 12 14
30 28 35
8 8 10
33 30 24
30 37 32
22 20 44
10 10 12
10 10 12
12 12 14
48 40 25
78 95 45
8 8 10
8 8 10
208 208 208
52 42 37
41 30 32
10 10 12
210 210 210
217 217 217
35 35 26
206 206 142
42 56 30
15 15 17
57 61 52
10 10 12
18 25 19
30 21 32
26 35 27
10 10 12
15 15 17
31 31 25
8 8 10
10 10 13
25 25 32
39 53 24
26 32 32
10 10 12
8 8 10
28 21 18
32 51 30
22 29 31
68 64 40
78 68 49
12 12 15
98 147 54
24 24 19
67 67 50
10 10 12
15 15 17
20 23 53
62 34 39
52 30 30
8 8 10
13 13 15
6 6 8
28 33 25
68 57 90
13 13 15
35 42 53
32 23 34
42 34 45
11 11 13
31 24 32
48 41 31
8 8 10
34 27 29
13 17 19
13 13 15
53 45 64
14 23 17
13 13 15
34 32 24
50 50 39
27 35 28
24 29 23
33 30 31
10 10 12
13 13 15
13 13 15
210 210 210
25 25 19
25 40 34
13 13 15
24 26 22
13 13 15
13 13 15
80 82 52
23 29 27
49 36 51
12 14 12
24 20 21
46 63 44
41 30 25
22 30 32
66 53 39
8 8 10
15 15 17
11 11 13
45 25 30
15 15 17
11 11 13
37 37 24
10 10 12
38 28 32
210 210 210
38 68 45
46 32 46
39 44 45
49 38 44
12 12 14
12 12 15
20 20 21
10 10 12
56 42 50
21 21 17
46 37 33
40 68 42
26 28 29
95 80 52
8 8 10
37 31 21
47 32 48
32 25 26
210 210 210
30 21 30
19 25 20
17 20 18
28 33 28
27 32 28
48 24 30
10 10 12
68 39 32
16 16 18
8 8 10
103 53 46
177 177 121
58 74 46
46 29 26
49 67 43
13 13 11
108 163 80
57 44 37
24 28 24
37 27 27
31 17 22
10 10 12
26 19 21
8 8 10
113 85 52
23 38 28
17 24 18
12 12 14
9 9 18
108 85 78
30 16 20
21 29 22
24 30 16
1 1 7
27 23 18
23 15 16
3 3 6
2 2 4
29 43 25
167 167 167
19 13 21
28 15 27
16 12 12
37 36 39
31 23 28
2 2 4
13 21 13
15 27 18
29 25 23
46 23 48
2 2 4
131 197 131
22 14 14
36 18 25
11 7 8
41 25 24
64 32 51
68 44 59
9 12 12
76 62 24
38 38 23
31 20 33
26 46 32
43 22 28
51 42 40
31 52 46
47 24 54
49 49 34
21 33 31
24 38 41
118 91 58
2 2 4
2 2 4
61 40 48
51 62 46
198 103 92
16 20 10
34 45 25
6 6 8
23 15 16
34 27 23
20 10 13
2 2 4
27 18 20
11 7 7
26 17 12
23 18 17
172 172 172
12 8 9
17 17 12
26 17 23
11 7 8
25 21 22
19 13 14
21 32 22
34 20 24
21 29 29
72 36 38
18 21 14
2 2 4
58 31 30
21 14 23
2 2 4
26 31 21
2 2 4
43 52 27
28 28 20
2 2 4
13 8 8
2 2 4
2 2 4
29 16 19
2 2 4
20 13 22
2 2 4
8 5 7
2 2 4
2 2 4
21 21 15
13 17 20
2 2 4
70 51 33
11 7 9
24 21 16
2 2 4
90 63 44
53 60 23
13 25 19
72 53 85
23 35 23
72 33 42
2 2 4
2 2 4
75 28 34
11 7 8
2 2 4
44 66 38
11 9 9
43 35 33
19 10 10
29 19 30
34 19 14
2 2 4
30 22 19
2 2 4
204 204 204
90 108 55
43 45 32
8 13 8
18 17 12
20 31 19
44 42 40
60 44 26
11 17 19
9 6 7
21 29 17
19 11 11
2 2 4
7 4 6
2 2 4
3 3 5
23 20 29
43 20 32
3 3 5
16 9 9
15 11 11
34 40 20
19 23 16
6 4 5
12 9 10
38 16 16
17 11 8
13 9 7
42 29 38
28 13 19
26 24 26
7 4 6
52 34 22
13 7 7
223 100 148
21 14 15
8 5 7
78 26 43
66 27 46
15 12 10
105 47 53
150 148 148
70 62 37
10 10 8
11 11 8
15 15 11
10 10 8
15 19 14
31 26 17
43 31 30
32 38 17
23 30 16
9 9 8
23 27 14
14 15 13
20 16 11
41 29 34
37 35 22
10 10 24
27 34 36
32 36 30
23 19 25
16 16 15
21 27 16
23 27 22
41 38 22
28 21 29
55 43 34
50 40 28
21 24 17
141 208 148
33 46 38
40 22 43
36 36 24
27 27 23
56 56 30
11 11 13
11 11 13
17 17 14
39 24 39
32 35 44
9 9 11
15 15 17
16 16 14
9 9 11
211 211 211
49 59 38
5 5 8
11 11 13
27 27 22
11 11 13
69 36 28
5 5 7
48 49 47
13 13 15
31 35 26
25 35 31
26 26 22
8 8 10
9 9 12
48 30 40
32 42 29
14 14 12
12 12 14
8 8 10
28 23 22
34 29 23
53 47 42
10 10 12
10 10 12
8 8 10
14 14 16
35 28 26
23 23 19
10 10 12
9 9 15
46 66 44
12 12 14
46 67 37
10 10 12
44 31 49
32 39 24
8 8 10
70 45 56
45 34 46
27 19 20
25 27 21
18 25 27
41 41 30
10 10 12
10 10 12
20 20 18
8 8 10
8 8 10
19 19 17
12 12 14
12 12 14
74 68 61
68 40 46
116 166 112
12 12 11
106 70 50
10 10 12
58 44 29
54 41 41
6 6 8
8 8 10
28 39 34
13 13 15
12 12 14
12 12 14
23 23 19
23 29 30
37 27 39
8 8 10
204 204 140
15 15 17
6 6 8
48 58 35
31 33 42
10 10 12
13 13 15
13 13 15
20 20 16
40 57 50
27 32 25
44 32 46
13 13 15
8 8 10
40 30 42
13 13 15
27 36 27
37 47 52
6 6 8
25 40 35
30 38 31
17 17 19
11 11 13
8 8 10
208 208 208
13 13 15
32 28 28
10 10 12
17 17 19
167 113 167
49 38 32
45 50 36
11 11 13
25 22 39
26 29 21
13 13 15
204 204 204
29 24 21
46 33 42
8 8 10
51 73 90
11 11 13
46 57 36
15 15 17
15 15 17
39 54 115
22 29 20
51 33 44
73 82 54
45 39 56
15 15 17
4 4 6
8 8 10
8 8 10
8 8 10
13 13 15
80 46 37
24 26 27
28 37 28
48 60 31
6 6 8
66 66 48
44 43 51
13 13 15
11 11 13
40 35 44
32 26 24
28 23 23
45 59 71
17 23 18
19 19 16
13 13 15
221 150 221
101 94 63
12 9 9
10 10 12
22 22 24
33 33 42
42 68 38
32 33 36
33 37 31
32 29 25
96 54 44
12 12 15
45 26 29
61 60 36
23 30 24
18 16 38
13 13 15
13 13 23
44 75 52
22 19 20
51 32 44
92 99 50
6 6 8
157 216 111
33 33 29
34 40 31
51 51 39
23 30 25
45 33 47
48 48 35
8 8 10
33 25 34
26 47 34
35 49 31
12 12 14
37 29 29
27 27 22
44 30 27
32 18 19
70 53 45
19 20 35
56 65 45
23 23 19
53 40 31
216 216 216
51 66 48
52 60 64
16 16 18
148 219 148
34 58 35
28 35 26
22 31 27
26 36 28
19 15 16
32 20 23
68 59 42
32 27 27
94 36 39
4 4 6
8 8 10
33 21 21
15 15 17
4 4 6
17 14 14
108 61 48
2 2 4
13 9 10
48 47 33
2 2 4
63 34 42
2 2 4
39 33 22
32 37 36
37 124 36
46 76 41
86 45 55
12 12 9
20 26 17
2 2 4
38 38 26
21 36 46
2 2 4
49 27 33
31 42 26
57 29 22
22 26 26
46 31 20
61 40 29
12 8 9
8 5 5
2 2 4
7 10 10
59 33 39
2 2 4
52 39 44
30 20 21
33 43 26
25 38 26
10 15 11
16 32 21
27 18 29
32 20 21
16 24 16
11 17 12
16 10 10
12 18 19
33 20 23
34 42 23
24 19 18
18 12 11
49 57 33
18 18 13
7 11 8
2 2 4
26 26 19
29 40 24
14 21 23
43 29 21
33 19 22
6 6 8
24 40 26
2 2 4
18 24 17
24 16 16
194 129 129
38 37 43
45 35 28
2 2 4
35 32 31
41 23 26
22 13 20
35 23 37
68 61 81
12 8 9
19 13 14
42 41 25
60 34 28
13 9 10
53 22 30
58 25 29
2 2 4
31 25 21
2 2 4
9 6 7
37 24 51
11 7 8
106 56 61
2 2 4
2 2 4
2 2 4
2 2 4
11 7 7
2 2 4
65 39 28
2 2 4
2 2 4
37 28 18
2 2 4
18 32 32
80 41 41
2 2 4
30 20 15
2 2 4
72 44 34
19 9 17
18 27 15
26 46 36
16 11 19
103 100 68
21 9 11
2 2 4
10 6 8
9 14 16
18 24 27
2 2 4
2 2 4
10 16 14
5 3 5
18 22 22
10 6 7
32 40 40
4 4 6
7 7 9
27 18 14
12 10 11
19 13 12
2 2 4
31 21 33
16 24 17
53 25 20
13 19 14
2 2 4
3 3 5
204 204 204
2 2 4
21 47 26
12 17 19
35 31 31
54 38 27
7 5 6
12 10 8
8 5 7
97 33 41
18 15 12
8 5 7
49 23 34
29 23 15
102 27 53
6 4 5
37 16 20
24 24 24
9 6 7
29 15 21
9 6 7
30 23 27
71 71 35
186 186 86
73 63 35
32 24 17
16 16 12
15 19 10
30 33 17
18 18 13
25 28 15
57 39 28
26 40 22
49 59 22
12 12 9
13 13 10
8 8 10
23 31 24
29 29 19
7 7 9
49 42 26
40 38 20
9 9 11
34 43 26
3 3 5
21 24 18
7 7 9
47 34 39
11 11 13
12 12 14
10 10 8
31 32 33
10 10 12
45 56 26
24 28 27
42 28 40
3 3 5
42 43 27
7 7 24
28 22 23
43 61 51
5 5 7
73 71 48
25 25 21
12 12 10
9 9 11
9 9 11
93 49 30
13 13 15
16 16 14
8 8 10
20 20 16
32 37 24
9 9 11
26 23 25
43 34 26
52 52 28
49 41 31
15 15 17
23 28 30
16 13 25
52 36 46
66 40 28
29 20 29
67 73 51
30 27 28
21 21 17
24 24 17
39 32 25
24 32 32
105 113 52
12 12 14
71 92 35
214 214 214
41 62 26
195 161 115
14 14 16
56 70 44
8 8 10
29 22 30
38 50 30
6 6 8
8 8 10
49 51 40
33 25 29
31 44 26
12 12 14
22 29 23
36 36 29
4 4 6
68 48 32
21 26 21
6 6 8
8 8 10
17 22 18
26 19 23
65 58 74
10 10 12
6 6 8
80 78 42
8 8 10
72 52 42
10 10 12
12 12 12
24 17 25
40 59 26
40 40 31
13 13 15
124 75 88
35 44 32
24 26 57
77 67 48
24 32 34
35 33 23
32 35 21
22 18 18
22 33 22
40 33 31
215 215 215
47 36 48
10 10 12
10 10 12
46 52 38
13 13 15
47 36 31
8 8 10
17 17 55
18 22 19
6 6 8
13 13 15
8 8 10
46 35 33
71 60 41
48 36 33
10 10 12
25 25 21
15 15 17
38 38 29
93 77 57
11 11 13
8 8 10
45 49 36
212 212 212
82 41 55
11 11 13
8 8 10
15 15 17
13 13 15
19 19 17
48 38 48
15 15 17
15 15 17
30 30 23
19 23 19
14 11 30
77 83 59
44 32 46
14 18 18
11 11 13
26 33 19
63 69 47
19 24 26
35 35 28
11 11 13
39 44 40
10 10 13
18 18 14
11 11 13
8 8 10
21 18 23
58 55 68
20 20 16
41 55 36
53 59 70
13 13 15
13 13 15
29 30 22
11 11 13
10 10 12
8 8 10
13 13 15
32 40 36
77 80 57
219 219 219
89 86 73
8 8 10
17 17 19
13 13 15
31 34 29
29 29 25
30 30 26
10 10 12
13 13 15
26 36 22
31 28 19
10 10 12
13 13 15
21 27 23
15 15 17
12 12 14
10 10 12
25 25 21
43 52 37
16 24 16
44 34 33
33 33 26
12 12 14
48 35 50
17 23 18
10 10 12
26 25 29
8 8 10
8 8 10
48 42 25
22 18 19
16 16 19
34 22 30
75 63 32
14 14 17
144 140 206
132 100 62
81 96 60
31 24 22
27 30 23
10 10 12
73 66 54
6 6 8
46 66 35
23 27 28
55 41 62
49 42 38
19 20 33
34 34 26
36 31 33
17 17 13
6 6 8
20 20 15
56 60 51
22 17 17
22 17 19
21 18 23
37 28 24
8 8 10
38 58 33
29 45 42
21 14 14
45 22 31
56 64 42
34 38 43
27 27 19
12 12 16
30 23 21
24 24 17
2 2 4
17 9 9
57 57 39
1 1 3
18 12 13
2 2 4
36 25 36
17 25 16
2 2 4
28 37 28
2 2 4
43 65 35
12 8 9
38 30 30
4 4 16
2 2 4
22 45 26
35 45 35
2 2 4
22 16 11
2 2 4
15 20 15
27 18 19
15 12 12
30 18 27
2 2 4
57 39 37
13 17 17
2 3 18
7 13 7
21 21 15
28 36 18
15 11 11
32 19 14
39 37 20
8 13 13
20 15 15
11 7 8
37 33 24
18 23 25
10 15 11
2 2 4
2 2 4
47 43 60
33 22 34
12 8 9
54 61 36
2 2 4
8 12 12
46 21 19
2 2 4
63 66 47
22 15 16
15 23 16
32 32 22
34 46 50
30 38 30
26 21 14
2 2 4
2 2 4
43 50 29
44 33 24
2 2 4
13 8 14
12 7 7
2 2 4
23 19 14
8 5 6
11 7 9
2 2 4
2 2 4
41 121 29
2 2 4
28 20 16
54 40 30
18 23 29
2 2 4
45 22 25
14 9 10
24 29 29
21 26 17
17 11 11
12 8 9
38 23 21
2 2 4
36 43 36
2 2 4
2 2 4
34 23 18
56 34 37
31 40 23
15 25 16
15 12 10
20 15 31
14 11 11
2 2 4
18 31 27
8 12 9
204 204 204
28 24 19
28 15 15
12 9 14
20 11 11
46 34 46
19 29 20
23 45 43
26 50 33
2 2 4
34 26 26
2 2 4
22 13 17
20 20 20
16 33 33
15 13 10
19 31 27
27 40 30
26 23 18
2 2 4
21 14 21
13 8 9
33 16 16
2 2 4
8 5 9
32 17 12
26 39 32
14 22 23
27 20 29
39 15 19
38 31 45
16 10 13
8 6 7
24 16 26
17 26 14
73 155 155
17 11 10
3 3 5
9 6 7
7 5 6
189 126 126
13 9 10
12 6 6
44 15 19
19 9 14
23 17 15
10 6 7
35 14 14
24 25 15
28 14 20
10 6 8
10 10 8
35 48 31
69 41 35
23 21 12
39 31 20
19 19 13
40 29 28
26 29 17
42 46 49
9 9 7
31 28 15
25 30 21
42 59 59
43 58 47
51 40 36
194 194 131
41 29 23
23 23 18
10 10 12
14 14 16
38 26 20
23 23 19
43 71 44
23 44 33
48 32 40
9 9 11
44 37 28
12 12 14
9 9 11
45 73 42
69 78 55
27 27 22
42 34 39
7 7 9
27 27 19
20 27 25
209 142 209
209 209 209
15 15 17
67 44 41
17 21 23
114 164 78
5 5 7
26 34 36
14 14 32
55 71 68
33 38 32
46 39 31
13 13 15
50 46 33
15 15 13
21 21 38
15 15 13
9 9 11
21 27 29
8 8 10
42 39 26
61 65 45
10 10 12
36 24 33
15 15 35
11 11 13
38 30 31
38 31 30
20 20 15
47 60 43
40 59 45
63 48 54
51 27 40
60 49 60
27 21 22
36 48 42
27 27 24
39 39 27
43 44 30
41 30 31
40 30 31
45 35 27
8 8 10
38 33 39
6 6 8
25 20 26
12 12 14
32 25 27
60 48 34
24 22 28
57 57 189
115 158 58
12 12 14
22 24 16
42 39 30
6 6 8
12 12 14
51 43 29
33 38 30
8 8 10
29 29 23
122 124 85
20 20 18
14 14 16
50 52 36
14 14 16
8 8 10
44 38 55
56 56 41
49 60 42
51 51 40
8 8 10
32 32 24
45 45 32
6 6 8
66 41 64
43 26 34
54 54 38
52 46 54
13 13 15
22 22 20
52 81 56
15 15 18
8 8 10
10 10 12
10 10 12
43 62 47
17 17 18
13 13 15
11 11 16
11 11 13
18 16 55
70 70 52
19 19 21
24 30 25
46 60 53
11 11 13
33 24 25
102 89 59
16 21 16
10 10 13
8 8 10
26 21 22
57 57 64
13 13 15
30 33 23
31 45 39
15 15 17
21 15 22
28 38 39
17 17 19
18 18 59
42 42 32
12 13 23
13 13 15
42 42 33
8 8 10
11 11 29
6 6 8
29 22 20
92 74 56
36 27 29
31 29 24
6 6 8
68 51 46
38 24 31
33 16 23
19 24 21
42 59 37
33 42 28
111 93 67
26 35 37
40 48 32
73 87 76
213 213 213
13 13 15
66 66 48
29 22 22
22 22 18
15 15 17
17 17 19
52 61 39
8 8 10
28 29 27
53 53 38
21 21 15
34 30 43
41 31 32
24 24 26
200 200 136
8 8 10
45 36 36
10 10 13
67 143 88
72 55 78
35 50 42
12 14 27
30 37 38
8 8 10
19 15 16
26 26 28
56 48 38
10 10 13
53 66 40
8 8 10
17 17 19
21 27 22
41 30 43
36 29 19
17 14 16
25 24 16
14 14 16
95 124 76
29 24 28
32 25 33
31 29 33
31 25 20
6 6 8
46 65 33
36 28 38
39 34 27
14 14 16
33 43 34
40 57 34
10 10 12
36 31 24
10 7 26
30 27 21
191 89 133
20 23 25
10 10 12
10 10 12
16 16 18
65 33 50
26 41 30
67 77 54
8 8 10
210 210 210
57 90 98
17 14 14
12 12 14
41 34 39
167 247 116
57 23 36
51 23 30
24 17 25
37 21 28
4 4 6
19 28 30
26 22 29
2 2 4
21 12 13
20 37 31
29 39 35
22 33 29
28 14 19
35 45 29
3 3 5
61 61 42
0 0 0
2 2 4
43 34 22
30 39 46
19 29 30
66 38 19
21 14 15
48 41 28
6 9 11
2 2 4
47 23 20
49 49 33
11 7 10
10 15 16
6 6 8
2 2 4
2 2 4
31 46 26
16 24 26
33 33 23
38 38 25
55 28 23
12 18 20
2 2 4
27 18 19
24 46 31
48 32 24
16 25 13
59 41 29
55 22 28
33 23 17
21 19 12
16 10 11
21 17 14
2 2 4
14 19 21
14 14 10
44 34 22
2 2 4
12 18 16
51 97 25
65 43 34
37 33 30
17 21 14
22 14 16
14 21 21
12 12 9
52 34 27
41 31 21
2 2 4
2 2 4
8 8 10
98 51 64
2 2 4
10 15 11
87 65 39
2 2 4
22 37 34
6 9 11
12 8 9
14 26 26
66 38 27
21 32 22
24 20 20
58 27 32
30 20 21
201 134 134
27 18 23
27 28 26
23 19 15
44 25 29
19 13 14
2 2 4
34 41 52
27 27 19
33 15 17
54 45 24
15 10 11
28 30 30
194 129 89
17 14 11
2 2 4
2 2 4
134 54 64
20 13 15
14 9 15
18 28 30
81 35 65
9 6 7
2 2 4
13 9 15
43 35 52
24 32 24
16 19 20
15 10 9
2 2 4
44 19 19
2 2 4
2 2 4
33 55 50
12 8 8
2 2 4
15 10 11
47 66 35
7 5 5
2 2 4
25 35 33
37 45 21
18 8 9
2 2 4
34 29 26
2 2 4
190 127 127
2 2 4
18 12 13
26 30 18
2 2 4
28 19 20
24 12 18
35 18 23
11 7 13
18 12 12
60 48 26
2 2 4
37 40 34
46 32 25
13 18 13
150 68 68
21 10 13
7 11 12
3 3 5
3 3 5
3 3 5
11 6 6
15 8 9
9 7 10
14 8 8
8 5 7
68 31 38
27 25 16
8 5 7
27 20 16
96 28 32
134 40 37
57 26 38
18 18 10
22 22 16
38 28 19
28 39 22
14 14 10
9 9 8
55 40 28
31 44 22
25 31 22
31 43 25
16 16 14
36 58 58
19 19 13
48 40 39
36 30 30
28 26 14
29 29 19
12 12 14
54 36 61
28 28 20
19 26 21
30 30 19
25 25 21
37 25 31
19 15 15
52 43 41
14 14 16
24 30 22
42 53 53
74 43 50
25 29 22
19 19 17
7 7 9
11 11 13
42 34 49
11 11 13
29 29 22
7 7 9
33 29 22
9 9 11
26 28 22
11 11 13
7 7 9
25 29 15
213 213 213
34 42 31
72 41 58
9 9 11
13 13 15
25 28 21
47 53 45
39 29 29
9 9 11
32 24 28
31 31 21
20 20 16
22 26 14
30 33 23
27 27 22
30 26 20
12 12 14
46 34 20
49 70 39
10 10 12
17 17 25
33 40 30
90 62 38
4 4 6
4 4 6
25 28 23
144 151 211
58 43 36
32 40 23
27 23 17
10 10 12
8 8 10
93 66 50
30 30 24
46 39 32
38 43 54
33 30 24
12 12 14
51 46 32
19 19 37
8 8 10
12 12 14
14 14 16
10 10 12
8 8 10
39 57 35
34 41 25
22 30 23
12 12 14
10 10 12
67 46 44
10 10 12
10 10 12
214 214 214
37 41 31
18 18 15
12 12 15
69 62 42
48 48 37
33 33 25
36 38 27
50 69 33
212 212 212
24 31 33
28 22 23
15 15 17
38 42 27
41 34 35
44 44 34
30 30 23
81 52 38
40 30 42
17 24 26
61 74 36
10 10 12
6 6 8
213 213 213
13 13 15
40 21 20
11 11 13
6 6 8
13 13 15
54 63 38
13 13 15
46 46 35
24 28 24
203 203 136
15 15 17
91 72 66
35 46 37
6 6 8
36 35 29
49 44 62
25 35 25
43 38 33
46 63 54
4 4 6
75 69 48
23 21 16
8 8 10
8 8 11
19 15 20
29 25 29
2 2 4
27 24 18
6 6 8
13 13 15
44 53 42
15 15 17
14 18 15
25 32 26
11 11 13
8 8 10
29 39 41
13 13 15
46 30 27
11 11 13
6 6 8
29 33 24
16 16 35
34 45 60
26 27 42
29 39 37
41 67 46
11 10 19
206 206 206
26 30 23
207 141 207
15 15 17
13 13 15
22 22 18
10 10 12
35 27 27
32 32 26
210 141 210
10 10 9
65 40 55
8 8 10
31 31 25
15 15 17
8 8 10
13 13 15
43 49 35
30 44 53
27 34 36
73 62 55
11 16 18
17 17 19
212 212 212
19 23 20
12 12 14
13 13 15
32 42 30
41 24 25
31 31 27
29 23 31
17 15 37
29 29 23
10 10 12
22 30 30
45 45 37
14 10 11
41 31 42
53 33 46
26 29 21
10 10 12
10 10 12
77 61 46
33 33 28
12 12 15
17 14 47
19 22 19
8 8 10
14 14 16
61 46 38
85 98 53
23 31 24
6 6 8
16 23 24
79 58 44
12 12 14
19 14 13
71 65 46
67 54 48
15 17 17
10 10 12
10 10 12
19 22 22
10 10 12
2 2 4
49 41 32
10 10 12
42 42 32
73 44 39
18 22 24
33 51 36
91 60 69
25 33 35
5 5 7
16 12 13
18 12 14
29 19 31
59 34 26
126 96 47
40 40 28
77 41 31
2 2 4
3 3 5
207 139 207
35 17 32
22 33 35
60 65 37
68 50 42
36 50 62
15 18 13
38 23 26
85 79 61
2 2 4
7 7 9
22 14 15
2 2 4
10 6 7
91 41 64
24 12 10
11 17 19
39 26 23
37 29 26
85 55 64
16 11 8
14 12 12
29 46 31
40 64 28
22 15 24
39 26 54
18 16 17
12 8 8
38 42 25
19 25 19
15 10 11
2 2 4
82 36 44
35 60 60
9 11 14
2 2 4
14 22 16
17 17 12
20 21 15
25 16 16
13 17 17
12 8 13
32 39 22
10 19 10
64 71 45
2 2 4
42 33 33
27 31 28
30 16 21
2 2 4
2 2 4
19 11 11
2 2 4
26 33 19
20 17 25
13 17 11
2 2 4
38 50 45
44 81 30
27 27 19
9 6 6
69 46 34
11 21 17
9 14 7
28 16 12
22 14 11
30 35 52
192 87 87
24 14 16
17 11 9
189 126 126
19 19 11
162 79 76
157 72 72
8 8 6
2 2 4
8 8 8
31 30 30
23 15 12
51 47 29
0 0 0
172 112 80
19 28 30
2 2 4
2 2 4
2 2 4
2 2 4
19 16 37
10 7 8
2 2 4
65 31 30
56 116 71
2 2 4
115 173 173
12 18 13
1 1 8
12 8 12
56 37 29
2 2 4
10 7 8
17 14 11
13 25 20
2 2 4
31 40 41
190 127 127
17 25 18
20 17 16
2 2 4
15 10 10
9 6 7
2 2 4
103 55 71
2 2 4
14 8 8
55 26 30
2 2 4
2 2 4
35 17 14
23 23 13
2 2 4
10 6 8
14 24 24
52 48 53
24 12 18
22 13 13
10 17 10
9 6 7
22 11 17
2 2 4
2 2 4
23 24 18
2 2 4
25 14 14
20 10 14
18 9 9
8 6 7
37 29 22
13 19 21
16 13 15
20 19 20
39 19 13
41 21 18
15 10 9
37 51 32
31 25 15
22 13 13
18 9 9
8 5 7
42 49 21
28 40 18
15 15 11
195 195 130
44 32 31
14 14 11
53 55 34
23 23 13
63 69 27
14 14 16
10 10 12
14 14 12
16 15 16
8 6 6
30 41 43
91 65 47
7 7 9
123 77 59
24 24 19
7 7 9
30 33 22
66 46 33
54 86 31
7 7 9
213 213 213
33 27 24
61 78 37
15 15 17
12 12 10
15 15 14
9 9 11
9 9 11
40 29 19
33 33 21
62 71 30
207 207 207
23 23 21
28 20 29
11 11 13
7 7 9
48 64 69
23 21 19
9 9 11
56 33 40
6 6 10
11 11 13
17 16 47
30 41 32
12 12 14
9 8 11
30 27 21
24 24 18
11 11 13
33 41 31
30 40 29
211 211 211
29 29 18
13 13 15
29 23 31
33 48 41
21 21 15
24 24 20
22 24 27
42 40 27
39 46 28
67 75 59
8 8 10
68 94 78
9 12 10
59 51 32
25 19 34
37 45 25
10 10 12
12 12 14
8 8 10
64 55 39
73 97 82
46 35 48
19 23 83
59 42 54
6 6 8
53 47 35
31 26 20
19 19 15
206 206 206
6 6 8
91 80 46
10 10 12
41 31 27
55 52 27
23 33 24
8 8 10
23 29 21
34 32 25
12 12 14
40 29 41
42 38 31
12 12 14
30 30 25
6 6 8
93 48 55
21 21 17
15 15 17
208 208 208
8 8 10
29 29 25
43 60 44
150 220 150
10 10 12
41 53 57
17 17 19
210 210 144
8 8 10
46 46 35
45 45 34
16 16 15
11 11 13
13 13 15
12 12 10
22 22 18
27 19 29
94 91 58
34 29 24
52 38 55
33 33 28
60 112 52
15 15 17
8 8 10
18 24 19
13 13 15
18 14 15
6 6 8
64 64 46
35 42 43
15 15 17
56 72 47
6 6 8
30 34 27
46 46 35
13 13 15
39 29 41
81 63 57
20 16 39
14 14 25
6 6 8
23 19 55
76 51 50
13 13 15
41 64 41
51 41 31
92 92 61
13 13 14
36 19 21
72 58 44
42 33 48
6 6 8
15 15 17
11 11 13
24 24 18
13 13 15
10 10 12
11 10 25
93 61 44
21 15 49
60 60 44
98 77 49
13 13 15
42 42 33
74 52 41
11 11 13
8 8 10
38 33 24
11 11 13
32 42 42
62 54 31
32 38 45
13 13 15
82 61 56
15 15 17
10 10 12
91 83 58
8 8 10
8 8 10
189 130 133
13 13 15
8 8 10
22 26 23
47 40 27
35 46 34
47 33 27
168 215 93
40 45 55
36 66 49
13 13 15
14 19 20
55 53 57
22 18 20
30 44 38
19 25 20
16 21 18
13 13 15
8 8 10
6 6 8
13 13 15
15 15 17
10 10 12
212 212 212
13 13 15
46 34 48
20 25 21
79 69 64
57 45 70
34 27 46
37 27 36
14 14 16
57 40 49
69 48 35
23 33 34
54 34 36
8 8 10
6 6 8
13 13 14
56 42 36
19 24 20
4 4 6
54 62 42
12 12 14
27 21 22
23 27 31
42 32 48
51 52 39
57 37 49
35 39 26
15 15 13
19 22 19
35 54 38
49 29 43
26 36 38
32 27 28
10 10 12
31 41 22
36 46 40
6 6 8
2 2 4
13 19 13
4 4 6
5 5 7
8 12 9
59 36 50
2 2 4
9 14 9
40 17 22
172 172 172
2 2 4
18 15 16
13 13 9
19 32 22
2 2 4
40 63 33
2 2 4
2 2 4
37 28 18
5 8 5
17 26 21
2 2 4
2 2 4
36 54 26
18 12 13
2 2 4
2 2 4
14 9 16
26 17 26
6 10 8
2 2 4
22 15 16
6 4 4
11 17 18
16 18 13
149 156 84
27 49 20
32 18 32
55 32 31
2 2 4
2 2 4
42 28 33
69 65 87
10 15 11
2 2 4
23 30 30
39 29 45
10 6 8
127 191 127
14 9 10
18 18 13
2 2 4
26 17 18
25 19 15
13 13 10
26 39 23
10 10 24
29 15 24
27 18 14
192 128 128
21 40 28
2 2 4
26 20 19
30 30 30
2 2 4
24 36 28
29 51 27
23 11 14
6 10 12
3 3 3
10 7 8
16 24 26
9 6 7
2 2 4
2 2 4
16 13 10
35 36 33
12 8 9
2 2 4
20 13 14
2 2 4
2 2 4
49 38 26
38 58 48
21 14 15
44 29 25
52 45 130
135 203 135
42 20 22
14 9 10
198 132 132
5 4 18
59 50 35
67 43 53
6 10 24
15 10 11
11 7 9
2 2 4
14 11 12
2 2 4
52 71 35
2 2 4
33 17 23
31 17 20
2 2 4
41 106 57
2 2 4
46 43 26
22 43 29
2 2 4
23 15 16
2 2 4
58 33 27
13 13 9
22 47 39
2 2 4
1 1 3
16 10 12
2 2 4
18 9 12
14 21 34
10 6 6
191 127 191
43 28 44
26 17 28
36 18 16
11 6 6
10 6 12
14 9 10
18 28 23
155 103 103
11 8 9
29 15 20
7 11 13
15 10 10
8 5 7
37 15 18
34 28 37
42 33 26
25 37 30
16 12 11
70 26 34
9 7 8
38 39 35
106 158 75
13 11 11
3 3 5
17 9 9
25 23 24
23 8 9
32 31 18
28 17 13
86 51 40
42 24 23
9 6 7
45 17 30
44 32 18
36 56 26
9 9 8
36 38 18
25 34 30
28 39 19
17 13 10
53 54 22
33 24 24
35 26 37
28 28 19
8 8 11
25 39 39
11 11 10
27 32 20
25 35 43
26 26 16
75 43 35
121 46 37
28 34 21
46 76 52
7 7 9
25 32 23
41 56 41
43 43 32
29 23 31
13 13 15
7 7 9
16 16 13
36 54 41
28 28 21
49 42 28
21 18 16
131 135 66
9 9 11
205 205 205
29 33 18
33 28 24
11 11 13
28 24 19
11 11 13
202 137 137
7 7 9
22 22 17
33 43 39
61 100 38
11 11 13
59 59 31
58 56 33
14 14 12
7 7 9
28 28 23
18 18 15
70 88 57
15 19 19
18 18 19
30 22 32
32 25 30
28 22 23
12 12 14
9 9 12
26 18 24
12 12 14
7 7 9
92 62 47
8 8 10
54 54 36
10 10 12
30 22 31
37 64 55
10 10 12
14 14 16
8 8 10
14 14 16
45 29 22
46 54 40
16 16 18
6 6 8
31 31 24
28 33 26
40 53 26
81 33 61
37 37 29
40 31 31
40 59 49
27 30 30
46 53 79
14 14 16
14 14 16
10 10 12
31 26 25
62 35 42
9 9 36
46 21 28
18 18 31
20 24 20
28 20 29
32 23 24
6 6 8
6 6 8
10 10 12
15 15 17
20 27 21
67 65 53
29 29 22
10 13 11
85 66 67
13 13 15
15 15 17
6 6 8
39 45 39
54 69 32
47 38 35
215 215 215
21 26 22
48 45 27
77 45 45
60 41 33
8 8 10
10 10 13
8 8 10
22 22 19
53 53 77
71 43 36
87 62 54
56 44 56
13 13 15
25 36 19
40 30 42
8 8 10
6 6 8
13 13 15
6 6 8
11 11 13
36 27 38
11 11 13
11 11 13
112 117 163
31 23 32
13 13 15
49 42 38
15 15 17
55 43 65
8 8 10
20 26 21
37 45 37
37 42 23
31 22 26
29 22 31
39 32 27
8 8 10
8 8 10
28 28 23
11 11 11
71 63 49
11 11 13
11 14 16
8 8 10
8 8 10
49 70 52
50 23 36
8 8 10
13 13 15
106 61 48
30 24 25
34 42 27
57 64 51
13 13 15
8 8 10
54 57 52
11 11 13
45 48 28
23 23 19
20 25 27
34 30 35
34 34 50
28 24 25
45 43 42
62 39 41
144 210 144
53 53 41
6 6 8
29 29 24
19 19 21
34 30 23
202 202 138
13 13 15
44 29 24
19 25 27
72 61 48
23 30 24
16 17 28
15 15 17
30 30 25
17 17 19
40 52 32
25 32 26
185 92 68
33 39 32
30 34 24
26 22 28
12 12 14
33 51 29
10 10 12
23 23 25
14 14 15
10 10 12
62 48 32
26 29 24
136 93 93
12 12 14
19 19 31
6 6 14
39 47 41
63 41 34
210 210 210
35 47 49
8 8 10
22 18 19
31 42 44
139 206 206
12 12 14
21 27 29
8 8 15
35 44 41
66 52 35
26 19 28
13 15 14
40 27 35
42 36 50
25 27 27
20 26 27
23 18 25
96 69 55
105 51 65
115 39 57
8 8 21
18 21 19
230 156 230
21 28 22
32 36 28
4 4 6
8 8 10
6 6 8
59 46 69
64 36 45
37 47 47
15 17 13
2 2 4
13 20 22
40 40 28
2 2 4
9 7 7
2 2 4
7 7 9
9 13 10
2 2 4
32 29 19
12 8 11
11 11 8
51 39 45
28 22 36
155 103 103
6 9 6
35 19 30
33 18 27
16 10 31
33 62 52
18 18 13
13 20 14
37 28 17
2 2 4
14 21 15
61 50 30
11 14 40
4 4 6
28 28 20
2 2 4
18 32 32
2 2 4
53 23 21
53 53 37
205 136 136
16 16 32
2 2 4
19 31 36
2 2 4
30 25 18
15 23 25
32 48 24
39 21 31
13 8 9
20 13 22
13 20 14
2 2 4
16 10 11
24 21 18
18 15 12
50 32 48
24 14 14
14 11 10
19 28 20
33 23 15
16 12 10
2 2 4
14 9 10
10 15 17
46 31 45
2 2 4
2 2 4
20 20 14
2 2 4
16 22 26
16 12 11
16 8 11
8 8 10
51 48 34
52 40 89
1 1 3
16 24 13
11 7 8
27 27 21
48 53 43
2 2 4
19 13 10
2 2 4
6 6 6
29 37 45
34 15 19
33 19 29
6 6 8
29 19 16
2 2 4
36 18 17
7 10 8
2 2 4
20 16 13
2 2 4
11 7 8
37 21 26
71 43 57
42 21 38
2 2 4
21 17 27
14 21 15
42 40 51
2 2 4
2 2 4
34 33 34
25 12 12
2 2 4
23 29 30
22 27 19
2 2 4
25 16 16
9 6 7
15 10 10
2 2 4
39 28 23
70 41 45
56 41 29
101 99 99
2 2 4
72 56 26
61 25 30
14 18 18
10 15 17
2 2 4
22 13 12
15 12 12
2 2 4
24 13 16
20 17 17
15 15 11
41 18 24
15 7 11
13 8 9
22 14 11
2 2 4
7 5 6
57 26 30
3 2 9
7 5 10
30 37 38
8 5 6
2 2 4
37 28 17
2 2 4
36 53 28
18 9 12
17 25 27
15 23 16
2 2 4
6 4 5
7 5 6
25 23 14
20 10 11
13 11 11
29 17 14
15 7 8
39 21 24
24 32 16
17 24 11
13 13 10
9 10 10
36 39 23
8 8 10
31 43 32
17 17 15
30 22 20
28 33 24
163 163 110
8 8 12
28 36 28
15 15 13
58 41 33
25 27 22
11 11 13
26 26 20
156 156 77
55 38 43
35 24 30
20 23 18
11 11 13
7 7 9
22 24 14
7 7 9
9 9 11
9 9 11
11 11 10
5 5 7
9 9 11
31 48 49
32 40 33
59 45 50
43 51 37
11 11 13
53 42 35
29 21 17
7 7 9
11 11 13
30 22 32
9 9 11
56 42 30
63 50 73
33 26 20
23 23 18
109 79 57
30 37 39
45 35 47
35 32 28
44 36 42
12 12 14
12 12 14
8 8 10
19 25 27
28 23 18
55 44 28
25 25 20
43 47 37
32 24 25
214 214 214
10 10 12
12 12 14
90 52 34
8 8 36
10 10 12
198 198 135
107 205 140
57 33 47
38 38 30
51 43 38
158 158 106
64 64 46
43 43 33
10 10 12
40 59 48
38 37 26
27 16 27
12 16 18
49 47 42
30 30 24
19 19 16
97 55 40
64 39 48
24 19 28
10 10 12
46 42 29
8 8 10
34 28 23
33 26 27
4 4 6
19 19 15
14 14 16
12 12 15
14 14 16
22 22 19
54 57 42
42 53 31
33 37 28
14 14 16
10 10 12
15 15 17
45 69 40
31 40 42
119 79 76
6 6 8
12 12 14
10 10 12
42 51 41
42 47 30
10 10 12
48 29 38
11 11 13
8 8 10
28 32 23
69 40 49
89 182 123
6 6 8
6 6 8
33 51 37
43 36 42
8 8 10
20 20 21
33 29 23
38 51 33
41 31 43
64 55 42
13 13 15
6 6 8
20 15 21
77 65 51
32 29 41
10 10 13
26 27 22
58 49 34
34 41 42
15 10 12
11 8 13
11 11 13
109 195 72
219 219 219
32 37 25
41 47 40
66 46 36
11 11 13
39 50 31
69 103 94
14 14 14
17 17 19
15 15 17
41 50 38
24 24 19
39 36 27
27 27 20
36 41 32
33 47 33
63 56 40
4 4 6
46 65 53
4 4 6
17 17 19
91 62 75
15 19 21
98 50 66
30 28 21
13 13 28
44 42 28
8 8 10
72 75 39
30 30 20
69 60 82
17 22 18
13 13 14
54 31 25
37 42 32
31 31 25
11 11 13
31 24 25
22 26 27
8 8 10
59 57 51
17 17 19
39 30 28
67 67 48
10 10 12
21 25 19
15 15 17
6 6 8
17 17 19
62 50 70
10 10 12
29 34 34
34 28 21
17 14 14
38 24 28
47 31 43
10 10 12
20 20 22
15 15 17
31 25 31
41 25 34
26 26 18
6 6 8
26 21 28
10 10 12
55 55 43
24 24 19
45 52 44
8 8 10
30 25 21
14 14 16
22 17 24
15 19 15
43 53 34
28 46 38
51 47 31
46 31 25
21 27 29
6 6 8
36 36 29
45 33 47
10 10 12
32 24 25
24 16 16
49 40 39
44 66 56
27 35 29
68 36 40
25 20 18
25 30 23
10 10 12
32 27 24
10 10 12
16 16 19
48 50 36
208 208 208
18 15 16
44 37 26
68 71 68
24 34 25
39 31 22
11 11 13
51 57 45
8 12 10
11 15 17
2 2 4
9 9 9
34 27 27
11 16 12
49 36 30
29 20 16
28 28 23
2 2 4
22 13 13
1 1 3
22 20 13
50 44 42
25 43 43
23 23 16
21 12 21
21 36 36
25 19 19
28 21 19
28 18 20
9 14 9
2 2 4
219 106 99
19 22 15
29 24 19
27 29 26
28 22 16
11 7 8
168 168 168
13 9 10
2 2 4
2 2 4
17 26 21
2 2 4
17 31 21
14 9 9
9 6 6
97 53 69
30 18 20
62 44 52
45 37 22
12 12 8
2 2 4
44 78 61
10 15 17
29 26 25
35 33 28
26 34 21
19 37 18
2 2 4
23 28 15
2 2 4
16 11 12
26 31 36
255 188 96
1 1 3
66 47 29
14 9 10
15 10 11
2 2 4
67 55 49
25 16 18
50 24 30
36 16 22
8 10 37
9 6 7
21 31 18
37 24 39
39 34 34
2 2 4
14 9 9
56 56 49
45 17 21
72 65 42
31 20 21
31 16 17
15 23 25
53 84 54
38 77 60
17 22 14
13 8 9
2 2 4
131 85 128
2 2 4
19 15 22
2 2 4
18 28 20
31 47 39
58 50 33
26 39 34
19 17 13
9 14 10
10 6 8
38 21 25
30 27 22
43 52 29
9 6 7
13 20 21
2 2 4
2 2 4
18 23 23
3 3 14
2 2 4
19 10 10
7 11 8
33 32 25
13 8 9
34 23 28
51 58 37
2 2 4
46 38 64
2 2 4
91 42 51
9 6 7
17 11 9
10 7 8
2 2 4
15 10 11
21 21 12
19 16 11
33 36 24
15 10 9
2 2 4
6 4 4
240 240 160
43 40 54
12 8 7
42 24 36
19 15 13
62 47 33
37 56 40
62 56 44
12 8 9
72 55 23
45 27 22
33 17 17
33 33 24
78 25 24
9 6 7
37 24 38
2 2 4
2 2 4
10 15 15
20 15 13
27 38 24
22 20 20
74 101 41
26 17 13
3 3 5
207 207 207
8 5 7
62 30 17
10 6 8
34 22 29
34 24 16
20 11 10
83 108 59
17 17 12
17 17 10
10 10 10
11 11 9
7 7 9
26 22 21
44 32 46
39 52 24
9 9 11
6 6 11
164 164 111
65 34 42
27 31 22
38 39 35
9 9 11
26 20 68
34 39 27
65 65 64
12 12 14
10 10 12
7 7 9
32 28 23
12 12 14
60 59 40
52 41 31
14 14 16
5 5 7
7 7 9
5 5 7
11 11 13
67 75 41
11 11 13
40 30 23
13 13 15
45 44 27
23 25 20
15 13 14
46 46 34
7 7 9
37 53 31
11 11 13
32 23 30
29 39 30
22 20 59
31 31 25
91 47 55
62 52 38
13 13 15
13 13 15
8 8 10
11 11 14
31 39 31
26 33 25
13 13 10
19 19 17
24 24 18
18 18 14
34 39 28
57 41 59
41 51 31
40 29 20
39 30 36
59 39 50
63 79 55
32 28 22
10 10 12
43 50 27
43 58 76
52 41 32
12 12 14
21 28 30
185 162 174
214 214 214
53 60 36
60 33 50
25 25 22
24 24 20
67 42 53
14 14 16
26 31 32
53 61 35
15 13 34
140 196 134
52 38 54
14 20 56
97 40 48
12 12 14
36 32 37
20 20 17
27 28 24
56 56 78
95 84 59
8 8 10
45 34 35
23 23 18
6 6 8
57 65 41
8 8 10
8 8 10
21 21 17
37 35 29
10 10 12
39 37 27
20 20 17
64 53 47
13 13 15
66 43 54
34 30 21
73 73 56
70 52 43
13 13 15
128 80 49
10 10 13
18 18 15
50 94 48
8 8 10
32 52 52
13 13 15
13 13 15
52 32 43
8 8 10
20 20 18
15 15 17
20 20 17
11 11 13
15 15 17
54 59 54
57 81 37
61 84 74
6 6 8
40 49 31
37 35 36
15 15 28
37 32 22
72 82 42
26 35 26
11 11 13
57 53 37
8 8 11
13 13 15
11 11 13
11 11 25
23 23 21
26 35 22
51 58 34
13 13 15
40 31 36
11 11 13
198 198 134
50 50 38
13 13 15
32 24 33
8 8 10
14 15 37
26 33 35
13 13 15
13 13 15
11 11 13
10 10 13
27 33 35
13 13 15
213 213 213
31 27 23
33 39 38
29 27 22
27 27 19
15 15 17
8 8 10
59 59 33
48 25 33
72 88 45
72 75 53
212 212 212
36 31 43
11 11 13
6 6 8
26 29 29
53 34 48
71 71 50
10 10 13
79 79 59
150 219 150
15 15 19
11 11 13
8 8 10
11 11 13
37 43 31
36 26 26
10 10 12
35 34 30
50 72 41
24 34 21
7 7 11
21 29 29
15 15 17
134 95 190
17 17 19
17 14 19
36 78 73
53 36 31
28 36 40
8 8 10
12 12 14
35 35 28
27 49 33
13 13 15
28 22 22
45 38 29
19 23 25
212 212 212
23 28 36
30 24 31
10 10 12
4 4 6
12 12 14
175 121 86
62 46 54
12 12 14
16 16 18
28 22 30
31 25 33
24 31 25
53 53 40
31 41 42
24 20 24
10 10 12
33 24 35
32 22 22
55 49 47
21 16 16
38 33 27
49 35 47
23 30 19
35 31 35
50 36 41
30 36 30
31 23 33
21 29 23
10 10 12
49 36 33
8 8 10
6 6 8
7 7 9
4 4 6
33 20 33
16 11 12
29 31 23
29 21 29
3 3 5
9 14 15
64 33 29
2 2 4
13 9 9
29 26 35
5 4 19
53 53 36
2 2 4
2 2 4
2 2 4
17 34 26
9 9 7
27 21 18
20 13 28
20 15 15
13 20 22
9 14 9
23 15 17
11 14 14
17 12 12
24 16 15
11 16 16
9 14 11
65 73 44
32 39 49
16 24 26
17 26 19
5 8 10
26 51 37
2 2 4
126 186 63
36 24 38
66 38 31
107 87 44
2 2 4
27 53 40
43 34 53
13 8 10
15 15 11
9 12 12
23 20 13
2 2 4
2 2 4
44 117 97
31 47 25
18 21 18
10 7 8
2 2 4
23 40 40
2 2 4
2 2 4
71 30 37
12 12 15
45 17 23
2 2 4
74 62 47
2 2 4
23 29 20
23 33 33
16 17 12
22 20 16
161 222 153
2 2 4
2 2 4
18 14 12
19 24 15
28 17 29
15 22 16
21 24 13
10 12 20
20 20 14
15 10 17
16 24 26
2 2 4
2 2 4
2 2 4
2 2 4
11 7 8
2 2 4
18 12 13
15 15 10
27 19 29
24 22 26
21 28 17
2 2 4
9 7 7
2 2 4
45 68 34
5 3 3
28 18 29
19 16 17
51 45 37
2 2 4
204 136 94
39 18 19
31 28 25
29 19 38
9 9 11
10 7 8
2 2 4
2 2 4
6 10 11
70 37 56
40 31 22
25 46 32
23 15 15
30 20 18
41 32 22
2 2 4
8 5 6
24 33 22
17 10 10
120 118 118
11 7 8
31 18 15
30 35 25
126 82 120
25 32 23
27 22 21
2 2 4
2 2 4
17 14 11
23 21 21
16 8 12
9 6 13
42 57 44
49 21 29
2 2 4
24 16 12
6 10 12
2 2 4
47 21 31
194 93 91
2 2 4
14 17 12
37 34 33
2 2 4
205 205 136
27 43 32
25 51 40
2 2 4
2 2 4
60 46 27
72 44 56
36 27 32
206 206 206
21 14 12
7 5 6
27 30 27
11 5 5
16 16 12
23 27 13
108 71 37
92 59 46
10 10 12
45 49 36
34 37 20
7 7 9
9 9 11
7 7 9
26 28 20
60 68 29
9 9 11
7 7 9
209 209 209
24 20 15
22 20 47
29 29 19
56 47 41
29 21 22
22 22 18
18 22 37
11 11 13
14 14 16
34 23 20
22 17 23
48 25 38
39 39 40
37 42 28
209 209 209
56 62 33
9 9 11
31 24 74
198 198 134
43 32 26
42 31 44
60 44 26
21 21 17
26 20 21
40 19 23
5 5 7
56 56 43
29 39 41
23 28 22
9 9 12
31 33 31
39 33 29
12 12 14
9 9 11
28 24 22
143 209 143
26 32 22
46 72 49
8 8 10
80 98 54
20 29 22
38 54 38
41 35 29
40 40 31
4 4 6
180 92 180
46 61 38
18 18 15
14 14 16
10 10 12
29 38 30
33 43 32
61 56 37
21 21 18
24 24 18
38 63 41
42 72 42
202 202 136
50 35 52
17 17 15
14 14 16
48 36 25
14 14 16
15 15 31
8 8 10
37 37 37
56 41 33
10 10 12
50 42 31
12 12 14
38 30 23
52 36 41
95 86 49
4 4 6
22 22 19
22 22 20
25 19 19
15 15 17
20 17 18
10 10 12
12 12 14
36 41 31
47 58 62
34 25 26
12 12 14
202 202 137
28 33 25
32 52 44
38 30 26
19 25 25
10 10 12
14 14 15
68 68 50
6 6 8
10 10 12
45 34 35
54 36 42
74 51 63
8 8 10
63 47 57
11 11 13
29 34 34
19 22 20
10 10 12
21 28 21
8 8 10
65 56 63
48 43 36
59 67 44
38 29 40
8 8 10
34 37 38
42 30 42
81 70 46
34 25 26
40 44 31
40 40 32
23 18 19
8 8 10
21 28 30
8 8 10
11 11 13
11 11 13
11 11 13
50 33 34
57 75 66
11 11 20
76 80 53
13 13 15
28 28 24
19 15 15
38 25 34
30 42 27
23 23 19
44 32 46
40 40 31
34 26 36
30 42 33
13 13 28
10 10 12
213 213 213
20 20 17
15 15 17
6 6 8
8 8 10
43 45 35
13 13 15
8 8 10
8 8 10
51 48 32
20 17 21
8 8 10
34 27 27
15 15 17
94 72 45
48 85 61
11 11 13
68 73 54
33 33 25
49 35 51
49 52 32
13 13 15
11 11 13
43 101 64
12 12 22
21 26 19
33 46 59
13 13 15
56 91 55
8 8 10
79 82 60
30 42 42
6 6 8
53 51 60
46 37 43
46 73 43
13 13 15
25 29 17
32 32 26
69 36 31
35 67 43
32 41 29
49 49 36
10 10 12
62 66 39
32 27 26
13 13 23
214 214 214
6 6 8
15 15 17
8 8 10
24 17 17
12 12 14
10 10 12
107 111 76
12 12 14
31 31 24
6 6 8
10 10 12
23 31 26
69 66 71
43 61 33
12 12 14
41 41 32
38 53 32
10 10 12
32 26 23
19 15 19
9 9 10
40 49 36
12 12 14
38 47 38
39 39 30
36 28 20
42 42 46
16 16 17
17 22 24
25 16 16
48 101 45
24 24 21
27 34 36
17 13 19
47 39 32
84 54 47
14 14 14
8 8 10
31 33 26
3 3 6
10 15 16
16 9 11
44 38 30
46 46 32
32 32 23
29 29 29
20 25 13
0 0 0
15 10 11
25 12 13
6 9 7
22 27 21
27 45 20
2 2 4
28 24 27
23 29 19
13 13 10
2 2 4
61 41 32
33 33 23
26 17 18
12 7 7
198 132 132
31 36 34
2 2 4
24 16 17
3 3 4
48 25 34
2 2 4
22 12 12
31 24 16
8 12 14
2 2 4
66 115 33
21 32 32
40 41 32
62 43 32
13 7 7
33 26 26
13 18 15
15 23 25
32 17 21
7 10 8
44 30 30
20 16 16
21 32 22
18 27 29
65 71 43
21 32 18
25 16 17
2 2 4
26 15 15
21 12 14
2 2 4
2 2 4
2 2 4
15 23 25
24 24 17
41 32 19
57 33 25
41 26 22
8 8 9
2 2 4
39 49 44
2 2 4
28 19 31
111 105 105
22 18 15
2 2 4
15 23 12
38 22 27
22 33 23
2 2 4
26 39 27
31 21 28
11 7 8
29 25 21
48 24 33
33 44 44
25 32 22
2 2 4
57 32 38
57 39 41
30 17 17
44 31 21
108 163 163
14 10 8
83 32 38
19 28 22
31 17 17
16 21 14
25 13 13
16 10 10
17 9 9
2 2 4
58 38 29
79 84 63
21 27 18
2 2 4
2 2 4
2 2 4
43 29 46
37 43 29
2 2 4
16 24 24
16 11 12
2 2 4
2 2 4
18 12 12
60 21 27
34 26 22
2 2 4
2 2 4
7 11 8
47 20 25
36 46 43
72 57 57
18 12 10
17 15 11
16 24 22
2 2 4
58 38 50
16 24 26
31 20 13
2 2 4
61 31 40
2 2 4
9 8 8
2 2 4
33 20 25
2 2 4
33 16 15
43 64 35
16 24 17
36 23 24
2 2 4
8 5 6
69 51 33
37 16 19
28 45 43
43 32 44
27 18 28
2 2 4
14 22 15
77 56 31
2 2 4
204 204 204
4 3 3
2 2 4
26 17 18
2 2 4
8 5 6
19 28 30
13 9 8
23 9 9
23 18 12
21 19 20
15 15 11
12 12 14
7 7 9
17 12 31
44 48 23
23 29 17
9 9 11
18 15 16
27 19 19
56 60 43
33 41 33
50 52 29
55 49 29
20 20 17
47 62 32
34 27 26
19 19 15
30 24 16
24 24 19
5 5 7
9 9 11
53 44 35
9 9 11
21 17 23
7 7 9
33 33 26
25 21 37
11 11 13
48 36 37
41 46 28
13 13 15
47 39 36
24 22 18
5 5 7
37 37 22
54 41 26
27 18 27
38 65 41
39 61 33
34 34 24
47 48 32
7 7 9
23 23 18
22 22 18
5 5 7
45 86 37
38 27 28
55 77 43
5 5 8
57 71 33
75 39 53
5 5 8
71 54 32
11 11 14
3 3 5
12 12 14
6 6 8
34 29 24
27 24 21
8 8 10
22 25 18
11 11 16
34 26 34
23 23 19
6 6 8
6 6 8
64 102 62
8 8 10
28 38 39
56 60 51
20 16 22
8 8 10
26 30 20
4 4 6
70 74 65
35 32 22
14 14 16
21 29 22
27 38 40
30 34 23
57 45 32
53 48 43
29 29 24
10 10 12
8 8 10
32 50 50
34 47 30
34 42 48
20 16 22
67 42 44
33 43 34
38 29 30
6 6 8
6 6 8
41 30 43
26 37 39
41 41 37
24 22 17
10 10 12
36 62 43
10 10 12
53 56 36
26 34 36
8 8 10
28 19 28
14 12 51
75 57 35
43 48 30
212 212 212
15 15 17
140 206 101
25 25 21
10 10 13
51 40 50
13 13 15
25 25 18
8 8 10
17 17 21
21 28 30
15 15 17
10 10 13
42 34 20
30 40 41
29 24 26
10 10 13
20 20 18
27 19 22
12 13 28
8 8 10
79 100 50
41 36 23
15 15 17
15 15 17
27 20 33
11 11 13
213 213 213
11 11 13
10 10 12
28 42 23
52 40 30
13 13 15
51 58 42
56 40 46
32 29 24
35 30 28
24 30 32
18 18 15
30 29 21
4 4 6
16 21 18
39 29 21
37 37 27
13 13 15
68 55 77
8 8 10
60 53 40
210 143 143
8 8 10
11 11 13
8 8 10
27 18 18
9 9 13
75 91 42
8 8 10
215 215 215
42 51 39
24 27 20
31 31 23
28 21 24
11 11 13
13 13 15
23 17 24
39 45 42
11 11 13
11 11 13
11 11 13
45 33 28
6 6 8
2 2 4
50 45 29
6 6 8
71 67 35
97 121 65
30 22 32
210 210 210
22 15 17
29 37 38
83 65 41
29 46 45
6 6 8
13 13 15
64 58 42
17 22 24
25 20 22
35 30 35
34 34 27
15 18 16
69 49 40
59 59 44
43 43 31
25 25 19
24 32 25
26 29 20
20 20 22
24 28 22
38 44 53
66 66 47
8 8 10
21 27 22
10 10 12
30 22 22
59 76 85
56 56 40
24 25 25
79 33 54
24 30 37
40 52 49
39 45 43
8 8 10
18 18 17
10 10 12
72 72 44
27 21 23
10 10 12
78 82 54
10 10 12
8 8 10
10 10 12
88 35 41
15 19 16
8 8 10
12 12 14
47 47 35
111 225 153
16 13 13
29 47 45
48 48 35
66 48 62
21 23 38
24 20 18
2 2 4
22 32 34
9 9 12
12 17 17
23 31 27
41 54 36
3 3 6
36 31 25
25 32 22
39 38 28
61 30 41
35 14 33
2 2 4
30 30 30
30 39 33
22 22 29
2 2 4
218 218 145
35 35 24
8 12 9
2 2 4
30 22 19
7 5 5
25 16 27
11 17 19
22 45 52
1 1 3
48 34 27
24 23 23
2 2 4
160 106 106
31 25 25
18 28 30
6 4 4
15 22 16
5 8 8
2 2 2
21 14 21
39 34 25
24 16 17
27 18 19
64 33 31
30 29 29
7 11 8
42 42 29
7 11 13
26 28 26
54 42 44
7 7 9
1 1 3
28 43 23
10 15 17
18 9 12
20 15 13
7 10 8
101 43 54
65 48 33
24 14 14
10 6 6
24 15 15
7 5 6
31 24 16
2 2 4
26 17 28
7 5 5
2 2 4
16 16 48
19 13 14
112 169 169
2 2 4
2 2 4
58 39 34
3 3 4
83 48 73
16 11 11
2 2 4
14 19 13
28 38 28
15 15 12
204 204 204
2 2 4
37 22 24
70 41 44
2 2 4
24 42 42
35 45 23
52 35 25
14 9 9
2 2 4
27 34 21
14 21 15
28 21 18
80 37 72
28 17 19
3 3 3
68 61 52
21 39 38
18 27 29
31 26 15
2 2 4
9 6 7
18 28 17
16 12 9
36 31 17
14 19 14
9 6 7
16 11 13
2 2 4
2 2 4
2 2 4
80 44 26
17 25 22
21 14 15
17 22 17
8 8 8
4 5 17
16 24 17
87 38 29
17 11 11
24 16 17
19 10 10
22 16 12
136 66 60
23 18 12
2 2 4
27 21 14
106 46 71
9 13 15
12 10 8
16 9 18
7 5 6
11 7 8
8 5 5
72 34 40
2 2 4
7 5 5
20 28 18
30 28 22
84 40 50
25 14 14
32 21 16
122 117 56
51 33 29
33 16 22
9 6 11
53 23 27
12 6 6
204 204 204
2 2 4
42 34 22
3 3 5
3 3 5
86 188 129
7 5 6
21 14 16
28 18 19
26 17 27
14 13 8
18 12 10
42 14 18
15 10 10
7 7 9
38 54 48
10 10 12
41 33 27
7 7 9
7 7 9
21 29 22
49 53 45
27 27 22
26 36 38
214 214 214
26 18 23
18 17 30
13 13 12
47 38 28
33 50 30
23 23 19
35 30 30
45 42 35
87 67 36
52 52 39
11 11 13
31 31 19
11 11 13
34 29 24
196 138 95
7 7 9
13 13 12
22 31 33
25 25 20
11 11 13
11 11 13
13 13 15
28 41 26
38 61 120
19 19 14
49 52 32
7 7 9
35 42 24
84 78 53
18 18 15
20 20 15
203 203 139
43 41 30
22 29 23
71 44 47
7 7 9
13 13 16
25 18 27
8 8 10
31 22 33
51 90 36
19 19 17
73 68 47
49 41 32
10 10 12
8 8 10
56 39 31
10 10 12
37 42 33
31 31 24
45 49 60
4 4 6
53 39 24
33 24 25
58 65 58
31 26 27
10 10 12
10 10 12
16 16 31
6 6 8
46 29 35
10 10 12
83 109 64
51 51 38
33 33 25
47 38 39
14 14 16
70 53 70
10 10 12
92 65 29
25 18 15
14 14 16
22 22 15
26 26 20
19 22 32
57 64 44
37 28 39
6 6 9
166 118 116
26 30 30
24 24 20
64 61 39
34 27 36
8 8 10
10 10 12
10 10 12
41 39 29
153 255 84
211 211 145
10 10 12
15 15 17
20 25 26
27 34 36
13 13 15
4 4 6
215 215 215
8 8 10
6 6 8
13 13 15
50 41 31
71 45 68
24 31 26
74 47 63
44 44 28
13 13 15
34 39 47
13 13 15
17 17 19
45 40 28
32 19 27
11 11 13
28 28 23
23 33 35
8 8 10
21 22 50
26 22 36
76 82 48
65 54 52
13 13 15
24 24 22
45 28 40
32 44 108
6 6 8
6 6 8
84 63 49
56 33 46
13 13 15
63 70 42
21 18 16
14 18 15
15 15 17
6 6 8
6 6 8
111 41 56
17 17 19
15 15 17
6 6 8
15 15 17
67 52 39
18 18 20
41 38 32
204 204 204
13 13 15
21 16 18
11 11 13
8 8 10
15 15 17
27 20 20
72 37 66
148 218 108
6 6 8
11 11 13
40 47 45
13 13 15
210 210 210
13 13 15
38 42 36
41 27 27
31 32 44
8 8 10
15 15 17
13 13 15
68 41 54
15 15 17
215 215 215
8 8 10
36 28 35
13 13 15
4 4 6
9 10 18
15 21 15
31 28 24
31 62 35
2 2 4
2 2 4
40 55 45
33 33 24
15 15 17
30 25 30
50 50 31
21 26 29
6 6 8
8 8 10
13 13 15
8 8 9
37 44 33
91 53 48
8 8 10
41 50 57
33 33 27
12 12 15
12 12 14
40 30 41
28 22 32
46 64 38
47 34 49
40 40 31
76 59 39
6 6 8
42 34 48
12 12 14
16 22 17
8 8 10
11 11 11
57 46 67
16 16 14
42 32 26
12 12 14
96 86 61
212 212 212
19 15 16
10 10 12
4 4 6
39 45 28
15 24 15
17 20 43
69 78 55
39 49 49
27 35 37
18 25 20
10 10 12
21 21 18
12 12 14
39 39 40
101 70 43
37 27 32
11 11 15
34 41 48
105 94 56
36 26 36
124 95 61
71 71 50
28 33 29
38 25 22
27 27 19
5 5 7
13 13 8
33 22 33
38 25 40
2 2 4
78 58 38
9 17 14
56 69 54
26 35 15
2 2 4
65 25 32
10 7 7
68 64 45
2 2 4
50 33 29
17 11 12
13 13 11
10 16 10
18 10 39
2 2 4
56 42 26
43 65 30
14 9 10
14 17 12
20 29 29
28 15 18
3 2 11
13 20 13
25 17 18
38 18 22
49 87 38
11 7 8
20 13 14
255 89 84
24 23 24
55 50 33
11 11 7
10 6 7
2 2 4
15 23 25
23 15 16
38 25 19
25 17 18
46 36 46
19 13 14
17 16 20
2 2 4
44 59 52
43 23 36
14 22 16
10 16 18
28 21 31
18 14 14
2 2 4
11 11 8
2 2 4
52 38 27
32 21 22
2 2 4
18 15 12
16 11 12
12 18 19
18 9 12
12 10 10
2 2 4
2 2 4
2 2 4
50 38 42
36 24 20
2 2 4
41 41 28
7 11 8
24 31 29
61 42 42
2 2 4
26 30 22
15 10 11
75 39 50
16 10 16
10 6 8
2 2 4
123 84 120
41 26 35
30 20 21
12 8 9
12 19 12
20 31 14
2 2 4
20 13 14
2 2 4
2 2 4
26 31 27
2 2 4
87 48 53
15 10 11
19 29 20
6 10 11
54 29 36
2 2 4
10 6 6
70 40 44
48 42 26
2 2 4
20 16 13
33 32 44
24 16 16
40 42 41
48 37 40
14 24 16
23 13 12
43 32 48
34 36 32
2 2 4
40 22 22
40 35 36
32 39 39
16 24 26
2 2 4
62 59 39
2 2 4
17 11 13
46 25 30
9 6 7
19 10 10
2 2 4
25 16 14
2 2 4
32 29 25
172 78 115
2 2 4
14 8 8
2 2 4
2 2 4
25 35 45
64 101 49
17 17 13
14 11 11
7 5 5
2 2 4
2 2 4
19 28 23
7 5 6
2 2 4
41 60 54
32 48 28
17 28 19
2 2 4
3 3 5
24 31 31
3 3 5
17 25 18
7 4 5
18 27 15
5 5 7
12 12 14
34 26 27
8 8 10
20 26 30
23 23 20
25 27 19
5 5 7
114 64 54
12 12 14
11 11 10
19 15 21
5 5 7
76 62 44
36 40 29
9 9 11
20 18 14
33 24 45
14 14 16
83 72 45
50 51 38
26 26 21
11 11 13
35 31 31
31 34 26
21 20 40
34 34 25
8 8 12
7 7 9
29 39 30
11 11 13
7 7 9
7 7 9
2 2 4
19 19 17
51 39 53
13 13 15
5 5 7
47 52 30
22 22 18
30 35 35
121 59 76
13 13 15
39 28 29
51 41 26
27 38 28
50 78 42
39 32 39
11 11 14
24 24 22
33 57 38
46 35 26
13 13 21
40 47 29
36 30 27
25 19 20
23 23 19
35 51 38
17 17 15
16 18 25
16 16 18
12 12 14
46 63 44
41 66 51
44 35 27
20 20 16
10 10 12
10 10 12
35 42 47
55 44 30
6 6 8
27 27 24
171 171 117
34 25 36
31 25 16
24 24 20
69 65 45
104 67 89
36 27 28
81 81 48
2 2 4
58 58 42
76 69 50
69 46 40
32 22 48
12 12 14
6 6 8
221 221 149
12 12 14
8 8 10
31 31 24
6 6 8
13 13 15
17 20 49
35 25 37
53 44 41
179 179 179
47 67 41
15 15 17
54 36 47
8 8 10
70 76 48
27 27 19
11 11 13
8 8 10
6 6 8
23 23 18
215 215 215
212 212 212
46 32 51
24 20 26
210 210 210
15 15 17
61 35 30
54 54 40
58 33 49
68 64 43
11 11 13
8 8 10
4 4 6
23 33 34
41 35 29
11 11 13
20 26 21
30 30 21
11 11 13
34 40 29
58 92 47
47 47 35
21 21 16
8 8 10
34 25 36
13 13 15
63 58 52
215 215 215
10 10 12
11 11 13
69 58 37
39 47 55
21 15 23
39 32 25
32 42 33
15 20 21
17 17 19
55 43 69
6 6 8
210 210 210
4 4 6
8 8 10
8 8 10
61 61 45
8 8 10
40 34 26
35 47 61
8 8 10
23 36 31
30 26 25
36 39 42
41 35 46
8 8 10
8 8 10
141 148 148
15 15 17
10 10 12
11 11 13
54 93 82
22 26 22
36 47 48
8 8 10
6 6 8
13 13 15
11 11 13
208 208 208
47 33 45
8 8 10
6 6 8
13 13 15
18 18 16
210 210 210
215 215 215
13 13 15
29 21 21
34 34 132
46 30 41
34 24 35
39 48 55
34 29 30
38 54 38
10 10 12
36 64 73
35 35 25
13 13 15
32 37 29
31 40 40
23 18 19
41 31 43
71 44 84
20 25 21
18 23 25
38 35 27
35 35 28
74 63 46
20 15 21
10 10 12
33 38 39
32 29 69
70 83 42
81 63 40
39 32 25
8 8 10
19 15 16
6 6 8
53 33 47
12 12 14
17 22 22
19 19 15
40 75 51
42 37 31
40 35 27
9 7 25
27 39 27
18 15 16
126 88 182
19 24 26
32 25 38
20 27 27
26 24 21
31 31 24
6 6 8
13 19 14
28 25 19
22 30 25
14 18 15
24 32 25
8 8 10
24 35 35
10 10 12
17 24 26
10 10 12
14 22 14
24 32 34
23 21 21
50 46 36
58 31 25
6 6 8
51 59 36
73 42 36
41 41 29
24 14 15
43 31 45
50 33 27
17 9 12
6 4 4
15 31 23
23 15 24
41 31 31
16 10 10
2 2 4
19 12 14
16 24 17
20 37 30
14 9 10
23 29 23
64 58 70
12 15 30
24 16 17
17 26 18
15 10 17
17 11 13
21 14 29
7 11 11
8 5 6
22 15 16
29 19 22
2 2 4
30 45 23
2 2 4
14 14 9
9 6 7
25 31 32
19 15 16
7 11 7
24 16 17
42 33 44
15 15 11
106 63 72
57 35 26
30 21 18
43 18 21
8 5 33
2 3 7
36 33 44
27 26 18
12 8 14
9 14 10
41 49 53
180 82 82
75 31 59
19 32 21
16 13 13
13 20 14
8 5 7
17 26 17
25 18 15
2 2 4
9 6 7
24 32 21
52 26 31
7 11 9
18 27 38
16 24 17
21 15 27
32 52 30
15 10 11
18 14 14
54 30 40
2 2 4
31 19 16
15 23 24
2 2 2
14 22 15
2 2 4
36 38 21
34 56 42
2 2 4
31 22 26
8 14 14
2 2 4
28 21 23
9 13 15
2 2 4
79 45 45
35 43 29
13 8 10
24 19 21
9 6 7
15 12 12
49 26 22
25 15 15
18 12 12
12 8 9
2 2 4
2 2 4
39 19 27
15 23 16
21 21 26
45 34 30
21 31 33
30 35 49
2 2 4
28 19 28
9 6 7
23 29 26
25 21 16
2 2 4
9 6 7
20 17 17
7 11 11
2 2 4
9 14 11
8 5 6
5 8 9
18 17 12
11 11 8
22 25 15
2 2 4
33 25 38
19 29 21
52 58 64
68 61 24
31 29 35
48 50 38
23 20 16
33 39 40
13 7 7
7 11 7
22 15 16
35 23 22
22 15 13
18 21 21
11 7 8
14 9 7
2 2 4
2 2 4
16 11 11
9 14 16
27 21 21
2 2 4
53 21 35
2 2 4
26 15 14
16 11 9
2 2 4
189 126 126
69 50 40
37 23 34
2 2 4
6 4 4
15 12 10
106 51 49
29 37 35
21 21 18
20 20 16
75 74 47
46 65 50
26 26 17
32 26 19
31 37 19
47 72 28
9 9 11
38 27 27
43 55 40
9 9 11
11 11 13
33 39 28
25 30 17
30 30 25
9 9 11
53 44 38
20 24 26
10 10 43
7 7 9
20 27 23
22 19 18
21 21 18
11 11 13
46 33 48
28 28 22
45 28 37
52 52 39
35 30 30
201 136 201
23 23 18
27 34 21
27 21 27
28 24 16
32 32 26
9 9 11
25 25 21
7 7 9
8 8 10
74 59 47
30 30 22
9 9 11
45 65 34
76 51 41
41 45 32
10 10 12
39 27 31
10 10 12
16 16 18
21 21 19
12 12 14
16 17 15
10 10 12
10 10 12
54 54 51
12 12 14
160 160 107
74 54 29
4 4 4
14 14 16
26 26 21
59 50 59
66 84 54
32 24 34
10 10 12
10 10 12
72 61 51
32 47 44
29 32 23
4 4 19
33 25 30
10 10 12
96 80 39
32 32 26
34 41 31
32 36 26
35 26 27
40 29 33
12 12 14
8 8 10
66 59 41
10 10 12
45 41 35
36 23 31
95 93 51
54 49 25
12 12 14
12 12 14
18 18 14
27 21 22
17 23 18
108 122 67
33 37 34
14 13 34
56 49 35
93 100 60
46 52 35
6 6 8
4 4 6
14 12 36
24 19 20
52 46 39
43 37 47
13 13 15
8 8 10
21 21 20
39 30 41
31 33 22
17 16 34
32 42 44
24 24 20
31 22 33
45 57 35
13 13 15
31 24 25
210 210 210
8 8 10
22 22 18
44 33 46
29 29 32
46 29 41
50 45 33
8 8 10
78 101 37
8 8 10
13 13 15
8 8 10
42 34 31
30 34 27
73 69 53
11 11 13
41 50 38
8 8 10
88 71 62
15 15 17
36 36 30
61 37 62
84 81 63
59 61 35
15 15 17
6 6 8
14 14 38
20 20 16
22 43 27
20 24 18
20 29 20
39 56 46
44 52 40
38 55 33
15 15 17
13 13 15
27 32 22
8 8 10
13 13 15
37 33 23
28 26 32
29 30 55
19 18 32
11 11 13
50 38 28
41 44 33
69 66 47
27 27 39
69 66 48
11 11 13
6 6 8
15 15 19
35 28 37
19 34 23
4 4 6
26 34 27
11 11 13
8 8 10
11 11 13
15 15 17
11 11 13
15 15 17
13 13 15
44 31 46
58 52 35
10 10 12
73 73 53
8 8 10
19 14 15
25 37 34
39 44 26
8 8 10
10 10 12
10 10 12
32 32 24
13 13 15
40 32 38
10 10 12
10 10 12
34 34 28
24 18 16
18 26 28
48 29 27
51 24 30
17 17 19
23 23 19
21 27 29
39 31 39
25 25 20
28 25 62
57 29 52
59 59 43
36 20 20
16 13 14
23 26 44
12 12 14
10 10 12
21 17 18
41 65 36
12 12 14
36 41 51
77 83 52
19 19 19
26 23 23
29 35 35
25 32 32
8 8 10
10 10 12
22 18 19
17 22 18
10 10 12
22 29 31
16 16 18
12 12 14
26 23 23
62 82 41
53 58 40
12 12 14
74 97 56
19 23 23
28 39 39
22 22 18
39 32 40
63 68 55
10 13 15
36 26 22
24 17 16
15 15 17
14 18 13
4 4 6
11 17 18
15 11 11
15 10 11
28 42 22
16 27 27
16 17 16
18 12 14
73 36 34
82 42 26
3 3 3
23 18 16
15 10 11
2 2 4
18 14 13
97 46 44
11 8 8
2 2 4
31 38 25
37 56 46
13 9 10
30 26 27
21 18 14
40 42 33
9 14 10
55 55 38
2 2 4
48 78 40
2 2 4
9 14 11
47 32 39
37 18 25
41 41 28
45 28 31
47 50 39
12 25 24
68 101 39
2 2 4
2 2 4
16 10 11
29 26 19
36 44 36
59 46 28
11 7 8
2 2 4
16 22 16
33 23 28
43 57 45
15 10 11
11 10 19
8 8 9
16 10 11
7 11 11
14 21 21
11 11 8
210 140 140
38 17 22
41 27 28
29 52 52
14 21 18
68 30 36
24 13 12
38 21 33
37 32 32
2 2 4
23 15 17
2 2 4
2 2 4
28 14 18
168 168 168
26 35 24
26 23 24
46 24 31
62 32 26
29 23 15
27 27 15
23 20 20
0 0 0
44 29 37
29 24 24
22 42 34
16 24 16
2 2 4
44 26 25
37 25 39
11 7 9
14 9 11
39 20 19
19 9 9
2 2 4
37 20 25
13 8 9
19 30 39
2 2 4
2 2 4
35 18 29
31 25 28
2 2 4
19 23 16
61 38 53
2 2 4
119 255 89
16 10 10
34 18 18
2 2 4
32 18 13
37 26 34
29 47 36
29 19 15
30 26 33
31 11 17
17 11 13
2 2 4
12 8 9
25 38 28
11 7 9
2 2 4
10 13 14
52 26 34
21 16 14
174 171 86
2 2 4
204 204 204
2 2 4
24 20 30
21 49 28
2 2 4
26 32 20
2 2 4
19 12 16
43 25 19
21 18 18
8 5 7
2 2 4
13 11 12
34 51 40
52 52 35
28 46 34
9 6 22
2 2 4
19 14 12
2 2 4
68 115 74
34 16 23
2 2 4
136 204 204
2 2 4
6 4 5
19 17 13
2 2 4
10 16 18
21 24 25
11 16 12
41 41 52
31 37 25
21 22 33
19 16 19
19 17 13
42 65 38
103 45 83
43 37 24
12 12 14
9 9 11
38 51 39
23 26 19
5 5 7
11 11 13
79 67 63
30 30 31
25 36 27
18 18 15
47 39 36
13 13 15
12 12 14
28 25 20
11 11 13
44 40 29
9 9 11
207 207 207
31 23 32
72 47 30
23 23 19
81 127 34
52 44 25
9 9 11
54 42 37
82 66 43
11 11 13
29 34 25
17 17 15
29 33 22
80 51 62
28 21 25
22 22 14
11 11 13
24 30 18
37 33 30
2 2 4
62 66 79
7 7 9
34 33 24
135 130 65
12 12 14
58 35 42
10 10 12
26 26 20
8 8 10
25 22 19
32 32 27
15 15 12
71 86 38
10 10 12
43 37 23
45 39 37
28 25 16
62 49 44
214 214 214
6 6 8
34 26 27
26 34 29
24 24 19
14 14 16
10 10 12
8 8 10
20 20 17
12 12 14
4 4 6
10 10 12
8 8 10
12 12 14
8 8 10
12 12 14
37 31 29
46 42 44
4 4 6
30 30 24
18 19 51
23 23 16
28 28 27
45 57 30
35 36 38
24 25 25
45 55 41
46 46 36
8 8 10
13 13 15
10 10 12
44 38 29
16 16 15
48 58 43
8 8 10
17 17 19
48 45 52
39 56 48
41 38 50
51 41 46
10 10 12
29 38 40
21 21 16
49 47 48
8 8 10
8 8 10
215 215 215
46 39 33
41 51 32
6 6 8
56 47 35
34 25 36
6 6 8
52 48 46
11 11 13
18 14 15
6 6 8
41 37 30
10 10 12
41 32 31
13 13 15
50 50 35
8 8 10
44 39 34
30 23 23
11 11 13
13 13 15
47 50 44
26 26 21
15 15 17
15 15 17
17 17 19
71 41 54
43 43 32
17 17 19
11 11 13
13 13 15
6 6 8
23 32 34
76 65 56
210 210 210
15 15 17
8 8 10
29 35 37
52 35 44
55 47 37
13 13 15
8 8 10
13 13 15
37 43 43
24 18 26
26 21 21
22 28 24
48 36 50
11 11 13
65 107 70
44 29 29
29 34 37
8 8 10
50 48 37
30 23 25
4 4 6
8 8 10
8 8 10
19 17 69
32 28 24
61 53 35
10 10 13
8 8 10
37 34 27
31 20 27
8 8 10
39 30 39
8 8 10
35 30 31
18 14 15
26 32 34
15 15 17
11 11 13
13 13 15
17 17 13
6 6 8
10 10 12
40 52 29
8 8 10
8 8 10
60 68 77
75 71 60
22 30 32
10 10 12
15 15 17
39 28 41
8 8 10
212 212 212
10 10 12
10 10 12
8 8 10
28 42 40
43 32 34
35 27 37
22 26 28
17 17 19
21 27 29
64 45 36
22 26 21
12 12 14
35 26 37
33 45 28
14 12 13
14 14 15
22 17 18
8 8 10
62 90 42
28 22 23
19 26 21
12 12 14
25 25 20
24 24 21
99 110 60
14 14 16
62 62 46
15 12 13
25 25 23
6 6 8
70 82 64
14 14 16
37 34 29
19 22 25
28 41 28
38 58 37
14 14 16
41 37 29
216 216 216
26 33 27
75 75 55
34 35 28
34 25 30
10 10 12
135 200 135
40 39 50
37 44 38
94 85 57
25 35 23
39 36 34
4 4 6
34 34 24
3 3 5
5 5 7
48 41 27
24 34 21
56 71 25
57 33 67
69 38 40
49 22 20
28 33 77
14 9 14
2 2 4
2 2 13
2 2 4
57 28 35
34 20 20
1 1 3
10 15 11
14 9 11
14 9 9
14 15 24
60 52 35
2 2 4
30 20 17
2 2 4
28 26 21
31 26 26
0 0 0
27 76 23
8 8 9
16 13 11
21 11 17
243 243 162
18 20 18
14 21 15
16 28 25
0 0 0
2 2 4
23 35 37
61 39 29
5 5 7
51 44 59
2 2 4
27 18 28
17 22 14
171 171 171
48 41 18
50 61 39
117 35 58
2 2 4
52 58 32
10 16 17
9 13 13
44 25 21
21 14 15
29 23 15
9 14 16
2 2 4
20 16 13
37 19 24
36 27 16
29 40 40
45 39 25
10 16 10
5 5 6
2 2 4
24 16 15
38 26 18
18 14 14
29 24 15
16 25 18
10 16 16
25 29 21
17 25 14
2 2 4
16 11 11
17 26 28
8 12 14
2 2 4
68 40 45
153 102 70
30 17 17
2 2 4
65 43 59
35 23 37
49 38 34
9 16 21
39 32 32
30 18 41
2 2 4
18 12 13
10 10 8
26 21 21
104 156 104
127 190 127
24 30 21
18 12 13
18 21 23
20 20 15
2 2 4
34 19 14
10 15 16
13 19 20
2 2 4
13 20 22
58 30 34
23 15 13
9 6 7
133 200 200
9 6 7
2 2 4
29 46 26
2 2 4
22 23 15
2 2 4
45 30 39
28 15 22
54 35 35
6 9 7
21 11 11
35 23 18
73 43 30
14 9 10
67 45 31
19 19 19
15 10 17
20 13 10
45 20 26
26 24 19
16 12 11
18 15 13
7 5 6
26 14 14
26 11 15
15 22 22
20 38 26
74 47 33
2 2 4
2 2 4
11 19 13
31 15 18
28 15 23
19 17 13
2 2 4
2 2 4
41 22 18
2 2 4
88 87 63
2 2 4
22 17 17
36 63 25
9 6 7
40 27 42
15 15 13
44 44 168
10 10 12
9 9 11
65 89 67
22 16 18
14 14 16
21 17 15
29 32 27
5 5 7
10 10 13
22 29 19
24 32 25
5 5 7
21 21 17
13 13 15
78 83 37
25 25 21
21 21 19
32 24 25
19 15 11
11 11 13
46 27 31
11 11 13
25 25 20
21 28 25
9 9 11
38 45 30
33 40 30
6 6 8
4 4 6
7 7 9
11 11 13
27 25 28
9 9 11
19 19 15
29 39 41
5 5 8
11 11 13
6 6 8
15 12 17
13 16 9
15 15 17
56 39 31
29 29 19
23 23 19
57 54 61
6 6 8
20 27 29
7 7 9
10 10 12
29 18 16
12 12 14
21 21 18
36 36 37
17 14 40
25 19 27
6 6 8
31 39 32
65 91 75
6 6 8
48 38 29
63 48 40
10 10 12
52 45 37
18 18 16
48 25 23
19 24 24
29 29 22
41 40 33
12 12 14
54 36 45
16 16 18
19 19 16
49 35 19
26 26 19
12 11 24
26 26 20
75 65 44
44 40 51
24 24 17
60 66 43
10 10 12
28 22 23
6 6 8
36 42 48
6 6 8
12 12 14
37 29 46
27 38 43
32 35 25
26 26 20
12 12 14
8 8 10
8 8 10
10 10 12
10 10 12
15 15 17
8 8 10
29 29 24
75 96 54
10 10 12
39 41 27
26 29 24
18 18 15
33 31 26
10 10 12
13 13 15
44 26 37
22 28 24
10 10 12
114 87 75
37 41 37
91 91 73
10 10 13
17 17 15
53 41 32
72 47 58
15 15 17
45 55 36
215 215 215
22 30 21
13 13 15
35 42 35
22 28 28
53 38 32
8 8 10
8 8 10
64 44 52
45 45 30
29 29 22
11 11 13
79 59 66
44 46 55
52 46 55
37 41 25
11 11 13
44 38 26
21 16 22
68 52 42
43 49 60
210 210 210
57 63 43
13 13 15
61 51 33
13 13 15
39 23 23
70 90 53
15 15 17
72 58 83
8 8 10
8 8 10
196 132 132
53 53 189
8 8 11
43 29 35
61 70 44
23 26 17
7 7 17
41 44 35
84 48 65
15 11 15
52 48 37
11 11 13
15 15 17
49 25 39
13 13 15
49 49 184
44 67 47
10 10 12
13 13 15
165 162 64
14 14 16
41 24 30
212 212 212
13 13 15
91 52 42
114 75 76
50 54 42
27 24 19
40 57 42
14 17 17
8 8 10
44 44 34
8 8 10
58 81 49
42 37 24
8 8 10
60 50 41
167 167 113
13 13 15
13 13 15
43 51 43
23 34 34
89 52 41
25 22 27
10 10 12
21 28 22
30 46 46
13 13 15
39 58 49
46 44 52
18 23 20
19 27 21
64 43 54
31 23 33
40 71 50
16 22 17
47 68 64
20 24 19
6 6 8
10 10 12
27 21 22
48 55 37
56 71 56
18 18 20
15 15 17
26 30 23
14 14 16
24 15 20
51 37 31
155 163 111
37 26 37
28 34 34
12 12 14
4 4 6
34 34 31
18 15 37
16 16 12
16 19 20
33 25 26
208 208 208
77 49 65
18 14 20
81 79 53
45 51 38
23 33 35
24 33 25
15 15 13
45 27 37
23 17 17
10 10 12
9 9 41
56 53 31
7 7 10
22 30 23
5 5 8
4 4 6
18 18 14
25 21 17
4 4 6
28 30 20
11 7 7
82 96 58
56 68 92
22 22 12
30 40 35
16 11 18
47 40 108
20 13 22
18 35 24
4 4 4
26 26 19
55 42 31
14 14 9
20 13 12
9 6 10
130 141 100
42 24 20
15 10 16
11 16 16
12 8 9
1 1 1
13 16 16
14 9 10
14 18 11
35 19 28
57 59 64
32 30 26
197 131 131
25 16 26
205 137 205
12 18 13
24 30 24
16 11 12
23 20 23
77 47 53
43 32 22
15 23 23
20 21 23
51 35 19
55 45 56
20 30 16
30 20 21
32 22 18
41 40 30
1 1 1
2 2 4
53 78 62
61 29 50
32 21 13
2 2 4
7 7 7
9 6 7
30 21 18
14 9 10
159 106 106
31 21 22
17 29 19
2 2 4
84 40 48
14 17 10
37 44 28
10 13 8
21 14 23
21 28 14
16 24 17
33 37 39
35 26 19
38 20 25
22 36 18
35 23 37
24 26 27
28 22 27
199 90 133
2 2 4
22 33 27
2 2 4
12 19 20
30 47 37
2 2 4
30 14 14
76 39 50
32 21 31
58 86 36
11 13 9
16 22 24
55 32 23
16 9 10
19 12 43
9 12 13
2 2 4
16 9 9
13 19 21
10 16 12
45 60 70
25 25 17
37 67 43
65 65 107
19 34 25
2 2 4
19 20 15
48 29 40
55 81 78
11 7 8
2 2 4
45 46 60
19 35 23
15 10 11
2 2 4
36 24 20
27 34 35
49 50 43
11 6 6
34 41 47
9 17 11
2 2 4
2 2 4
14 11 11
2 2 4
27 18 19
2 2 4
101 137 95
31 18 18
16 21 21
40 49 47
14 21 23
53 18 22
96 51 28
42 20 28
47 60 57
2 2 4
2 2 4
15 10 10
11 17 12
2 2 10
2 2 4
144 65 65
30 24 25
57 30 40
30 18 18
181 81 120
2 2 4
8 8 8
18 9 9
24 11 16
2 2 4
26 13 14
17 17 13
2 2 4
75 50 61
27 27 17
7 7 9
10 10 12
47 59 46
8 8 10
23 31 33
43 59 37
57 82 35
18 18 16
9 9 11
206 142 98
62 38 42
41 30 43
82 83 38
86 66 37
9 10 18
20 27 21
25 23 28
22 22 19
5 5 7
71 40 41
64 53 39
13 13 11
27 20 21
9 9 11
21 21 16
35 47 50
146 108 79
52 44 68
47 36 34
46 37 29
11 11 13
52 49 42
207 207 207
71 41 38
43 41 26
53 41 32
34 40 37
27 27 22
8 8 10
9 9 11
25 30 23
74 67 47
19 19 17
19 15 20
8 8 10
26 19 21
22 22 18
20 20 17
52 43 40
7 7 9
214 214 214
10 10 12
4 4 6
20 21 20
10 10 12
28 28 22
164 164 110
10 10 12
32 26 33
10 10 12
10 10 12
19 15 21
12 12 14
22 29 28
22 30 24
46 39 33
35 39 26
29 27 32
200 200 136
19 19 17
62 52 36
6 6 8
69 38 48
52 41 31
39 39 31
33 39 31
63 52 35
14 14 16
46 26 38
43 30 45
10 10 12
10 10 12
41 35 32
12 12 14
10 10 12
29 29 27
8 8 10
57 49 86
26 20 28
40 38 44
141 208 208
114 165 165
72 44 44
38 29 34
53 40 41
55 57 68
16 16 28
11 11 13
208 208 208
12 12 15
8 8 10
49 39 47
152 143 212
166 83 166
31 35 28
13 13 15
62 62 43
8 8 10
48 40 30
11 11 13
8 8 10
11 11 13
20 24 21
8 8 10
11 11 13
11 11 13
33 44 46
25 32 33
18 28 26
47 42 32
10 10 12
77 85 60
38 34 30
36 27 38
13 13 15
15 15 17
13 13 15
46 37 27
11 11 13
10 10 22
15 18 14
14 18 15
13 13 15
11 11 13
23 23 19
8 8 10
8 8 10
15 15 17
31 38 40
20 20 22
15 15 17
27 32 34
13 13 15
47 53 35
32 32 23
33 22 24
6 6 8
42 42 28
8 8 10
61 69 62
48 38 30
33 33 24
44 56 38
11 11 13
6 6 8
8 8 10
255 132 142
10 10 13
6 6 8
23 18 19
6 6 8
50 54 62
24 22 22
85 65 76
4 4 6
50 37 52
15 15 34
15 15 17
8 8 10
49 72 41
15 15 17
91 106 65
52 58 36
13 13 15
10 10 12
37 26 39
10 10 13
15 15 17
44 55 29
13 13 15
6 6 8
41 27 37
68 55 37
23 19 19
6 6 8
10 10 12
31 41 42
15 15 17
11 11 13
23 23 20
28 39 42
10 10 12
43 64 87
21 20 27
94 95 57
18 23 25
23 32 24
36 30 44
31 44 41
30 37 39
44 47 27
10 10 12
20 28 29
10 10 12
12 12 14
10 10 12
28 39 30
8 8 10
26 22 20
8 8 10
28 41 30
72 63 45
25 39 35
27 42 30
53 39 35
70 61 43
10 10 18
29 38 35
214 214 214
10 10 12
41 25 29
67 48 38
12 12 21
32 24 28
54 45 54
18 18 16
12 12 14
6 6 8
9 9 11
34 40 31
15 12 13
9 9 11
43 58 34
17 13 13
23 27 24
28 40 40
14 14 16
43 37 33
42 45 23
23 29 21
24 26 21
14 14 16
44 18 29
28 28 36
5 5 7
8 8 8
4 4 6
24 26 20
5 5 7
24 16 13
27 27 20
15 20 20
16 22 14
28 18 29
2 2 4
24 12 16
61 34 57
41 43 25
31 31 40
42 47 31
2 2 4
193 129 129
10 15 16
15 13 13
12 10 8
18 12 13
21 14 23
2 2 4
0 0 0
8 8 6
37 49 55
2 2 4
2 2 4
135 74 100
24 24 17
24 19 24
60 36 38
19 29 31
19 29 31
45 57 31
21 14 12
15 10 11
109 115 77
41 42 22
6 6 7
45 32 18
2 2 4
37 32 41
23 18 23
27 18 19
40 40 28
25 25 18
36 20 39
30 23 17
168 112 112
33 22 21
22 20 31
13 19 13
2 2 4
67 64 60
42 39 25
26 20 26
2 2 4
26 22 27
32 15 28
25 24 27
24 34 138
13 8 8
143 137 137
2 2 4
11 17 19
33 50 40
45 67 30
108 41 63
8 5 5
2 2 4
141 149 99
2 2 4
31 34 46
30 49 50
13 9 15
34 23 39
33 30 30
2 2 4
35 17 15
2 2 4
19 19 14
37 25 31
2 2 4
39 59 31
13 9 15
31 47 29
10 20 13
28 16 16
10 6 7
3 3 4
15 10 10
2 2 4
39 58 48
37 25 22
13 8 9
18 15 15
135 203 203
19 29 27
40 61 48
10 6 6
14 9 10
192 128 128
116 57 32
12 8 9
2 2 4
49 26 32
2 2 4
2 2 4
37 15 24
86 79 47
2 2 4
50 31 24
57 64 27
2 2 4
73 30 44
182 121 83
15 27 24
2 2 4
12 8 8
18 15 15
75 60 65
34 22 35
8 5 5
18 27 19
43 24 34
8 12 9
35 19 30
62 45 33
16 13 13
33 26 27
32 19 18
69 33 40
2 2 4
2 2 4
7 5 6
28 55 45
19 29 30
17 17 12
44 21 26
40 33 38
2 2 4
37 19 36
3 3 5
7 4 5
2 2 4
29 37 25
16 24 17
32 21 18
50 15 18
25 28 29
23 18 23
35 21 24
11 11 13
98 64 51
209 209 209
47 56 28
52 59 45
10 10 12
26 19 19
26 18 19
19 19 17
14 14 17
18 18 16
14 14 16
30 30 22
84 46 35
14 13 24
28 34 21
22 31 43
33 24 17
34 34 23
57 40 26
50 66 50
69 95 44
7 7 9
28 35 37
41 33 25
3 3 5
40 29 30
51 60 38
78 45 40
53 57 36
86 63 35
2 2 4
9 9 11
7 7 9
65 37 34
41 46 41
15 15 12
17 17 15
21 21 17
38 32 23
6 6 8
29 25 19
10 10 12
27 22 49
52 60 50
8 8 10
20 25 65
39 34 25
86 64 60
30 37 22
19 25 27
28 42 31
10 10 12
18 18 14
8 8 10
45 41 19
22 16 24
47 38 33
66 69 45
12 12 14
72 58 42
35 29 25
23 23 17
40 30 31
30 28 38
8 8 10
208 208 208
12 12 14
46 78 57
55 52 33
10 10 12
27 27 22
45 45 29
49 47 47
10 10 12
29 45 40
25 31 33
12 12 14
6 6 8
8 8 10
63 56 40
36 26 37
8 8 10
212 212 212
10 10 12
63 45 99
75 66 48
12 12 14
19 26 21
17 21 23
24 19 21
19 19 17
43 33 44
26 33 27
22 22 19
44 66 30
8 8 10
8 8 10
34 34 26
15 15 17
206 206 140
50 50 38
10 10 12
12 12 26
18 22 24
71 64 46
210 210 210
122 163 71
46 51 34
27 33 35
25 25 19
83 56 83
39 39 32
4 4 6
20 25 21
36 24 28
84 60 69
44 61 48
10 10 12
76 64 45
8 8 10
52 41 46
63 45 59
19 19 14
60 49 37
72 72 53
36 31 25
64 54 36
35 29 35
6 6 8
13 13 15
11 11 13
171 122 82
8 8 10
4 4 6
13 13 15
208 208 208
30 45 35
26 36 26
8 8 10
34 24 36
46 38 29
8 8 10
21 21 17
210 210 210
8 8 10
28 23 23
8 8 10
17 21 23
15 15 17
20 16 21
47 27 32
6 6 8
25 37 30
35 52 32
58 53 49
11 11 13
13 13 15
43 41 49
13 13 15
43 37 52
19 19 17
11 11 13
34 22 34
66 46 54
39 74 60
23 31 24
62 46 62
48 41 31
19 16 21
8 8 10
33 58 86
38 31 40
28 36 28
58 83 67
11 11 13
10 10 13
44 58 36
41 46 43
18 13 15
17 16 14
24 24 19
54 34 45
24 32 32
19 17 17
8 8 10
60 43 48
61 36 42
11 11 13
41 47 35
47 40 29
6 6 8
60 56 36
47 55 40
210 210 210
8 8 10
4 4 6
28 37 39
12 12 24
13 13 15
46 53 34
74 53 88
15 15 17
23 28 28
13 13 15
30 22 32
13 11 11
17 14 15
47 35 49
2 2 4
55 47 62
228 112 159
33 29 24
30 27 24
42 47 42
12 12 12
4 4 6
16 16 18
29 29 23
28 31 22
8 8 10
31 24 21
56 44 39
12 12 14
23 23 19
56 30 53
16 20 22
20 20 16
37 51 52
21 20 19
21 21 17
59 59 43
23 19 25
212 212 212
89 58 45
12 12 14
10 10 12
65 75 46
10 10 12
44 51 45
8 8 10
8 8 10
41 29 42
50 29 34
41 31 42
56 30 39
7 7 9
24 19 20
28 41 35
25 33 34
13 9 9
79 33 41
45 41 39
34 27 19
2 2 4
20 17 27
21 15 12
2 2 4
10 7 12
24 16 26
34 55 44
32 32 17
20 12 9
32 43 36
2 2 4
36 24 21
57 85 39
39 31 20
19 25 43
2 2 4
21 21 15
2 2 4
19 21 24
4 4 6
15 11 11
30 29 24
10 15 17
50 63 60
36 20 28
27 19 27
53 35 27
11 7 9
17 17 12
9 14 10
40 19 27
2 2 4
13 22 11
2 2 4
47 47 50
13 11 11
38 57 42
19 14 14
36 36 25
23 15 16
38 61 41
20 13 14
6 4 4
48 56 52
13 19 13
131 197 197
18 33 23
68 36 40
78 65 69
12 15 10
27 32 32
38 19 25
37 34 38
10 16 17
53 50 28
2 2 4
12 8 9
15 10 11
41 31 31
35 51 28
47 27 31
2 2 4
14 8 8
27 18 29
19 16 13
16 8 8
31 20 27
40 63 28
2 2 4
11 7 9
2 2 4
50 26 34
30 28 23
15 16 17
23 31 18
8 12 9
22 35 21
43 31 23
9 6 6
56 39 38
2 2 4
15 11 9
27 38 25
39 29 22
72 84 64
2 2 4
37 26 21
16 10 10
2 2 4
18 35 31
2 2 4
51 82 40
36 20 25
2 2 4
49 51 33
10 7 8
198 132 132
30 41 41
44 29 35
17 20 14
68 82 33
2 2 4
23 20 19
15 12 10
38 23 25
155 103 103
20 13 14
8 5 6
16 25 17
97 26 42
2 2 4
13 13 10
36 58 40
15 23 25
38 25 19
26 14 21
46 27 40
8 5 6
17 14 11
204 204 204
33 22 23
38 28 19
61 31 20
35 50 41
19 12 9
29 23 15
59 83 102
24 14 13
2 2 4
33 44 36
18 36 28
11 7 8
19 32 16
56 34 27
14 8 8
63 35 44
41 26 26
2 2 4
46 64 38
21 17 12
27 41 33
25 48 44
21 16 16
71 47 35
2 2 4
134 201 134
47 39 30
19 19 17
25 25 20
45 45 26
9 9 11
13 13 11
18 18 14
11 11 25
18 18 16
9 9 11
11 11 13
44 47 52
13 13 15
53 70 41
56 78 28
11 11 13
48 38 30
7 7 9
37 25 33
21 21 18
20 20 17
41 30 43
9 9 11
9 9 11
34 28 22
69 68 33
67 57 51
34 26 36
36 36 27
45 51 37
35 25 18
35 30 24
7 7 9
11 11 13
35 47 39
5 5 7
24 24 16
11 11 13
203 203 138
41 41 33
42 62 27
21 21 17
9 9 12
5 5 7
142 71 61
9 9 12
11 11 14
31 31 24
64 66 46
37 26 38
4 4 6
35 25 25
24 24 18
36 36 28
36 36 22
10 10 12
12 12 14
10 10 12
39 48 54
71 45 52
64 45 36
12 12 14
6 6 8
6 6 8
14 14 16
8 8 10
71 54 40
8 8 10
6 6 8
8 8 10
8 8 15
30 30 24
14 14 16
130 95 70
36 48 33
205 102 104
208 208 208
52 62 34
15 18 20
38 38 28
14 14 16
12 12 14
33 33 25
41 49 59
6 6 8
59 49 43
78 39 51
40 29 30
66 66 49
4 4 6
12 12 14
38 28 39
10 10 12
25 25 21
79 58 35
26 26 22
13 13 15
47 32 23
8 8 15
25 22 22
36 29 22
27 27 20
34 24 25
17 17 19
15 15 31
13 13 15
8 8 10
67 115 76
13 13 15
53 42 35
40 37 34
217 217 217
206 206 206
210 210 210
10 10 13
8 8 10
19 27 20
59 42 34
10 10 12
15 15 17
10 10 13
48 33 45
10 10 12
43 90 72
15 15 17
66 42 51
15 15 17
13 13 15
78 43 57
4 4 6
6 6 8
13 13 15
6 6 8
74 37 54
20 20 22
27 30 23
35 55 39
8 8 10
32 40 24
13 13 15
30 26 36
6 6 8
13 13 15
19 19 17
26 20 28
59 46 56
11 11 13
15 15 17
8 8 10
13 13 15
22 18 19
18 18 15
64 72 59
6 6 8
13 13 15
215 215 215
32 43 45
13 13 15
19 25 20
15 15 17
84 59 74
37 37 31
13 13 15
10 10 13
42 71 49
21 20 41
27 21 28
13 13 15
25 17 26
17 17 19
210 210 210
51 36 52
8 8 10
53 57 37
11 11 13
42 42 29
12 12 15
38 59 65
33 27 27
45 54 47
34 30 34
35 39 48
11 11 13
74 66 55
28 34 22
21 15 23
26 21 22
27 22 23
38 54 32
37 30 43
4 4 6
23 29 29
37 37 29
10 10 12
8 8 10
47 43 39
8 8 10
10 10 12
46 59 34
25 41 41
32 21 21
35 62 29
26 22 63
20 34 34
211 144 211
12 12 14
21 29 31
36 31 23
30 24 21
14 14 16
36 25 38
22 30 22
88 75 32
12 12 14
41 53 48
32 40 28
44 51 31
25 30 32
12 12 14
25 18 18
20 25 22
18 13 20
61 43 48
67 51 34
11 14 11
47 47 36
27 37 37
207 141 141
30 26 26
8 8 10
22 16 17
4 4 6
38 21 25
10 10 12
52 40 29
44 25 37
12 12 14
8 8 10
22 26 23
54 70 42
38 42 30
227 234 164
26 37 39
33 52 40
44 56 33
46 58 62
28 20 22
85 67 44
160 108 115
3 3 5
11 7 11
16 16 14
73 56 40
23 23 17
43 52 26
18 14 14
41 37 33
6 4 4
2 2 4
31 50 25
33 22 16
2 2 4
2 2 4
2 2 4
14 9 11
6 10 6
47 61 37
25 16 27
16 20 13
29 32 39
13 8 8
20 14 20
19 35 19
16 25 27
2 2 4
16 11 12
24 37 21
35 66 47
24 17 15
23 15 16
51 29 23
32 38 21
109 55 83
36 18 26
13 19 14
31 21 33
32 61 55
18 16 17
24 32 23
21 21 15
24 16 12
13 20 14
7 10 12
41 51 33
40 28 42
34 21 19
24 12 16
65 56 38
61 40 21
204 204 204
13 16 16
17 13 22
101 97 55
2 2 4
2 2 4
18 29 16
21 14 22
14 8 10
18 30 27
2 2 4
17 11 9
48 35 29
2 2 4
16 10 11
26 34 20
75 29 46
36 59 41
38 34 45
8 12 14
30 30 18
18 15 13
20 30 32
23 13 13
28 18 15
33 18 25
18 27 29
45 46 34
42 33 35
6 9 11
26 34 39
15 23 20
17 11 12
18 32 27
2 2 4
2 2 4
2 2 4
82 75 48
13 13 8
35 51 48
72 52 39
159 54 74
23 14 13
11 17 19
38 57 63
37 21 25
5 8 7
2 2 4
18 13 18
50 36 34
27 14 14
17 26 13
19 13 21
13 9 9
22 17 17
0 0 0
10 6 7
39 22 35
2 2 4
2 2 4
36 24 30
13 20 22
18 18 13
41 32 39
15 15 11
27 18 19
29 17 17
21 21 21
2 2 4
27 18 19
20 26 31
25 18 20
26 18 14
37 16 23
21 14 10
27 45 22
2 2 4
1 1 3
13 7 7
36 19 25
2 2 4
21 16 14
29 23 23
35 17 14
16 9 9
2 2 4
28 13 13
11 7 8
21 9 9
2 2 4
24 13 12
20 36 44
14 9 11
2 2 4
15 7 6
24 14 16
2 2 4
14 22 24
16 24 17
11 6 12
23 15 13
29 55 45
46 39 29
53 42 28
24 28 36
11 11 13
19 19 18
11 11 13
32 49 37
30 22 28
16 16 14
13 13 10
9 9 11
16 16 14
34 24 34
48 60 23
56 53 40
53 98 51
15 15 13
38 27 27
122 179 84
9 9 11
9 9 11
205 205 205
27 27 23
41 36 29
53 53 37
16 16 14
16 22 22
13 13 15
7 7 9
83 61 45
34 31 24
31 31 24
24 24 19
46 58 39
8 8 10
8 8 10
10 10 12
28 28 22
8 8 10
40 61 52
29 34 25
32 26 21
40 29 30
37 34 41
22 30 23
8 8 10
12 12 14
6 6 11
12 12 14
59 37 39
73 49 39
25 36 30
45 30 26
116 168 168
74 92 44
23 23 19
53 61 39
42 48 35
30 23 24
8 8 10
44 36 36
47 91 39
8 8 10
66 84 43
10 10 12
10 10 12
14 14 16
18 23 19
30 37 28
33 26 35
10 10 12
14 14 16
10 10 12
6 6 8
6 6 8
61 41 52
6 6 8
37 47 37
17 17 19
90 45 70
10 10 12
29 29 24
77 130 88
79 54 44
19 15 20
36 40 37
30 33 25
56 72 64
54 60 66
6 6 8
8 8 20
26 19 19
6 6 8
12 12 14
46 37 28
21 16 17
13 13 15
10 10 12
34 43 31
27 37 39
18 22 24
8 8 10
55 60 33
8 8 10
212 212 212
31 37 28
21 29 30
108 49 53
40 56 44
82 61 56
60 52 67
54 103 52
4 4 6
17 17 19
17 13 19
36 32 26
38 47 38
8 8 10
24 31 33
60 61 44
62 94 45
11 11 13
16 20 17
10 10 13
16 21 17
8 8 10
30 22 23
8 8 10
6 6 8
11 11 13
20 20 22
15 15 17
13 13 15
40 30 31
53 36 46
37 38 42
13 13 15
77 54 44
6 6 8
32 42 24
138 205 138
48 56 36
15 15 17
40 53 40
24 26 27
29 49 49
210 210 210
29 38 43
13 13 15
99 104 54
6 6 8
14 18 20
35 63 42
44 47 29
11 11 13
56 42 49
8 8 10
45 45 34
54 54 39
74 57 41
15 15 17
15 15 17
118 166 113
16 16 16
13 13 15
8 8 10
206 206 142
37 27 39
8 8 10
48 55 40
57 34 47
30 38 31
212 212 212
42 24 43
39 39 41
35 40 21
31 27 24
40 41 45
28 36 38
30 30 23
32 32 26
31 31 25
8 8 10
11 11 13
13 13 15
15 15 17
10 10 12
6 6 8
12 12 14
36 25 36
8 8 10
95 141 127
10 10 12
22 17 17
18 18 15
65 46 44
102 59 62
28 22 20
8 8 10
72 98 76
43 50 26
8 8 10
4 4 6
10 10 12
8 8 10
39 35 27
56 56 42
17 17 19
99 203 145
8 8 10
14 14 16
28 34 24
55 33 48
15 15 17
52 52 34
17 21 18
39 35 31
8 8 10
58 72 58
18 16 17
31 25 25
25 18 27
12 9 27
45 34 47
24 28 22
33 27 35
12 12 14
6 6 8
78 78 55
41 25 35
4 4 6
53 61 44
10 10 12
8 8 10
10 10 11
8 8 10
62 42 30
33 39 39
19 15 16
28 39 24
61 29 32
8 8 10
37 63 38
12 12 14
61 68 39
39 39 30
61 70 52
67 39 62
21 15 13
16 20 20
15 23 25
62 35 42
5 5 8
162 108 162
20 14 11
32 22 19
32 38 28
23 29 21
41 57 23
46 25 27
2 2 4
39 28 25
25 44 41
19 15 19
41 41 29
38 32 21
28 45 32
21 31 31
23 51 48
9 6 7
22 44 21
13 8 10
110 74 61
17 14 10
5 7 7
6 6 8
10 6 8
23 19 52
16 25 18
8 5 5
12 12 29
11 11 13
44 34 24
62 43 79
21 21 15
30 45 20
45 31 47
44 47 27
8 13 8
86 62 49
6 10 11
31 36 29
62 32 36
55 36 27
81 88 57
42 34 31
28 13 17
36 30 41
2 2 4
12 18 13
10 6 8
88 34 24
18 13 18
18 12 13
42 15 25
30 16 22
12 8 13
62 33 53
2 2 4
55 37 47
9 7 9
2 2 4
47 17 21
29 25 19
42 40 44
2 2 4
25 16 18
12 10 51
36 20 20
27 19 19
2 2 4
7 11 13
13 20 22
2 2 4
2 2 4
49 29 27
27 32 17
2 2 4
2 2 4
31 33 19
47 42 52
26 34 23
17 9 9
30 37 21
2 2 4
50 23 23
2 2 4
19 12 12
51 43 53
22 13 13
2 2 4
46 65 49
75 53 67
2 2 4
35 35 25
41 41 47
5 5 7
13 8 9
2 2 4
22 14 16
5 8 6
2 2 4
9 9 7
19 37 24
39 21 21
2 2 4
8 8 11
17 50 20
29 54 50
13 7 7
17 23 22
74 66 59
2 2 4
25 25 18
7 5 6
34 20 17
2 2 4
40 24 22
9 6 7
8 5 6
52 33 62
15 13 12
2 2 4
43 54 25
11 7 8
2 2 4
13 11 8
2 2 4
52 72 34
23 15 17
90 57 43
107 38 53
213 69 99
2 2 4
25 13 18
16 8 8
30 20 53
10 6 7
17 25 18
2 2 4
2 2 4
13 7 9
6 4 5
37 25 19
2 2 4
2 2 4
39 32 21
14 16 16
122 83 83
28 25 22
9 9 11
14 14 16
46 34 32
51 35 52
60 116 64
38 29 28
45 32 60
7 7 9
25 25 20
11 11 13
18 22 19
19 19 18
27 27 23
21 21 19
9 9 11
34 44 35
25 25 21
17 17 15
5 5 7
56 55 72
18 18 16
33 33 27
41 69 33
9 9 11
74 54 42
11 11 13
11 11 13
7 7 10
72 59 55
36 42 26
41 31 44
35 42 24
28 28 22
43 34 47
42 29 44
6 6 8
57 32 42
7 7 9
58 52 40
16 16 35
21 21 19
84 55 50
7 7 9
208 208 208
7 7 10
63 39 37
13 13 15
12 12 14
14 14 16
21 26 41
22 22 19
32 24 33
28 30 31
33 45 32
12 12 14
29 33 19
19 19 57
12 12 14
12 12 14
18 18 17
10 10 12
49 41 31
48 61 32
39 30 44
31 45 35
12 12 14
16 14 42
29 29 25
33 31 27
8 8 10
15 21 16
65 29 60
10 10 12
59 66 38
29 25 16
25 14 21
12 12 14
10 10 12
25 34 34
8 8 10
6 6 8
12 12 14
46 34 29
212 212 212
15 15 17
12 12 14
12 12 14
6 6 8
50 38 46
10 10 12
36 27 38
15 15 17
25 22 18
15 15 17
22 19 15
8 8 10
216 147 216
13 13 15
36 58 46
205 139 205
11 11 13
41 35 21
12 14 13
15 15 17
58 89 93
212 212 212
41 32 41
8 8 10
27 27 21
55 41 68
213 213 213
8 8 10
6 6 8
8 8 10
21 29 21
58 64 46
128 175 91
18 15 16
27 21 30
13 13 15
24 24 21
54 46 33
10 10 12
34 21 28
46 57 35
49 30 41
49 49 36
10 10 12
43 80 66
30 21 30
46 40 41
44 44 33
60 48 31
49 44 59
11 11 13
27 27 21
35 24 32
23 19 25
56 65 40
11 11 13
206 142 206
17 13 14
8 8 10
51 70 39
13 13 15
48 39 57
49 49 32
80 76 62
78 50 45
125 142 157
127 104 190
27 36 29
13 13 15
34 52 45
30 20 25
35 25 29
58 59 75
42 53 70
15 15 17
13 17 19
21 21 17
38 35 37
13 13 15
37 28 39
139 205 205
20 29 21
59 59 45
29 34 34
13 13 15
22 22 18
8 8 10
10 10 13
77 45 34
71 57 40
54 74 62
10 10 12
59 59 43
25 25 20
6 6 8
22 20 18
8 8 10
57 34 57
210 210 210
4 4 4
26 29 23
8 8 10
97 70 55
11 15 11
10 10 12
10 10 13
6 6 8
34 29 26
107 103 60
53 39 53
17 14 16
214 214 214
25 35 22
59 53 38
43 50 50
15 15 17
6 6 8
53 40 34
57 65 72
19 19 21
14 16 27
10 10 12
13 13 15
22 22 19
36 36 26
14 17 14
63 39 31
10 10 12
84 50 36
10 10 12
71 55 50
4 4 6
27 22 27
12 12 14
8 8 10
14 14 16
45 44 38
22 30 31
210 210 210
20 16 21
6 6 8
16 16 18
74 57 51
10 10 12
12 12 14
17 17 18
22 25 50
44 44 26
30 17 21
62 59 42
30 18 17
10 10 12
30 21 22
78 45 47
14 14 16
23 27 19
31 43 37
21 28 22
34 46 46
53 39 50
32 23 30
16 19 21
33 40 34
34 40 34
12 12 12
49 33 29
130 82 58
35 21 27
31 35 35
35 20 17
2 2 4
14 9 10
53 49 43
88 76 45
18 11 13
45 22 28
2 2 4
2 2 4
33 24 16
2 2 4
40 26 42
45 42 33
110 93 73
6 6 8
28 25 16
29 33 33
19 16 14
72 56 63
45 50 40
14 21 15
52 27 34
15 10 11
2 2 4
24 24 31
2 2 4
27 18 13
62 55 34
2 2 4
37 24 19
33 20 20
42 38 28
52 44 61
56 27 52
29 17 17
22 52 52
12 8 8
21 36 36
25 20 16
19 29 20
24 30 24
46 26 31
57 57 39
32 40 24
2 2 4
34 26 17
70 31 39
2 2 4
39 53 45
28 34 28
12 19 20
2 2 4
127 190 127
2 2 4
15 22 20
18 12 20
46 35 40
44 26 29
9 13 10
9 11 25
13 7 7
85 29 36
21 25 19
14 9 10
2 2 4
17 25 27
155 109 113
20 23 21
2 2 4
2 2 4
2 2 4
2 2 4
18 12 13
31 29 19
10 13 9
43 37 25
21 14 14
9 6 7
30 42 21
36 36 54
52 39 29
19 9 9
17 28 26
2 2 4
5 5 7
14 8 8
3 3 3
2 2 4
17 25 18
11 7 8
11 7 7
25 18 27
49 23 29
7 5 6
23 26 23
35 27 42
66 40 31
149 207 99
2 2 4
74 35 39
2 2 4
1 1 3
44 17 19
2 2 4
29 28 15
10 7 7
25 16 12
28 31 33
56 21 25
27 33 18
14 13 9
2 2 4
13 17 13
9 6 7
30 33 28
25 17 18
2 2 4
2 2 4
2 2 4
14 9 10
32 49 22
2 2 4
12 10 10
8 5 7
25 20 15
14 9 9
31 32 44
40 30 34
11 17 13
29 17 21
29 21 17
34 23 36
14 9 10
29 48 32
16 9 9
8 5 7
10 13 13
11 6 6
29 13 17
9 6 7
32 32 37
10 7 8
30 16 20
2 2 4
28 23 14
8 13 15
27 23 18
7 7 9
148 60 68
12 12 15
12 12 15
22 20 15
103 85 51
50 66 32
7 7 9
11 11 13
11 11 13
24 26 17
133 197 133
9 9 11
17 17 16
55 44 39
29 29 25
15 15 17
88 62 72
25 31 20
18 25 22
20 20 16
175 253 84
171 171 117
23 20 17
34 30 22
5 5 8
121 90 66
21 21 17
17 17 16
28 19 25
23 23 20
26 24 18
39 45 45
66 37 37
5 5 8
38 40 30
8 8 10
9 9 11
44 49 26
203 139 139
18 19 21
213 213 213
39 28 25
66 49 42
12 12 14
21 21 18
206 206 206
32 24 33
26 22 18
43 60 48
25 25 21
106 55 74
50 59 52
12 12 14
5 5 6
4 4 6
55 52 42
38 53 30
24 24 18
14 17 17
30 30 25
36 47 42
15 19 21
87 44 40
12 12 14
92 189 91
27 36 28
12 12 14
35 29 25
44 60 50
59 62 66
72 43 46
17 17 15
30 23 24
12 12 14
29 20 43
129 190 91
14 14 16
31 24 25
10 10 12
28 43 43
44 52 63
52 36 47
39 35 25
16 16 15
10 10 12
8 8 10
50 36 33
15 15 17
13 13 15
26 29 30
8 8 10
48 40 31
8 8 10
12 12 14
20 29 29
41 37 28
32 32 24
41 55 33
8 8 10
35 20 20
8 8 10
23 17 24
79 63 65
52 61 30
28 35 29
62 46 61
26 20 28
18 22 22
32 32 26
10 10 12
10 11 35
28 28 23
13 13 15
63 62 48
38 42 29
201 141 97
76 66 55
37 48 25
33 39 29
11 11 11
44 32 44
17 17 19
33 39 40
23 23 19
161 161 109
35 48 43
57 51 35
11 11 13
49 52 83
28 33 21
6 6 8
11 11 13
26 26 21
65 52 41
33 33 26
27 21 23
39 39 28
10 10 12
20 26 18
29 35 37
38 54 39
30 39 31
15 15 17
11 11 13
27 22 29
11 11 13
13 13 15
80 75 43
23 31 25
23 31 33
11 11 13
11 11 13
19 24 20
29 37 30
86 63 38
15 15 17
23 30 31
10 10 12
13 13 15
52 45 32
83 60 161
32 22 32
52 59 64
30 24 32
11 11 13
10 10 12
28 25 17
44 57 38
49 49 38
56 48 41
34 36 26
199 135 135
60 62 48
38 38 29
79 52 64
15 15 17
210 210 210
26 20 26
59 32 39
15 15 17
28 22 36
53 45 32
6 6 8
11 11 13
21 26 28
18 24 19
25 22 19
29 23 25
17 17 19
13 13 15
17 18 38
6 6 8
118 92 86
29 37 39
10 10 13
64 52 36
65 60 37
210 210 210
36 32 20
24 24 21
20 24 17
45 58 49
108 60 46
156 164 163
35 35 27
212 212 212
30 38 31
30 28 50
51 46 32
10 10 12
4 4 6
10 10 11
40 29 26
33 28 36
15 15 17
19 19 21
6 6 8
44 46 30
25 32 32
12 12 14
20 23 23
10 10 12
51 37 31
68 60 59
16 16 18
14 17 14
53 41 63
38 72 41
37 31 32
23 21 36
22 17 19
24 24 21
36 36 27
17 14 15
29 31 23
48 28 21
47 30 39
23 25 18
8 8 10
41 38 33
51 40 57
72 74 49
19 13 14
18 12 20
19 17 18
23 32 24
2 2 4
18 13 18
8 6 6
4 4 6
25 13 17
2 2 4
17 11 17
18 26 19
36 54 35
33 56 83
13 20 22
71 35 37
28 20 26
9 6 7
30 24 27
62 23 29
56 47 32
6 4 19
12 8 9
13 9 10
4 4 19
82 38 52
25 30 31
15 15 15
14 18 13
4 7 21
26 22 19
37 24 33
27 23 16
7 12 12
31 55 57
18 22 23
10 7 7
26 47 30
32 24 21
13 8 17
88 56 43
193 128 128
31 21 22
11 7 8
2 2 4
17 9 11
24 14 17
40 23 23
23 33 24
20 13 13
17 14 14
15 23 25
13 19 21
34 21 18
137 205 144
22 14 15
19 29 31
10 6 7
14 23 35
12 8 14
13 9 15
35 35 21
22 12 14
2 2 2
8 8 9
14 10 16
31 17 22
31 20 22
19 10 30
90 62 44
2 2 4
5 3 3
6 9 6
32 16 22
21 14 15
35 19 30
21 31 33
2 2 4
18 13 13
49 20 26
196 65 93
40 23 22
32 24 22
15 8 10
22 38 38
38 25 40
12 12 9
2 2 4
14 11 9
26 12 15
24 34 41
2 2 4
34 44 41
34 33 25
25 21 26
2 2 4
32 29 25
18 27 21
11 17 17
23 23 16
14 28 14
11 7 9
25 33 40
14 12 9
10 7 8
29 15 17
13 9 10
82 59 41
2 2 4
50 29 33
2 2 4
38 19 16
2 2 4
38 25 36
32 28 21
17 17 13
2 2 4
2 2 4
14 8 8
37 40 44
33 16 22
9 14 10
2 2 4
42 25 32
51 41 35
25 17 18
2 2 4
15 22 16
20 13 14
45 36 54
10 6 8
16 24 26
9 6 7
32 52 25
2 2 4
2 2 4
2 2 4
16 14 14
8 5 6
39 63 29
2 2 4
11 7 8
202 135 135
2 2 4
2 2 4
22 14 34
2 2 4
2 2 4
12 7 7
34 52 32
10 7 8
2 2 4
6 4 4
28 25 23
21 11 15
25 31 51
78 39 47
24 34 21
192 134 93
11 11 13
16 16 14
9 9 11
5 5 7
12 12 15
76 58 65
11 11 13
213 213 213
52 45 35
18 18 16
44 35 26
63 47 90
11 11 13
18 25 24
20 20 17
32 38 25
30 37 26
71 43 41
15 15 17
48 63 30
13 11 29
24 21 28
5 5 7
11 11 13
64 64 33
213 213 213
15 15 17
46 42 35
49 39 32
6 6 8
24 27 22
56 51 53
17 17 14
18 18 14
28 37 29
10 10 12
24 24 21
12 12 14
89 70 38
23 23 20
31 27 24
27 23 20
33 33 22
40 45 48
12 12 14
43 46 75
12 12 14
212 212 212
8 8 18
8 8 10
19 27 29
12 12 14
18 18 15
83 75 55
50 50 38
37 36 50
214 214 214
12 12 14
52 64 43
32 23 28
6 6 8
12 12 14
28 39 18
77 47 53
14 14 16
37 37 26
61 72 36
11 12 39
10 10 12
77 63 49
30 24 20
33 50 46
81 63 49
79 42 47
16 23 17
212 212 212
28 28 24
24 17 20
38 29 40
54 54 40
26 23 19
12 12 14
12 12 14
8 8 10
6 6 8
4 4 6
27 27 22
49 28 40
17 17 19
8 8 10
13 13 15
28 28 23
8 8 10
20 29 22
49 37 51
80 62 41
15 15 17
40 35 39
39 39 31
48 41 30
38 38 29
20 24 26
6 6 8
54 108 58
15 15 17
51 78 48
36 47 49
12 12 14
36 27 40
13 13 15
23 32 21
32 30 37
13 13 15
62 73 47
15 15 17
8 8 10
31 51 45
8 8 10
4 4 6
61 45 38
36 38 25
27 21 18
10 10 13
8 8 10
48 27 172
15 15 17
75 45 52
29 29 23
21 16 17
15 15 17
13 13 15
11 11 13
50 50 36
33 19 27
11 10 10
3 3 13
13 13 15
56 36 53
29 39 41
18 18 20
15 15 17
13 13 15
11 11 13
13 13 15
39 38 41
13 13 15
8 8 10
11 11 13
37 42 38
4 4 6
7 7 9
36 42 52
214 214 147
15 15 17
13 13 15
13 13 15
67 88 54
71 35 44
217 217 217
44 42 38
71 49 60
16 22 16
17 17 19
6 6 8
8 8 10
47 28 40
26 46 42
36 36 29
10 10 13
23 29 29
4 4 6
52 48 34
47 40 55
12 12 14
12 10 11
18 23 23
215 215 215
24 32 34
65 39 46
44 50 33
6 6 8
30 23 25
24 24 20
52 42 45
15 15 17
11 11 13
58 58 43
29 48 24
8 8 10
119 75 46
45 62 54
81 118 71
6 6 8
10 10 12
42 39 50
25 18 18
15 15 17
35 41 26
39 46 23
57 62 76
41 30 25
24 17 26
170 170 170
10 10 12
10 10 12
13 13 15
212 212 212
21 27 22
55 55 41
17 14 17
41 41 33
46 45 40
181 181 123
45 37 29
12 12 14
54 68 38
24 32 33
14 14 16
32 27 23
38 42 28
63 30 34
4 4 6
30 20 28
25 24 24
210 210 210
14 14 16
15 22 22
19 24 25
17 17 14
35 29 25
63 41 48
8 8 10
12 12 14
30 48 37
69 58 45
10 10 12
111 142 101
64 59 111
54 62 40
18 15 16
31 36 42
31 33 27
32 43 58
52 33 40
29 17 22
38 56 43
3 3 6
2 2 4
13 18 20
2 2 4
3 3 6
63 87 43
28 19 28
54 29 19
60 53 27
42 45 33
21 36 26
22 10 10
27 18 27
24 32 21
2 2 4
92 64 36
36 36 49
20 13 10
20 10 17
18 12 12
31 21 21
2 2 4
29 30 30
2 2 4
63 52 36
2 2 4
20 31 22
31 38 39
25 38 26
11 10 52
2 2 4
49 57 23
2 2 4
98 82 57
38 58 30
25 21 17
45 41 39
10 16 12
17 11 19
13 8 15
190 190 127
2 2 4
10 7 8
19 14 14
52 29 29
18 14 15
2 2 4
20 33 20
19 27 18
56 30 33
49 27 32
19 15 15
17 20 20
36 16 16
54 38 32
2 2 4
51 34 43
38 21 33
12 8 8
204 204 204
18 18 13
54 48 31
2 2 4
43 21 30
14 9 10
17 17 17
24 37 19
12 8 8
72 30 40
2 2 4
10 12 16
12 12 9
33 22 23
2 2 4
31 40 22
20 13 15
2 2 4
20 12 12
2 2 4
9 6 7
71 45 55
13 13 8
28 20 16
30 26 29
20 33 31
157 105 72
5 7 7
21 14 14
48 40 33
2 2 4
2 2 4
20 26 17
22 11 12
19 35 45
2 2 4
2 2 4
35 20 26
2 2 4
19 13 14
13 18 18
68 36 77
34 22 36
53 35 27
2 2 4
2 2 4
2 2 4
36 43 42
27 19 19
50 28 33
50 26 30
2 2 4
26 45 51
2 2 4
65 31 24
26 15 17
2 2 4
2 2 4
27 37 45
2 2 4
20 25 21
74 46 34
23 37 30
8 5 6
2 2 4
12 10 9
16 27 18
2 2 4
74 81 53
13 9 18
9 6 9
24 16 17
2 2 4
34 33 16
157 157 104
2 2 4
25 21 26
41 17 17
38 19 25
2 2 4
2 2 4
72 48 40
25 14 13
61 53 31
30 40 45
10 7 8
2 2 4
150 69 69
46 34 24
13 8 10
16 11 12
54 33 28
79 54 64
5 5 7
27 27 19
9 9 11
14 14 16
32 41 29
42 30 63
44 35 27
37 29 22
12 12 14
19 21 15
50 77 40
21 25 21
11 11 13
33 23 24
7 7 9
20 20 17
42 53 39
23 19 25
48 28 48
40 42 28
11 11 13
41 30 32
28 28 23
17 13 14
4 4 6
18 18 16
11 11 13
41 32 24
172 127 87
9 9 11
9 9 11
66 43 52
8 8 10
205 205 205
14 15 40
62 47 77
20 30 39
29 27 24
9 9 11
86 53 70
45 37 36
12 12 14
58 42 54
12 12 14
10 10 12
24 24 19
41 37 39
10 10 12
51 40 34
18 18 15
35 33 23
57 39 33
12 12 14
53 40 37
12 12 14
48 49 43
71 77 83
10 10 12
48 47 35
54 54 41
55 59 44
33 29 26
173 173 119
57 32 47
8 8 10
21 17 23
39 28 29
36 44 33
22 25 18
10 10 12
38 53 33
16 16 30
205 198 86
64 35 44
12 12 14
10 10 12
24 27 21
21 21 18
10 10 12
6 6 8
17 17 19
12 12 14
23 34 30
42 29 37
41 49 49
10 10 12
38 37 34
62 62 46
219 219 219
30 25 20
34 51 33
15 15 17
30 34 20
36 48 33
42 35 32
4 4 6
212 212 212
12 12 14
46 40 55
43 32 44
22 31 33
74 54 34
22 22 19
58 58 33
55 36 51
13 13 15
6 6 8
79 62 84
35 44 30
13 13 15
6 6 8
20 20 17
17 25 26
60 60 45
7 7 11
13 13 15
8 8 10
10 10 12
15 15 17
45 55 48
26 37 27
15 15 17
30 30 25
34 44 37
11 11 13
30 33 26
31 34 34
18 23 25
10 10 12
11 11 13
37 34 28
6 6 8
32 27 22
215 215 215
42 33 23
17 14 17
31 37 27
63 70 58
15 15 17
47 47 35
36 36 27
131 135 194
17 25 27
6 6 8
19 19 16
23 17 33
11 11 13
11 11 13
8 8 10
41 41 31
25 32 27
13 13 15
15 24 17
212 145 212
26 31 28
11 11 13
24 23 29
29 29 23
36 53 40
11 11 13
79 47 75
41 31 28
27 27 22
23 23 24
13 13 15
217 217 217
31 31 23
13 13 15
51 28 32
46 35 47
8 8 10
36 27 38
15 15 17
9 8 19
36 44 33
15 15 17
38 34 26
13 13 15
19 19 19
13 13 15
56 46 32
10 10 12
43 33 45
25 25 20
21 18 23
145 213 213
31 22 19
219 219 219
13 13 15
10 10 13
131 89 64
30 40 41
53 65 54
7 7 17
64 58 42
41 37 25
64 30 47
22 28 30
36 45 27
36 41 48
27 22 26
19 26 27
22 15 15
23 23 24
46 52 54
37 44 34
56 56 40
12 12 14
205 98 143
27 20 28
108 217 157
31 31 47
75 69 55
10 10 12
48 30 37
10 10 12
16 21 21
10 10 12
29 23 24
100 78 44
214 214 214
18 15 16
10 10 12
10 10 12
51 45 33
4 4 6
77 100 56
10 10 12
40 29 39
23 16 17
58 48 52
6 6 8
46 46 55
22 15 15
11 11 13
218 218 218
6 6 8
49 65 48
36 29 29
10 10 12
33 25 22
28 20 22
75 105 64
140 146 99
52 41 34
24 30 30
50 64 48
22 31 32
46 26 36
56 41 30
5 5 8
7 10 12
26 17 17
24 32 30
38 36 56
16 21 23
68 42 49
63 60 38
13 9 10
31 24 25
2 2 4
2 2 4
11 18 10
16 25 27
86 41 46
16 16 12
35 25 35
2 2 4
6 6 8
19 15 14
2 2 4
30 39 20
44 38 52
2 2 4
2 2 4
18 9 12
20 20 15
27 35 23
146 67 67
13 19 14
47 35 23
34 29 25
23 18 23
49 21 35
59 132 38
46 29 22
196 92 92
8 13 14
2 2 4
2 2 4
12 18 20
29 29 20
25 40 24
21 12 14
21 29 25
2 2 4
45 37 25
11 7 8
32 40 36
32 18 18
2 2 4
9 6 7
2 2 4
49 68 37
2 2 4
11 14 14
2 2 4
36 36 26
33 14 18
36 18 24
16 13 13
9 6 11
40 15 20
14 9 11
2 2 4
7 11 13
135 203 203
1 1 3
23 16 16
21 16 17
11 7 7
12 19 21
12 18 13
71 36 24
61 32 53
19 25 16
1 1 3
27 18 15
2 2 4
9 6 7
25 25 18
2 2 4
2 2 4
2 2 4
27 16 20
72 37 59
132 140 140
58 46 32
51 38 51
29 51 65
10 7 8
11 7 13
2 2 4
44 20 28
0 0 0
29 19 20
79 100 81
2 2 4
14 21 23
8 13 13
2 2 4
19 29 29
2 2 4
41 23 27
42 17 21
15 23 25
19 29 31
18 10 12
2 2 4
15 22 19
21 18 18
71 47 34
18 28 15
14 8 16
2 2 4
2 2 4
16 23 16
10 10 8
22 18 19
24 39 20
8 7 33
60 46 45
2 2 4
10 6 7
44 24 37
2 2 4
2 2 4
26 37 40
2 2 4
2 2 4
2 2 4
2 2 4
2 2 4
21 17 15
40 49 54
7 7 9
14 22 17
26 14 23
9 6 7
6 10 7
13 7 7
31 19 18
2 2 4
37 21 16
21 26 28
39 23 39
23 19 19
1 1 3
10 6 7
10 10 12
9 9 8
35 24 48
168 168 115
108 71 35
7 7 9
31 36 25
26 22 19
13 13 15
9 9 11
14 13 38
24 32 34
5 5 7
26 27 33
92 62 64
5 5 7
5 5 7
15 15 13
209 209 209
70 157 71
7 7 9
22 18 19
9 10 17
26 22 17
11 11 13
17 24 26
68 87 43
21 21 17
10 10 12
58 40 50
18 23 25
6 6 8
53 44 39
8 8 10
5 5 8
34 50 46
61 64 37
27 36 38
37 47 35
12 12 14
9 9 11
44 37 43
12 12 14
73 74 45
105 74 46
45 43 54
42 33 57
51 36 52
22 22 18
4 4 6
20 27 29
12 12 14
10 10 12
32 32 25
86 73 60
51 47 38
11 10 29
64 52 75
45 54 63
151 221 151
33 40 30
6 6 8
14 14 16
45 37 46
12 12 14
51 41 28
11 11 8
49 42 29
49 33 46
12 12 14
63 39 60
10 10 12
115 87 91
8 8 10
192 134 93
38 46 56
46 56 38
46 40 37
14 14 16
58 58 42
30 38 27
24 24 19
10 10 12
41 41 32
97 46 68
48 48 37
10 10 12
25 27 18
117 174 174
36 43 52
10 10 12
17 17 19
10 10 12
35 49 43
12 12 15
36 42 33
209 209 144
41 48 38
30 35 27
8 8 10
15 15 17
40 41 44
48 48 36
11 11 19
21 28 30
37 42 42
53 58 41
73 48 45
8 8 10
23 23 19
40 76 54
30 42 31
15 15 17
50 59 29
45 29 31
23 27 24
50 50 36
28 38 30
13 13 15
12 12 15
11 11 13
43 48 40
215 215 215
13 13 15
38 26 31
23 23 21
14 14 16
13 13 15
45 34 47
63 70 50
61 61 44
98 63 69
20 27 27
22 22 19
217 217 217
98 87 60
8 8 10
210 210 210
124 103 81
42 37 52
23 18 25
65 66 81
8 8 10
30 63 57
31 20 31
8 8 10
27 20 30
74 40 53
8 8 10
30 42 27
52 34 41
97 125 91
11 11 13
32 31 25
206 142 142
11 11 13
14 18 20
15 15 17
31 24 33
37 37 29
20 21 34
11 11 13
13 13 15
65 40 57
8 8 10
13 13 15
48 34 46
13 13 15
8 8 10
18 15 16
10 10 12
10 10 13
8 8 10
15 15 17
44 51 38
48 51 35
42 39 34
91 87 71
32 33 32
11 11 13
20 17 17
74 82 50
65 56 46
21 27 28
8 8 10
6 6 8
43 47 40
6 6 8
21 21 16
31 31 24
6 6 8
24 24 19
93 66 74
55 59 31
8 8 10
10 10 12
45 42 57
106 82 47
39 49 37
208 208 208
34 42 43
17 16 36
67 84 40
46 36 50
90 97 69
10 10 12
12 12 14
8 8 10
139 205 100
204 204 204
35 27 37
6 6 8
20 29 31
12 12 14
12 12 14
13 17 19
10 10 12
34 23 20
215 215 145
24 24 20
11 14 16
54 46 61
54 57 42
51 44 54
10 10 12
8 8 10
30 46 38
8 8 10
88 50 53
19 27 29
10 10 12
49 53 62
24 17 16
28 35 35
29 50 36
22 28 23
73 71 51
18 25 27
49 42 40
25 25 20
58 56 23
22 18 16
16 21 23
28 28 22
8 8 10
33 36 33
9 9 11
16 16 18
155 178 87
26 18 27
4 4 6
33 35 31
30 53 35
5 5 7
31 25 25
6 6 8
36 21 34
3 3 6
26 49 41
36 38 47
13 7 7
36 23 27
8 5 5
54 33 30
2 2 4
35 23 37
19 19 28
2 2 4
47 60 35
24 13 16
15 23 23
2 2 4
59 35 41
55 36 46
51 29 24
2 2 4
66 74 34
6 4 4
60 78 70
31 31 22
33 36 28
2 2 4
27 27 19
23 15 16
9 7 32
39 36 24
18 12 12
2 2 4
40 26 41
34 22 19
28 21 14
10 16 12
7 5 6
34 23 34
18 27 19
75 58 54
19 10 10
64 48 55
16 10 12
21 31 22
32 21 33
46 55 30
8 7 28
28 35 26
27 16 16
52 33 37
44 91 37
16 10 16
12 18 12
48 33 32
13 22 13
63 33 47
13 8 9
142 77 67
36 26 25
31 24 28
14 9 10
7 7 9
44 23 23
37 32 34
34 16 21
2 2 4
20 13 14
24 27 30
10 7 8
14 29 19
9 14 16
12 17 17
62 24 34
209 78 80
36 24 20
14 9 10
53 28 49
2 2 4
37 25 26
17 25 18
0 0 1
24 16 21
39 72 52
24 14 13
42 32 48
28 14 20
2 2 4
2 2 4
37 27 37
71 48 38
35 19 29
2 2 4
21 14 12
41 27 43
2 2 4
9 6 7
75 54 64
2 2 4
60 40 28
8 5 6
2 2 4
26 22 22
46 18 19
64 33 40
19 25 25
17 17 12
2 2 4
220 78 109
12 8 8
255 70 129
7 11 12
2 2 4
2 2 4
2 2 4
16 25 27
2 2 4
74 69 41
2 2 4
20 35 25
40 23 36
9 6 7
9 6 7
16 24 26
11 7 9
19 26 26
26 21 16
28 28 24
10 6 7
2 2 4
1 3 7
11 7 9
31 16 15
54 22 21
25 18 22
17 13 11
2 2 4
5 8 10
180 58 58
22 12 12
8 5 6
59 48 68
6 9 7
19 31 29
23 15 16
19 17 14
3 3 5
13 13 11
32 28 21
25 25 19
31 29 22
71 67 50
35 32 21
9 9 11
58 46 31
11 11 13
7 7 9
30 22 23
33 25 26
33 25 25
33 40 30
83 58 72
13 13 15
46 36 24
24 24 21
7 7 9
5 5 7
31 24 31
25 29 19
13 13 15
11 11 13
39 33 18
207 207 207
43 47 29
79 58 34
12 12 14
20 20 17
25 25 20
46 90 65
32 29 22
212 212 212
14 14 13
64 99 58
28 24 20
19 25 27
38 44 34
54 43 45
10 10 12
10 10 12
40 35 24
214 214 214
39 39 34
36 27 32
8 8 10
74 60 81
40 31 28
12 12 14
110 104 73
12 12 14
24 28 28
10 10 12
55 66 33
8 8 10
17 17 15
2 2 4
6 6 8
196 98 137
15 12 13
47 41 55
29 30 23
24 20 26
28 37 39
33 33 27
25 21 21
10 10 12
8 8 10
179 179 179
16 24 18
15 15 17
81 53 46
20 20 16
43 44 27
10 10 12
24 18 30
28 40 40
17 17 19
31 27 27
58 76 37
10 10 12
28 44 34
12 12 14
41 78 52
39 39 28
45 86 54
10 10 12
8 8 10
66 77 37
54 37 42
10 10 12
65 65 48
12 12 14
30 30 21
13 13 15
28 21 18
8 8 10
42 35 47
32 25 26
58 58 42
13 13 15
52 61 61
8 8 10
11 11 13
101 82 58
210 210 210
4 4 6
26 34 35
10 10 12
212 212 212
8 8 10
51 66 34
25 20 27
13 13 15
210 210 210
28 16 65
6 6 8
28 45 45
27 37 29
13 13 15
8 8 10
30 23 28
8 8 10
11 11 13
10 10 13
31 26 33
19 19 21
8 8 10
65 41 38
28 24 22
32 27 21
68 71 38
13 13 15
23 19 20
6 6 8
63 63 45
15 15 17
38 27 33
29 19 27
18 17 28
47 28 40
15 15 17
11 11 13
36 45 45
13 13 15
15 15 17
32 44 47
29 22 20
30 27 51
22 30 24
20 27 21
17 17 19
72 51 39
36 36 28
57 68 41
99 88 53
6 6 8
11 11 13
30 25 32
10 10 12
48 54 59
46 33 48
91 78 50
8 8 10
84 79 53
13 13 15
8 8 10
84 58 46
15 15 28
21 27 29
20 19 47
12 12 15
15 15 17
8 8 10
22 16 16
208 141 141
172 172 172
56 59 45
33 28 34
17 17 19
17 23 18
39 36 28
23 23 25
8 8 10
13 13 15
32 29 23
10 10 12
10 10 12
42 42 32
78 37 45
39 34 28
26 37 37
54 28 30
19 25 27
8 8 10
52 46 34
8 8 10
105 50 75
10 10 12
54 51 37
19 19 21
15 15 17
21 27 22
41 24 31
10 10 12
51 29 41
42 32 44
14 14 17
59 59 43
22 22 19
45 50 39
92 86 44
10 10 12
44 52 39
6 6 8
34 37 40
8 8 10
30 38 40
36 29 40
22 26 31
28 34 28
68 87 67
20 23 19
23 28 30
10 10 12
18 24 19
10 10 12
26 19 28
12 12 14
88 56 71
10 10 12
56 32 47
19 28 28
32 39 25
36 27 38
29 39 39
26 32 32
8 8 10
27 20 22
30 37 26
17 17 14
27 20 21
21 21 16
6 6 8
113 168 168
3 3 5
32 35 26
4 4 6
33 40 32
73 68 61
17 18 20
34 26 26
12 17 19
8 6 6
164 115 109
78 71 45
45 25 38
35 37 26
6 6 6
13 19 20
2 2 4
35 23 19
85 57 39
26 38 21
7 10 7
18 15 22
1 1 3
67 62 53
19 28 30
18 34 34
34 19 29
32 26 53
6 9 10
20 13 13
14 7 9
36 46 40
21 17 12
62 39 29
2 2 4
13 16 11
14 18 18
44 25 28
17 13 13
29 29 21
2 2 4
17 11 19
34 27 20
8 5 8
2 2 4
10 16 14
2 2 4
16 37 31
32 19 19
29 31 37
100 92 65
11 17 19
21 14 15
2 2 4
39 23 31
28 24 17
27 14 14
2 2 4
29 19 31
10 10 11
15 10 15
5 5 6
18 23 23
23 16 15
21 27 27
25 16 17
65 111 49
18 11 11
51 25 31
7 9 6
22 33 18
2 2 4
17 15 15
29 36 21
2 2 4
52 45 31
44 68 42
15 10 17
2 2 4
31 20 33
27 27 19
5 3 3
51 35 29
26 26 18
29 50 32
19 25 25
88 58 36
18 28 23
57 65 38
2 2 4
2 2 4
2 2 4
2 2 4
98 69 78
14 21 15
26 20 24
65 52 44
17 11 12
21 26 27
7 13 13
2 2 4
15 23 12
18 27 19
47 71 56
18 14 23
11 9 15
2 2 4
2 2 4
2 2 4
2 2 4
33 22 23
30 17 26
44 29 23
10 6 10
9 6 7
12 8 8
16 16 11
33 47 23
2 2 4
2 2 4
8 8 7
13 20 22
33 49 39
21 32 22
21 32 33
14 9 8
28 14 20
22 14 24
33 50 27
2 2 4
31 21 33
37 31 63
26 14 17
22 42 44
15 18 18
2 2 4
36 13 17
8 5 6
13 17 21
24 18 14
2 2 4
16 11 16
10 7 7
2 2 4
34 22 34
6 9 7
18 9 13
2 2 4
52 21 28
10 6 7
2 2 4
47 54 32
10 6 6
5 5 7
42 55 34
11 11 13
29 27 21
9 9 11
14 14 16
9 9 11
77 30 42
44 41 39
126 220 112
54 56 45
5 5 7
27 32 37
50 43 58
24 24 19
37 37 28
11 11 13
23 23 23
29 21 26
18 23 20
5 5 8
9 9 11
193 193 130
35 44 50
13 13 15
57 41 29
24 16 16
23 17 19
60 60 43
18 22 23
49 30 38
42 40 45
23 27 30
12 12 14
32 39 25
56 75 61
47 56 56
10 10 12
11 11 14
51 40 40
19 19 17
3 3 5
14 14 16
16 17 40
6 6 8
31 24 31
72 57 41
44 31 41
16 16 13
21 23 19
216 216 216
38 33 24
29 21 27
96 95 76
57 40 52
25 25 21
22 16 17
6 6 8
45 60 34
32 42 21
12 12 14
24 21 25
8 8 10
24 24 20
17 17 19
39 54 37
10 10 12
28 22 34
40 30 28
52 37 38
17 17 19
17 17 19
4 4 6
26 26 18
8 8 10
63 38 65
8 8 10
46 55 39
15 15 17
114 98 66
6 6 8
62 40 50
32 38 28
39 42 26
35 27 36
15 15 17
27 27 29
74 45 59
53 45 39
212 212 212
174 174 120
27 19 33
34 21 25
8 8 10
31 49 44
13 9 15
12 12 14
29 29 23
13 13 15
34 33 25
32 48 41
8 8 10
37 41 27
32 32 26
26 30 22
34 50 32
4 4 6
15 15 17
65 104 79
13 13 15
71 96 46
61 37 37
6 6 8
67 43 56
8 8 10
41 46 28
15 15 17
38 23 23
44 28 28
18 18 16
24 29 31
39 32 24
39 28 41
8 8 10
33 33 40
8 8 10
11 11 13
26 35 27
68 68 50
213 213 213
20 16 21
8 8 10
56 49 43
8 8 10
26 21 22
15 15 17
8 8 10
72 46 64
27 35 28
217 217 217
45 64 54
17 17 31
10 10 13
8 8 10
19 22 18
26 47 39
13 13 15
13 16 18
32 32 27
40 49 35
74 55 40
49 46 33
30 43 34
23 28 22
215 215 215
6 6 8
13 13 15
13 13 30
45 67 71
57 63 50
21 21 18
135 200 200
6 6 8
25 38 33
11 11 13
11 11 13
21 26 27
20 26 20
23 23 21
21 29 31
13 13 15
27 22 27
24 24 20
6 6 8
30 22 32
15 15 17
11 11 13
43 96 62
27 21 22
38 36 27
8 8 10
36 28 38
86 56 67
15 15 17
10 10 12
206 206 206
6 6 8
19 18 40
48 55 38
51 84 63
12 12 15
8 8 10
41 27 37
21 28 30
10 10 12
18 19 39
54 55 51
8 8 10
35 26 24
52 47 35
40 43 34
15 15 17
212 212 212
10 10 12
26 34 23
16 16 16
51 43 36
13 13 15
10 10 12
10 10 12
12 12 15
81 87 57
22 17 18
12 12 14
60 74 36
27 36 31
25 33 27
44 95 56
17 20 22
32 39 36
47 34 48
47 55 42
216 216 216
8 8 10
14 14 16
226 154 226
21 21 15
12 12 14
55 39 31
29 44 29
12 12 14
11 11 13
12 12 14
22 26 22
29 22 31
26 26 21
21 28 22
48 44 35
38 30 27
51 28 34
36 57 57
174 174 174
38 47 48
32 23 36
8 8 10
43 31 45
26 19 20
8 8 10
45 36 46
4 4 6
6 6 8
10 10 12
59 41 33
38 49 56
40 24 30
5 5 7
7 10 9
20 13 69
26 22 16
36 28 40
52 35 35
27 12 12
30 15 22
13 8 8
35 71 107
20 29 31
2 2 4
2 2 4
65 28 36
2 2 4
20 11 11
29 15 23
7 7 7
26 26 19
34 23 19
20 25 30
55 31 55
18 33 26
37 31 25
63 82 57
27 40 36
80 64 40
40 26 26
3 3 4
12 12 9
16 16 12
7 11 13
2 2 4
2 2 4
80 42 50
27 35 43
2 2 4
40 51 34
29 33 29
33 19 24
22 14 16
65 46 30
34 22 27
67 38 50
2 2 4
2 2 4
42 51 29
61 43 41
9 6 7
4 4 6
24 29 29
36 46 30
2 2 4
2 2 4
2 2 4
24 28 16
57 51 29
29 14 14
59 48 29
26 15 17
49 59 31
18 10 16
16 11 12
2 2 4
48 35 32
21 31 21
7 10 12
18 12 12
11 17 19
2 2 4
22 17 14
20 13 22
18 27 19
49 43 31
15 15 11
15 22 21
51 55 30
0 0 0
14 21 23
71 42 31
2 2 4
11 8 8
73 79 53
35 35 24
13 9 9
56 26 29
169 86 61
14 9 10
21 13 13
40 40 37
31 31 22
2 2 4
38 22 18
23 15 15
17 11 12
9 14 11
19 19 14
12 18 12
2 2 4
2 2 4
2 2 4
75 55 40
19 29 34
47 37 37
36 40 32
12 9 8
2 2 4
83 37 33
23 20 20
2 2 4
46 34 23
2 2 4
0 0 0
15 23 25
179 81 86
12 8 9
19 10 22
2 2 4
49 48 38
28 18 20
13 7 10
14 17 17
26 49 41
43 34 26
11 7 8
39 18 14
16 27 27
42 28 21
23 13 13
18 24 21
23 9 40
2 2 4
9 6 7
7 4 5
17 26 28
2 2 4
2 2 4
5 8 7
26 22 22
2 2 4
20 25 21
17 26 18
66 44 39
53 40 28
8 12 9
31 25 32
39 32 32
21 24 17
88 51 58
38 38 19
46 26 36
29 22 23
7 7 9
11 11 13
30 41 43
11 11 13
31 24 25
16 17 39
44 51 62
9 9 11
5 5 7
6 6 8
9 9 33
29 27 18
42 33 25
13 13 15
7 7 12
30 24 25
29 21 30
97 88 46
28 26 21
43 37 29
25 25 20
14 14 16
49 45 29
53 48 35
12 12 14
36 45 28
4 4 6
10 10 12
42 52 53
208 208 208
6 6 8
47 52 39
10 10 12
16 16 14
6 6 8
8 8 10
31 31 25
8 8 10
8 8 10
33 29 33
34 37 23
45 34 41
43 30 40
33 30 27
12 12 14
41 36 30
10 10 12
8 8 10
27 35 37
83 72 58
38 27 38
5 5 8
19 17 24
10 10 12
48 50 53
67 63 45
31 31 23
40 40 25
43 33 37
35 47 31
27 27 23
27 27 21
25 25 20
64 47 44
4 4 6
38 40 33
17 17 19
12 12 14
32 41 30
41 48 36
32 29 22
71 35 54
28 25 21
42 31 32
25 31 31
54 42 31
30 23 31
10 10 12
10 10 12
10 10 12
10 10 12
19 19 16
33 38 34
47 57 54
6 6 8
5 5 18
70 46 51
49 60 79
21 29 22
38 41 26
62 70 50
67 73 49
41 45 36
44 64 38
40 56 32
208 208 208
27 32 26
24 18 19
16 16 27
59 41 34
32 26 28
15 15 17
29 36 42
25 25 16
39 34 24
10 10 13
153 217 146
10 10 12
23 23 19
26 22 23
15 15 17
34 36 28
18 18 19
215 215 215
11 11 13
44 39 37
4 4 6
21 16 23
41 45 58
81 63 36
8 8 10
60 60 47
32 32 26
11 11 13
38 40 49
54 49 31
22 17 17
11 11 13
38 30 42
24 22 24
6 6 8
4 4 7
24 16 16
21 28 28
8 8 10
43 38 32
23 24 26
69 80 53
30 33 24
10 10 12
10 10 13
73 58 66
37 25 31
73 73 54
29 22 22
72 47 55
12 18 13
15 15 17
46 36 55
6 6 8
10 10 12
245 89 127
27 31 25
157 111 85
17 17 20
58 47 59
6 6 8
43 46 36
23 18 28
28 25 28
8 8 10
50 79 56
24 24 19
8 8 10
19 26 28
15 15 17
11 11 13
57 48 67
207 141 207
61 40 53
8 8 10
32 30 32
18 18 19
19 19 16
26 26 19
24 32 34
127 194 180
31 25 38
34 47 45
70 85 45
24 20 26
8 8 10
31 24 35
50 50 36
12 12 14
31 36 39
32 40 49
51 48 34
18 22 19
8 8 10
18 14 19
65 55 48
10 10 12
43 47 39
89 55 60
10 10 12
31 41 42
8 8 10
102 56 60
15 15 17
31 25 35
29 21 19
15 11 13
10 10 12
27 21 22
13 14 19
36 24 20
67 74 50
42 25 25
43 54 52
60 66 70
29 34 42
17 20 18
156 103 76
40 36 26
28 44 40
42 46 32
20 20 16
52 52 41
54 63 47
10 10 12
19 19 15
28 48 39
4 4 6
30 45 49
32 40 29
6 6 8
220 220 150
37 37 28
13 18 20
27 36 38
23 20 18
24 22 20
16 12 14
41 31 54
203 137 137
12 12 14
20 26 28
35 40 35
209 209 209
8 8 10
81 49 50
26 26 19
58 48 56
54 49 42
45 55 39
14 21 20
229 229 154
11 14 16
38 30 41
37 37 26
12 12 13
35 22 32
11 16 13
30 27 22
55 64 37
6 6 8
2 2 4
16 24 27
23 27 27
11 18 18
194 134 129
27 32 53
31 31 22
2 2 4
15 22 22
24 16 17
5 8 6
26 15 17
23 17 17
211 140 140
25 22 21
2 2 4
8 5 6
16 24 13
11 11 9
2 2 4
20 25 33
42 34 43
31 22 31
29 19 20
23 27 35
39 36 25
2 2 4
62 52 30
42 20 24
9 13 10
24 30 36
0 0 0
33 21 17
10 16 17
204 204 204
14 21 23
13 13 10
17 11 12
30 22 34
2 2 4
85 58 30
11 17 19
73 61 43
25 17 18
2 2 4
2 2 4
52 44 35
2 2 4
56 37 26
27 27 19
30 14 15
2 2 4
16 24 17
19 32 29
24 28 26
16 25 17
30 30 16
2 2 4
63 42 30
23 43 43
11 21 17
28 14 21
30 44 86
39 27 20
2 2 4
2 2 4
12 8 12
16 11 36
2 2 4
12 23 23
2 2 4
2 2 4
49 43 56
191 127 191
2 2 4
72 48 40
116 46 54
15 14 10
2 2 4
2 2 4
13 20 21
15 28 19
24 16 17
26 36 28
11 11 9
14 9 10
13 17 9
13 10 9
12 19 19
37 26 22
18 12 13
2 2 4
23 15 16
19 33 23
110 66 46
8 12 14
12 18 18
2 2 4
49 27 41
49 33 24
27 44 35
2 2 4
8 5 6
22 19 15
52 23 30
27 24 17
10 16 18
19 16 13
2 2 4
15 10 7
12 18 19
6 10 12
9 6 7
27 18 19
67 28 30
32 29 21
21 31 33
204 204 204
118 77 113
2 2 4
10 6 8
2 2 4
5 5 5
151 101 101
2 2 4
8 5 7
2 2 4
10 7 8
51 115 48
9 11 12
18 28 23
2 2 4
20 11 11
15 10 11
18 27 29
165 165 165
22 22 19
7 7 9
40 69 60
13 13 15
11 11 13
7 7 9
33 27 19
5 5 8
22 19 15
21 27 29
5 5 7
7 7 9
38 27 40
66 48 28
5 5 7
217 217 217
41 44 23
11 11 13
40 27 42
13 13 15
4 4 6
11 11 13
215 215 215
34 26 36
39 33 24
44 38 29
79 43 48
10 10 12
37 31 38
9 9 11
42 54 37
21 21 18
30 26 25
16 16 14
20 26 28
11 11 13
41 37 38
26 30 24
16 16 18
32 35 27
26 33 27
35 33 24
21 21 17
8 8 10
22 27 20
18 18 15
12 12 14
14 14 16
83 120 60
76 53 63
51 62 184
43 46 31
38 36 27
4 4 6
10 10 12
6 6 8
33 27 20
10 10 12
23 31 33
18 24 26
65 58 59
37 34 22
8 8 10
31 25 47
10 10 12
14 14 16
10 10 12
25 20 26
70 44 44
30 23 17
10 10 12
6 6 8
12 12 14
58 45 37
26 19 28
36 27 38
28 35 25
12 12 14
28 31 22
25 21 26
10 10 12
212 212 212
41 45 56
39 46 25
27 37 39
15 15 17
76 62 39
36 27 31
45 39 28
15 15 17
32 39 30
38 30 28
51 109 53
29 29 24
14 14 16
15 15 17
68 46 64
8 8 10
10 10 12
8 8 10
145 213 213
53 49 38
8 8 10
23 17 17
8 8 10
9 9 15
20 23 17
4 4 6
35 48 29
15 15 17
30 30 26
10 10 12
60 43 33
13 13 15
55 55 42
22 28 30
21 16 23
46 51 32
19 15 21
57 57 42
28 33 40
83 63 50
13 13 15
15 15 17
47 31 41
47 55 32
28 21 28
8 8 10
21 30 32
63 57 34
11 11 13
50 60 35
15 15 17
32 32 25
30 37 23
12 12 14
11 11 13
34 20 31
41 52 33
13 13 15
11 11 13
23 15 15
6 6 8
11 11 13
53 60 42
58 53 44
6 6 8
20 16 17
108 113 67
33 25 35
159 102 91
15 10 11
48 34 50
74 93 65
43 40 30
43 54 30
15 18 15
49 30 24
67 45 96
13 13 15
6 6 8
40 82 52
12 12 14
18 24 19
210 210 210
24 21 47
35 25 33
8 8 10
6 6 8
130 133 133
8 8 10
11 11 13
27 29 35
6 6 8
48 66 45
59 28 47
55 35 45
28 24 25
13 13 15
31 42 33
8 8 10
47 58 44
63 108 72
25 22 25
23 33 33
19 23 24
91 80 58
10 10 12
15 15 17
56 59 72
50 44 37
52 85 80
45 37 36
38 29 24
17 20 20
12 12 14
13 13 15
30 44 28
44 36 44
91 49 66
35 35 27
8 8 10
17 17 19
18 14 14
10 10 12
108 52 84
57 50 34
8 8 10
66 35 32
54 54 40
54 58 65
20 14 22
10 10 12
8 8 10
12 12 14
30 26 30
21 21 18
57 35 50
12 12 14
49 31 61
42 24 31
50 70 58
8 8 10
16 16 18
16 16 18
210 210 210
39 24 33
12 17 19
60 36 21
41 41 30
30 23 25
23 33 35
25 24 41
33 30 34
49 31 28
31 24 22
14 14 16
14 14 11
28 36 24
26 20 28
47 29 29
14 18 19
7 7 9
16 14 14
84 127 127
39 39 29
42 47 60
17 23 25
12 9 11
6 6 8
57 57 191
44 25 32
22 16 17
14 17 21
51 67 26
5 5 8
32 30 31
10 8 8
5 5 22
66 66 45
16 19 14
21 17 15
47 44 29
23 20 17
2 2 4
20 14 15
17 11 16
30 30 21
17 11 10
5 5 7
2 2 4
39 51 43
22 18 15
49 45 45
12 18 20
23 15 24
18 30 18
13 18 13
185 123 85
26 29 19
33 20 20
13 9 11
26 19 20
2 2 4
2 2 4
17 28 28
68 46 56
2 2 4
13 20 13
60 43 47
14 21 11
48 48 33
87 69 52
34 57 24
49 28 28
63 25 33
46 57 29
42 24 17
84 36 46
2 2 4
2 2 4
94 98 43
24 16 26
27 18 23
26 15 15
28 38 39
12 8 9
8 13 10
25 16 16
2 2 4
2 2 4
24 29 30
22 18 12
41 58 44
21 14 15
32 20 21
2 2 4
17 26 24
6 4 4
2 2 4
17 15 21
2 2 4
32 25 25
33 67 43
38 25 38
2 2 4
31 24 32
35 33 31
27 48 45
2 2 4
2 2 4
11 11 13
1 1 3
30 33 31
22 17 20
58 38 36
27 31 22
11 14 14
19 10 10
2 2 4
2 2 4
39 45 40
25 35 23
24 20 21
2 2 4
2 2 4
21 11 13
18 12 13
2 2 4
24 31 34
161 107 107
43 26 22
14 9 10
148 124 89
2 2 4
17 13 17
56 51 41
2 2 4
32 15 21
40 31 31
18 33 29
19 11 11
2 2 4
33 22 18
23 15 25
11 17 17
127 191 129
4 4 4
15 10 11
39 26 27
17 25 15
18 9 12
10 7 24
20 13 14
24 20 17
6 10 12
31 21 17
2 2 4
29 18 28
2 2 4
9 6 7
2 2 4
7 5 5
10 13 10
43 33 21
16 24 17
35 29 44
14 12 12
30 22 21
36 17 35
2 2 4
2 2 4
13 25 17
9 6 7
3 3 5
28 17 23
2 2 4
4 4 6
9 6 7
9 9 11
9 9 11
56 39 49
66 98 37
28 28 17
44 62 28
11 11 13
49 49 117
7 7 9
5 5 7
11 11 13
26 31 25
32 32 35
5 5 7
40 36 45
11 11 13
32 27 24
11 11 13
43 43 31
3 3 6
9 9 11
23 18 25
37 31 27
45 28 29
61 45 40
11 11 13
73 90 40
26 26 22
26 36 38
24 29 31
9 9 11
5 5 7
34 53 38
10 10 12
71 52 43
15 15 17
37 45 29
38 18 28
8 8 10
10 10 12
18 18 15
77 101 61
44 32 33
22 19 24
12 12 14
36 39 25
210 210 210
12 12 14
32 53 31
56 40 37
12 12 14
8 8 10
47 66 66
42 42 33
35 53 40
19 19 17
57 52 37
10 10 12
12 12 14
64 51 51
8 8 10
19 24 26
6 6 8
118 59 54
12 12 14
16 16 18
13 13 15
8 8 10
12 12 14
44 47 28
6 6 8
81 76 33
12 12 14
12 12 14
10 10 12
54 74 64
16 22 13
42 36 31
12 12 14
36 48 35
33 38 27
19 19 19
8 8 10
27 21 29
15 15 17
8 8 10
65 77 40
39 25 28
8 8 10
68 86 49
32 55 45
67 39 27
10 10 12
43 38 30
74 55 44
11 11 13
6 6 8
22 17 17
32 42 33
56 106 62
61 55 65
64 95 73
58 105 89
121 65 52
31 31 25
15 15 17
6 6 8
15 15 17
48 39 41
48 40 56
93 58 63
32 46 52
8 8 10
213 213 213
13 13 15
13 13 15
30 35 23
51 45 40
10 10 12
25 22 23
48 49 31
28 37 29
47 33 27
18 14 20
65 35 36
52 58 44
65 65 30
8 8 10
26 28 33
119 174 85
208 208 208
22 22 17
27 36 29
11 11 13
30 28 22
90 39 53
222 114 79
23 23 20
8 8 10
30 28 19
6 6 8
36 33 28
56 56 41
37 37 28
15 15 17
6 6 8
37 33 27
13 13 15
8 8 10
13 13 15
32 32 25
11 11 13
15 15 17
208 208 208
21 21 21
41 34 30
10 10 12
45 68 51
6 6 8
27 31 21
10 10 12
15 15 17
31 26 21
52 38 54
53 31 44
4 4 6
13 13 15
13 13 15
39 27 23
59 63 47
77 62 39
19 21 44
24 19 24
48 43 36
47 47 35
66 66 47
10 10 12
204 193 139
49 54 40
8 8 10
56 53 49
61 108 77
10 10 12
51 38 51
215 215 215
13 13 15
10 10 12
44 66 39
56 48 35
11 11 13
35 35 26
60 48 49
21 21 18
6 6 8
26 19 19
26 26 22
12 12 15
10 10 12
34 21 26
54 58 42
24 23 34
48 49 60
28 45 45
8 8 10
6 6 8
16 19 17
30 33 24
7 7 17
22 22 18
61 53 33
10 10 12
91 63 70
10 10 12
13 13 14
10 10 12
17 17 19
26 36 38
6 6 6
27 35 30
62 38 48
56 45 31
83 49 38
44 48 35
36 48 28
43 50 32
2 2 4
10 10 12
6 6 8
16 16 16
14 14 16
57 25 27
13 14 28
12 12 14
65 46 36
4 4 6
55 73 46
40 49 52
6 6 8
49 39 47
20 24 26
44 40 46
20 17 18
89 57 46
23 27 28
10 10 12
12 12 14
115 119 119
103 55 76
10 10 12
6 6 8
26 29 25
20 28 17
7 7 9
6 6 8
62 62 43
26 36 23
178 178 178
5 5 8
16 19 16
10 10 12
19 14 11
50 56 45
14 18 14
11 16 12
2 2 4
10 6 7
8 8 9
168 168 168
3 3 6
13 9 9
3 3 5
17 12 13
9 14 11
49 50 45
34 43 43
2 2 4
11 18 25
6 10 12
5 7 21
16 11 12
44 43 37
5 5 6
17 33 23
29 61 37
51 35 24
28 28 19
30 22 30
65 60 35
25 43 48
10 6 6
104 35 50
15 10 10
18 9 9
13 9 10
38 58 45
2 2 4
6 6 7
45 22 31
2 2 4
50 54 29
17 31 31
49 25 32
32 21 23
159 71 44
38 33 23
31 40 49
15 10 11
52 51 59
21 14 15
20 13 14
125 123 84
1 1 3
16 24 26
31 27 21
34 23 32
8 12 14
2 2 4
65 29 33
15 12 13
59 41 30
2 2 4
48 27 30
2 2 4
18 24 31
82 176 120
45 54 50
178 178 118
1 1 3
2 2 4
20 11 11
9 6 7
14 21 23
2 2 4
13 9 10
34 37 37
2 2 4
57 20 24
67 50 85
22 15 13
19 29 26
19 22 13
177 118 118
12 15 16
192 128 128
60 53 60
16 8 10
1 1 3
11 13 16
17 13 14
68 45 32
2 2 4
40 24 22
9 6 7
2 2 4
2 2 4
19 29 31
16 24 17
2 2 4
10 7 8
35 53 46
27 18 29
22 36 24
26 43 25
27 22 22
19 29 16
22 18 18
25 17 27
18 10 10
11 7 9
216 103 155
2 2 4
129 194 88
23 20 15
127 125 125
17 16 16
19 12 12
19 10 12
14 11 16
20 31 29
2 2 4
24 44 38
18 27 29
2 2 4
2 2 4
38 57 31
18 12 13
10 7 8
54 30 27
2 2 4
24 22 22
77 38 42
8 5 7
29 16 27
24 33 35
19 29 30
8 5 10
28 23 33
29 19 19
23 12 10
19 14 14
14 9 8
5 5 7
7 7 9
9 9 11
9 9 11
30 51 37
26 26 19
45 37 25
56 36 38
21 21 19
30 22 92
70 52 28
44 66 57
165 173 139
51 46 32
18 18 39
27 35 37
18 18 17
5 5 7
17 14 15
27 37 28
16 16 13
48 37 34
27 27 22
18 14 20
16 14 42
25 30 22
9 9 11
37 28 39
12 12 14
201 140 137
212 212 212
10 10 12
9 9 7
5 5 7
199 96 141
14 14 16
69 60 49
27 27 26
12 12 14
8 8 10
35 59 49
8 8 10
32 33 37
210 210 210
29 40 29
24 31 19
4 4 6
10 10 12
21 26 22
6 6 8
34 26 28
24 20 17
8 8 10
29 40 30
43 55 28
65 68 49
14 14 11
31 25 32
32 39 39
46 40 34
35 35 35
198 198 134
216 216 216
24 24 21
6 6 8
24 27 17
43 35 27
44 30 28
214 214 214
33 36 28
12 12 10
46 37 33
40 43 32
16 16 14
19 19 18
8 8 10
37 59 52
10 10 12
87 81 57
66 61 44
17 17 19
29 31 33
62 62 42
26 18 26
61 71 59
13 13 15
12 12 14
48 53 32
39 33 39
8 8 10
10 10 10
8 8 10
23 17 24
46 37 28
20 23 54
44 36 38
24 24 22
21 16 21
6 6 8
21 21 26
11 11 13
6 6 8
18 18 15
37 37 26
27 31 31
50 56 44
11 11 13
23 17 18
215 215 215
28 23 25
53 37 49
10 10 13
31 36 31
34 27 34
53 64 43
13 13 15
37 44 50
13 13 15
50 32 40
33 26 35
22 22 21
18 15 15
51 49 27
74 69 50
61 42 34
53 39 32
28 22 52
42 25 33
6 6 8
13 13 34
17 17 19
177 120 129
8 8 10
40 33 40
36 48 30
65 62 43
210 210 210
34 29 26
73 59 56
13 13 15
23 18 19
61 61 46
10 10 12
90 48 40
45 27 38
45 34 47
11 11 13
4 4 6
8 8 10
14 19 15
215 215 215
50 83 64
12 12 15
15 15 17
31 29 22
21 14 18
13 13 15
8 8 10
10 10 12
13 13 15
45 23 23
52 75 42
4 4 6
30 23 32
42 50 48
19 15 21
47 34 49
15 15 17
42 34 35
55 30 36
65 37 55
48 37 25
68 49 48
70 45 57
44 52 33
22 18 24
6 6 8
43 43 35
51 43 35
11 11 13
42 41 33
76 81 71
26 22 31
162 109 162
16 22 18
21 26 22
10 10 12
43 41 31
10 10 12
54 48 48
6 6 8
34 48 37
31 26 26
8 8 10
6 6 8
10 10 12
143 210 143
59 34 45
10 10 12
10 10 12
10 10 12
54 63 36
24 24 19
44 44 38
19 26 21
13 13 15
35 42 35
101 108 80
10 10 12
34 51 70
10 10 12
56 60 52
22 25 26
44 38 31
21 32 32
8 8 10
33 33 24
210 210 210
60 60 44
8 8 10
12 12 14
36 68 34
16 16 18
56 36 56
53 48 41
12 12 14
179 188 140
80 46 67
89 64 60
12 12 14
24 18 19
29 29 24
41 31 49
20 25 26
28 24 34
35 58 46
61 37 59
24 35 19
37 31 25
8 8 10
22 31 24
26 22 33
26 23 24
28 28 22
29 20 20
21 18 24
9 9 9
66 52 39
22 30 32
36 36 27
68 112 65
39 47 40
35 25 36
10 10 12
36 30 26
10 10 12
6 6 8
25 37 22
5 5 7
24 24 17
10 7 7
16 23 18
2 2 4
5 5 7
37 26 39
69 48 51
29 17 15
28 16 16
114 172 172
19 19 13
26 18 19
76 64 52
18 12 10
2 2 4
11 8 8
21 39 27
2 2 4
40 31 31
57 41 62
7 5 5
8 5 7
5 8 5
44 40 61
52 27 36
6 6 6
19 26 15
53 29 31
14 14 10
33 16 23
37 27 18
12 8 9
26 20 20
10 10 8
208 96 138
16 19 14
17 20 16
17 13 13
80 73 48
10 7 7
21 35 32
7 9 9
15 13 11
12 14 38
14 9 11
12 19 21
17 25 25
7 11 8
29 15 19
2 2 4
14 9 16
2 2 4
40 21 18
12 8 8
2 2 4
43 19 23
46 68 63
53 46 37
2 2 4
32 27 22
2 2 4
2 2 4
13 9 10
20 13 14
52 33 21
15 19 19
30 20 21
17 26 28
17 29 20
2 2 4
26 17 24
2 2 4
17 17 11
50 23 27
29 42 22
16 10 12
2 2 4
2 2 4
9 6 7
42 42 29
20 23 16
40 40 28
29 39 26
34 15 18
44 40 27
11 7 9
18 12 20
41 50 37
55 55 31
2 2 4
25 22 22
52 42 49
2 2 4
9 17 17
32 37 28
9 6 7
8 5 6
7 11 12
2 2 4
2 2 4
23 11 15
8 5 6
16 22 25
9 6 7
2 2 4
32 43 42
41 27 22
4 4 4
36 32 25
74 38 44
14 22 33
132 198 198
34 22 37
7 5 5
8 5 6
8 5 5
17 17 11
92 46 29
46 42 24
19 11 13
15 8 8
58 28 24
2 2 4
2 2 4
23 12 12
25 27 27
35 37 22
10 6 8
48 72 56
2 2 4
2 2 4
2 2 4
6 4 5
22 13 26
61 25 42
2 2 4
9 6 7
21 40 53
17 21 22
2 2 4
25 21 22
95 64 46
19 19 17
17 17 15
39 35 50
36 44 29
22 30 30
52 36 42
69 95 57
20 20 17
34 34 22
196 196 132
91 42 74
42 42 34
32 40 28
25 19 19
35 39 25
7 7 9
42 27 53
5 5 7
60 52 34
9 9 11
155 162 117
7 7 9
76 45 90
27 25 38
9 9 11
133 61 79
9 9 11
10 10 12
10 10 12
27 23 19
26 26 18
42 42 33
40 83 41
42 36 28
37 48 52
44 47 33
71 42 37
15 18 16
34 34 24
20 20 17
70 73 45
9 9 12
6 6 8
10 10 12
207 97 143
10 10 12
28 39 41
23 23 20
14 13 38
18 18 16
18 18 16
16 16 18
14 14 16
10 10 12
168 83 63
55 37 39
21 15 16
8 8 10
68 68 50
50 40 33
14 14 16
61 40 33
54 45 52
44 54 42
6 6 6
12 12 14
59 47 33
48 48 36
40 32 18
80 47 38
24 24 21
26 26 43
70 70 50
68 81 52
77 61 39
48 47 36
36 36 33
73 47 64
32 43 34
17 17 15
210 210 210
33 38 27
38 38 29
24 24 20
10 10 12
8 8 10
15 15 17
8 8 10
194 93 136
46 42 31
10 10 12
15 15 17
15 15 17
8 8 10
208 208 208
36 25 29
35 43 39
10 10 12
24 24 20
42 64 43
27 25 20
24 24 21
40 50 34
29 29 23
21 25 27
60 41 39
27 27 22
31 31 27
8 8 10
24 30 21
213 213 213
11 11 13
217 217 217
36 39 33
10 10 12
40 38 25
6 6 8
17 17 19
11 11 13
17 17 19
74 76 63
10 10 13
42 42 30
51 30 35
43 43 31
36 24 32
10 10 12
33 58 37
6 6 8
11 11 13
213 213 213
28 41 55
23 19 25
26 34 36
19 23 25
47 35 62
8 8 10
20 26 26
10 10 12
13 13 28
217 217 217
23 31 33
25 25 22
43 39 68
13 13 15
33 25 33
8 8 10
6 6 8
46 55 42
23 19 20
65 61 46
8 8 10
42 52 39
73 60 65
27 27 22
38 67 50
6 6 8
8 8 10
13 13 15
15 15 17
11 11 13
15 15 28
75 82 54
187 126 187
7 7 9
8 8 10
29 24 24
60 69 45
166 166 113
13 13 15
24 34 35
39 27 30
51 43 35
10 10 12
22 38 24
56 35 33
8 8 10
10 10 12
10 10 12
140 97 106
212 212 212
79 40 47
210 151 144
10 10 12
47 31 37
6 6 8
24 31 33
30 44 36
169 169 116
19 24 32
10 10 12
177 177 177
22 31 33
49 76 62
13 13 14
39 67 47
28 23 21
45 37 26
73 101 58
8 8 10
8 8 10
10 10 12
210 210 210
26 36 27
26 34 27
49 30 43
33 39 25
97 116 56
56 33 41
26 22 22
22 18 19
22 30 31
70 46 58
56 56 40
8 8 10
23 27 26
29 41 25
10 10 12
45 45 35
33 25 49
50 69 63
30 49 49
40 82 47
10 10 12
26 29 20
8 8 10
69 87 65
6 6 8
10 10 12
14 19 20
32 32 26
8 8 10
37 26 26
16 21 23
10 10 12
32 52 43
41 36 27
18 22 19
55 62 45
32 31 27
12 12 14
8 8 10
20 21 15
23 30 23
6 6 8
21 27 29
61 56 62
10 10 12
18 17 41
52 48 50
40 65 65
36 28 28
33 29 23
7 7 9
18 15 16
57 55 39
70 31 36
43 38 27
51 39 28
42 23 36
26 34 27
141 135 135
2 2 4
14 21 21
4 4 6
26 18 19
2 2 4
13 8 10
17 11 12
16 11 18
17 32 22
32 21 23
27 29 29
34 96 61
2 2 4
3 3 5
2 2 4
20 14 14
31 19 18
8 13 10
23 24 18
30 53 48
34 24 22
19 29 31
2 2 4
2 2 4
16 11 18
2 2 4
28 23 19
27 33 33
42 38 24
23 15 14
41 29 21
49 50 46
14 9 10
22 16 16
11 7 8
34 16 18
2 2 4
22 26 20
15 23 16
29 45 19
30 30 21
26 21 14
18 12 20
30 45 45
68 72 45
10 6 8
24 16 17
2 2 4
29 32 30
12 10 10
13 9 18
33 35 20
2 2 4
59 37 28
10 7 8
2 2 4
27 27 19
14 21 20
2 2 4
11 15 17
2 2 4
9 6 7
9 14 14
44 27 49
53 19 25
22 18 18
26 19 19
2 2 4
22 14 12
26 13 18
14 9 10
52 54 62
17 11 13
13 16 17
29 22 28
25 17 18
2 2 4
65 41 32
22 14 11
14 10 17
7 11 13
26 48 41
11 16 18
2 2 4
22 27 18
45 27 37
11 7 8
44 67 30
215 215 143
55 40 27
51 66 58
8 12 14
9 14 16
23 19 20
34 13 18
127 190 190
2 2 4
18 27 28
25 16 28
2 2 4
2 2 4
2 2 4
56 25 33
10 15 17
37 23 20
23 15 14
15 19 13
24 14 18
18 22 25
2 2 4
18 26 33
25 16 17
30 61 35
30 20 16
6 9 7
21 14 15
2 2 4
54 29 37
14 17 18
20 13 15
18 28 30
2 2 4
2 2 4
33 22 34
43 29 31
17 11 12
21 14 12
22 13 11
18 33 33
56 45 32
2 2 4
23 30 30
22 13 13
3 3 5
23 15 13
22 19 20
37 30 26
9 9 11
46 31 45
7 7 9
16 16 15
46 50 35
11 11 13
28 23 33
13 13 15
5 5 7
29 21 30
20 20 18
18 18 15
39 24 35
16 16 13
34 44 34
38 32 24
35 41 25
13 10 15
29 43 38
11 11 13
58 48 32
9 9 11
225 82 116
10 10 12
33 33 24
41 48 27
19 17 14
33 30 24
43 29 33
63 52 52
10 10 12
129 90 90
12 12 14
32 28 22
78 86 59
8 8 10
131 60 69
29 38 39
23 19 25
71 66 48
32 45 30
30 36 37
21 30 32
44 27 47
4 4 6
32 32 25
16 16 18
12 12 14
8 8 10
10 10 12
71 56 25
62 54 47
10 10 12
203 203 137
25 33 35
45 45 36
46 48 41
30 27 37
10 10 12
28 26 21
21 29 22
24 32 25
10 10 12
27 27 21
20 20 19
35 31 39
43 49 40
90 59 36
10 10 12
45 75 45
22 28 30
46 55 35
7 7 19
8 8 10
10 10 12
8 8 10
61 72 72
12 12 14
177 252 125
8 8 10
10 10 12
8 8 10
130 107 72
37 31 28
22 22 18
8 8 10
51 27 42
19 19 17
70 48 36
10 10 12
28 32 25
8 8 10
36 26 38
22 30 32
6 6 8
10 10 12
45 44 30
210 210 210
30 27 25
41 32 25
24 33 25
44 48 35
61 44 74
13 13 15
12 12 14
27 27 21
13 13 15
8 8 10
11 11 13
82 72 58
24 19 20
59 81 50
13 13 15
26 18 18
52 33 47
8 8 10
11 11 13
10 10 12
68 49 56
29 40 31
51 53 45
26 26 20
171 115 115
21 22 26
10 10 12
6 6 8
6 6 8
52 29 36
27 28 28
54 43 41
4 4 6
28 21 28
27 43 41
15 15 13
37 69 46
11 15 17
45 58 38
56 97 68
41 47 36
27 27 23
13 13 15
32 29 24
13 13 15
71 56 38
31 24 25
23 28 28
10 10 12
36 30 31
13 13 15
48 48 36
38 54 42
61 61 45
10 10 12
213 213 213
10 10 13
78 69 51
27 37 38
36 29 27
8 8 10
31 51 40
39 50 47
11 11 13
8 8 10
41 49 30
24 29 30
44 52 33
13 13 15
17 17 19
29 30 24
15 15 17
51 51 36
25 25 21
8 8 10
14 16 40
42 31 44
27 33 24
21 21 17
37 58 51
46 46 32
10 10 12
36 36 28
186 138 127
11 11 13
32 46 28
18 21 13
49 49 37
85 96 64
217 217 217
29 37 48
24 35 40
12 12 14
40 35 45
8 8 10
57 57 42
19 25 27
219 219 219
58 66 44
10 10 12
16 13 18
37 22 31
8 8 10
39 79 50
25 34 29
69 66 60
10 10 12
10 10 12
76 75 80
15 15 17
26 44 33
115 111 111
35 35 28
27 27 36
10 10 12
20 24 19
14 14 17
24 41 41
11 11 13
10 10 12
42 29 37
22 30 23
8 8 10
58 41 53
10 10 12
22 29 23
104 104 68
16 21 22
60 60 44
12 12 14
20 24 26
35 49 34
8 8 10
27 44 27
184 184 184
50 50 43
36 34 26
18 22 24
19 25 27
14 14 16
31 39 28
17 22 24
37 49 37
16 16 18
21 21 19
10 10 12
12 12 14
206 140 140
27 30 21
39 29 41
26 28 28
13 18 14
41 31 44
24 30 23
23 31 26
33 25 26
19 16 16
8 12 14
4 4 6
30 23 30
6 6 8
2 2 4
3 3 6
44 38 28
24 30 30
20 37 31
5 5 7
14 21 15
21 31 33
41 24 34
36 33 67
72 78 52
16 16 14
3 3 3
8 12 14
34 49 38
39 26 37
59 22 34
21 34 17
11 7 8
78 52 66
21 15 23
13 9 9
27 38 38
2 2 4
82 76 56
10 6 8
31 28 18
30 30 18
25 16 17
44 36 56
2 2 4
2 2 4
34 55 29
12 12 8
9 6 7
45 23 37
21 23 23
15 8 8
28 15 18
22 39 39
49 33 39
46 34 26
131 197 139
2 2 4
22 18 29
16 10 12
74 54 52
8 5 6
2 2 4
10 7 7
37 23 27
1 1 3
41 22 20
8 5 6
47 47 34
2 2 4
12 12 9
2 2 4
45 44 33
52 27 41
47 28 42
16 11 30
73 27 44
2 2 4
18 27 16
17 14 14
19 11 11
18 30 28
64 73 47
2 2 4
30 20 21
58 34 54
62 41 34
16 9 9
2 2 4
45 45 31
52 44 21
15 23 23
53 28 32
29 39 47
45 40 26
21 31 33
169 112 169
24 46 22
2 2 4
2 2 4
42 39 30
32 21 31
21 39 32
17 11 12
14 10 9
15 8 8
61 54 30
24 29 29
2 2 4
2 2 4
2 2 4
29 22 19
22 18 15
34 34 24
5 8 6
28 35 24
10 6 7
44 91 87
2 2 4
13 13 9
31 15 18
2 2 4
15 11 10
29 19 16
30 20 30
78 35 30
8 5 6
40 41 41
13 23 23
39 40 33
10 14 15
35 23 24
43 22 19
40 43 38
2 2 4
40 28 43
20 11 13
20 18 12
138 207 96
40 18 32
9 6 7
12 8 9
9 6 7
24 13 13
9 6 7
65 44 32
14 22 24
192 128 128
16 27 18
37 56 41
14 9 9
12 8 9
10 6 10
19 16 13
11 7 8
27 34 18
32 36 25
49 31 33
28 28 22
42 30 103
51 30 39
9 9 11
34 34 21
32 29 23
47 84 31
39 28 29
32 27 37
23 30 23
11 11 13
59 31 62
11 11 14
13 13 15
25 25 21
63 63 47
53 37 25
45 47 33
22 22 19
60 49 38
11 11 13
21 21 18
6 6 8
15 16 25
42 40 30
25 19 27
20 20 17
9 9 11
47 51 31
14 14 16
56 56 42
17 17 15
51 43 32
40 33 49
8 8 10
37 51 66
57 67 66
9 9 11
213 213 213
16 20 17
39 32 24
38 55 31
39 36 30
30 40 31
59 53 50
27 24 24
41 34 30
22 22 18
39 55 55
51 44 26
8 8 10
23 17 16
12 12 14
8 8 10
33 19 27
61 43 48
12 12 14
38 42 45
33 23 35
78 44 49
66 33 49
12 12 14
23 23 18
47 34 40
8 8 10
65 55 70
71 53 59
23 32 25
6 6 8
54 51 36
14 14 16
14 14 16
65 48 42
36 53 46
22 37 37
70 42 57
23 19 25
54 45 31
6 6 8
8 8 10
24 33 35
212 212 212
43 46 22
10 10 12
42 51 60
4 4 6
30 24 27
20 30 27
38 32 35
21 20 36
30 25 34
10 10 12
10 10 13
8 8 10
60 42 34
42 31 44
62 55 37
31 31 25
12 12 25
15 15 17
16 16 18
205 205 139
10 10 12
18 31 22
31 23 31
17 17 19
70 54 38
6 6 8
29 22 31
6 6 8
6 6 8
215 215 215
10 10 12
15 15 17
51 70 43
6 6 8
43 69 69
30 25 21
8 8 10
8 9 19
29 27 33
34 27 28
6 6 8
13 13 15
8 8 10
33 23 29
32 33 28
12 12 14
42 53 33
15 21 17
217 217 217
45 69 38
6 6 8
37 37 30
10 10 12
44 52 36
19 25 20
174 141 112
79 82 70
61 37 47
27 37 31
13 13 15
24 26 20
22 18 22
56 56 44
8 8 10
19 16 17
74 49 51
10 10 13
52 45 36
63 45 37
41 21 27
61 54 76
28 28 23
47 44 37
56 48 35
23 23 20
15 15 17
10 10 13
13 13 15
10 10 12
208 208 208
59 53 67
14 14 13
6 6 8
80 104 65
47 42 31
20 14 14
10 10 12
26 34 27
44 36 23
22 30 21
51 45 61
208 208 208
10 10 12
13 13 15
58 90 70
10 10 12
13 13 15
11 11 13
35 35 30
50 45 57
37 25 25
55 61 51
10 10 10
10 10 13
33 24 31
39 46 28
42 51 50
55 34 32
57 71 61
8 8 10
8 8 10
202 202 137
20 21 45
12 12 14
67 55 39
8 8 10
27 31 23
25 16 23
37 64 53
10 10 12
12 12 14
54 43 60
25 17 24
6 6 8
50 71 40
10 10 12
31 41 32
18 21 13
34 26 100
18 18 16
210 210 210
29 41 32
62 45 38
10 10 12
8 8 10
17 14 15
14 14 16
34 41 28
6 6 8
19 25 27
33 53 45
30 22 20
6 6 8
26 20 21
27 20 21
61 61 46
45 51 37
22 17 22
59 50 53
17 20 20
64 43 49
49 33 36
21 28 30
43 43 33
10 10 12
12 12 14
30 46 46
16 16 18
26 28 31
47 56 33
30 33 31
27 37 39
27 16 20
19 19 19
5 5 8
12 12 14
65 98 60
20 23 16
106 112 221
77 49 35
9 9 11
14 16 40
43 46 46
31 24 31
16 12 18
61 45 35
39 18 30
28 20 29
40 40 25
41 58 46
37 21 27
5 5 7
15 11 17
3 3 6
42 37 22
24 16 26
30 20 32
21 30 19
22 17 18
8 13 15
2 2 4
29 50 54
35 37 33
26 26 20
32 42 28
83 44 51
39 32 28
1 1 3
73 44 61
15 13 13
3 3 5
16 11 18
64 56 37
25 12 12
2 2 4
23 46 51
42 23 25
14 9 10
11 15 17
23 23 16
48 32 25
2 2 4
30 20 21
44 24 37
25 24 17
9 9 7
41 35 35
13 9 10
2 2 4
57 44 31
8 5 5
2 2 4
2 2 4
30 24 24
168 163 78
129 194 194
34 35 29
29 14 16
47 38 34
28 31 20
20 13 20
37 34 26
34 40 24
17 17 11
24 15 42
35 15 16
23 19 15
13 9 13
24 16 25
26 17 18
22 18 15
49 21 28
255 110 97
8 13 14
2 2 4
2 2 4
17 18 20
41 27 43
37 17 22
2 2 4
24 44 30
57 81 36
30 18 27
2 2 4
53 39 29
2 2 4
2 2 4
2 2 4
17 11 11
36 20 24
9 14 10
61 29 34
67 54 33
24 36 40
57 32 25
2 2 4
16 9 9
12 15 16
9 12 12
2 2 4
27 18 30
56 25 41
38 27 20
66 49 73
16 19 24
2 2 4
7 11 13
24 12 12
2 2 4
17 24 24
11 7 8
24 53 33
13 23 23
88 42 50
19 10 10
59 34 51
24 36 29
2 2 4
123 134 84
2 2 4
31 24 17
22 14 10
8 12 9
28 34 26
2 2 4
121 82 59
30 20 21
19 28 30
2 2 4
211 140 140
51 46 29
15 10 9
2 2 4
2 2 4
2 2 4
32 16 20
2 2 4
24 16 16
11 7 7
37 25 16
69 217 217
35 30 42
41 15 15
86 61 49
150 69 100
9 9 11
97 92 50
10 10 13
205 138 142
9 9 11
36 43 44
38 27 39
211 211 211
47 42 35
13 13 15
64 64 47
24 29 25
5 5 8
15 21 15
58 66 44
13 13 15
26 21 28
9 9 11
19 19 17
18 12 20
44 29 41
20 20 14
39 43 32
26 21 28
38 28 30
7 7 9
20 20 19
32 27 25
14 18 20
36 36 32
69 53 57
31 28 29
8 8 10
94 55 46
65 80 46
64 97 73
12 12 14
21 26 22
16 16 14
31 39 38
5 5 8
60 46 196
27 34 28
21 27 22
39 33 31
6 6 8
32 43 44
22 16 17
10 10 12
28 28 23
15 12 17
27 27 22
85 45 50
48 49 58
30 45 34
30 33 22
44 26 37
12 12 14
10 10 12
37 27 39
6 6 8
15 15 13
48 38 48
199 199 135
50 37 51
55 42 33
83 122 58
31 42 42
12 12 14
10 10 12
40 55 32
45 49 36
14 14 16
36 41 32
28 28 24
37 27 39
27 33 25
31 31 33
42 32 44
8 8 10
8 8 10
27 33 26
214 214 214
30 25 36
8 8 10
88 45 40
31 29 23
8 8 10
140 132 136
13 13 15
60 44 52
8 8 10
19 17 13
8 8 10
47 35 49
130 94 72
6 6 8
6 6 8
47 28 38
13 13 15
62 53 38
32 43 32
18 22 19
8 8 10
28 25 26
19 16 14
214 214 214
169 115 169
41 54 37
210 210 210
65 89 69
52 38 34
15 15 17
58 56 43
51 36 52
213 213 145
76 47 49
11 11 13
10 10 13
52 55 39
73 80 50
53 45 34
38 44 39
10 10 12
10 10 12
8 8 10
10 10 12
52 26 40
13 13 15
15 19 21
15 15 17
13 13 15
15 15 17
83 78 95
6 6 8
10 10 23
61 40 36
17 14 20
151 211 102
32 37 25
30 23 32
8 8 10
8 8 10
8 8 10
26 32 27
25 20 27
32 37 27
11 11 13
15 15 17
10 10 12
215 215 215
4 4 6
6 6 8
6 6 8
37 46 41
39 28 41
8 8 10
13 13 15
6 6 8
5 5 7
20 21 68
60 30 49
37 37 37
6 6 8
50 45 30
42 29 39
6 6 8
39 39 30
17 13 14
10 10 12
8 8 10
10 10 12
43 29 35
58 58 42
40 35 32
53 34 53
59 47 34
15 15 17
49 72 40
14 10 11
8 8 10
22 22 18
10 10 12
6 6 8
29 40 38
81 59 47
34 34 26
32 46 29
61 58 42
13 13 15
12 12 14
18 25 27
32 25 32
34 24 22
28 28 22
40 36 31
59 45 49
149 141 207
10 10 12
4 4 6
8 8 10
8 8 10
61 47 52
141 198 132
10 10 12
51 56 72
27 27 32
8 8 10
35 41 25
25 29 25
60 40 55
70 77 56
10 10 12
32 56 56
45 47 45
14 20 22
17 17 19
6 6 8
35 35 26
54 34 47
28 21 30
23 26 19
25 19 16
6 6 8
47 86 70
36 49 35
86 102 66
90 56 78
15 19 21
19 19 16
51 59 65
33 41 22
12 12 14
16 13 14
215 146 215
12 12 14
10 10 12
45 64 50
40 43 36
6 6 8
18 14 15
12 12 14
8 8 10
9 9 12
73 55 34
74 143 196
51 41 45
8 8 10
20 30 30
9 9 11
46 30 34
210 210 210
23 17 18
67 59 43
43 26 22
39 32 23
29 33 26
12 12 14
38 38 30
34 29 30
48 38 26
30 17 20
62 62 43
43 61 46
4 4 6
91 80 52
24 31 31
13 13 11
47 39 22
9 9 9
2 2 4
25 18 19
13 16 11
4 4 6
37 32 33
6 10 12
26 18 15
27 21 19
52 76 68
2 2 4
21 14 23
10 10 12
11 7 8
32 17 17
37 21 20
37 46 24
42 23 20
70 52 49
2 2 4
11 17 14
50 25 29
32 40 33
72 60 48
24 16 17
94 31 34
157 48 52
31 18 18
36 30 21
35 30 20
10 15 17
116 65 64
28 16 19
132 198 132
2 2 4
19 22 16
23 26 24
2 2 4
47 24 16
2 2 4
2 2 4
10 7 8
37 16 34
8 12 14
22 25 15
31 32 36
25 36 36
2 2 4
2 2 4
27 17 14
65 45 30
21 14 15
22 30 30
32 21 33
9 6 7
29 29 21
25 13 13
30 31 22
12 8 9
39 49 45
25 16 16
68 148 148
34 38 31
12 18 20
2 2 4
2 2 4
2 2 4
2 2 4
9 6 7
19 19 13
38 76 37
13 9 10
79 85 58
14 9 10
20 16 13
9 14 10
2 2 4
27 13 13
2 2 4
10 7 8
95 50 34
2 2 4
27 14 18
7 11 8
2 2 4
9 14 16
61 57 47
44 52 55
19 12 21
28 14 18
2 2 4
11 7 8
27 13 18
46 42 23
15 18 12
35 33 51
15 19 13
33 31 21
62 35 37
39 47 43
7 11 13
16 9 9
9 6 7
51 24 39
57 75 57
2 2 4
18 14 14
42 34 18
13 18 18
14 14 10
2 2 4
38 78 56
2 2 4
35 23 36
2 2 4
20 16 19
2 2 4
14 8 8
36 32 25
2 2 4
17 11 32
89 54 51
9 6 7
191 127 127
17 12 13
11 7 8
2 2 4
40 32 32
54 24 27
29 29 22
42 23 17
28 24 20
11 11 13
11 11 13
39 27 22
9 9 11
28 37 29
108 73 40
9 9 11
66 56 48
92 87 43
13 13 15
7 7 9
39 49 32
22 19 24
63 53 43
44 59 31
43 25 40
29 29 24
43 38 26
5 5 7
12 12 14
25 20 27
12 12 14
20 17 18
11 11 13
25 25 20
4 4 6
46 52 38
13 17 19
55 35 38
27 36 38
14 14 16
225 111 104
31 37 26
8 8 10
16 20 20
10 10 12
11 11 13
73 63 51
37 44 26
34 26 24
21 28 30
12 12 14
47 49 30
33 26 24
14 14 16
38 33 58
8 8 10
91 54 70
24 32 25
33 42 44
37 36 28
12 12 14
18 22 19
57 48 32
14 14 16
40 35 27
10 10 12
32 30 25
14 14 12
59 64 45
18 19 37
115 97 78
93 61 42
53 53 47
32 24 33
57 42 34
8 8 10
31 33 27
110 69 66
8 8 10
6 6 8
8 8 10
55 80 61
16 21 23
36 29 23
48 37 49
19 15 21
63 70 45
34 34 27
54 35 42
10 10 12
48 42 45
8 8 10
8 8 10
212 212 212
10 10 13
47 52 37
30 24 32
43 64 39
52 32 46
41 44 30
38 45 34
12 12 14
22 18 24
39 26 42
28 30 30
36 27 38
6 6 8
212 212 212
8 8 10
60 84 64
10 10 12
27 27 25
10 10 12
55 49 46
10 10 12
16 16 19
12 12 14
32 32 24
8 8 10
198 133 133
28 32 34
51 54 54
11 11 13
28 31 36
15 21 23
217 87 107
8 8 10
41 57 75
8 8 10
4 4 6
40 36 30
15 15 17
30 36 37
11 11 13
91 70 52
22 21 22
13 13 15
63 68 46
8 8 11
93 81 55
50 63 72
37 27 39
32 32 27
33 24 25
42 78 69
10 10 13
33 30 24
34 24 30
11 11 13
38 42 47
58 58 43
5 5 7
10 10 12
13 13 15
71 41 61
15 21 23
59 79 44
15 15 17
44 30 41
32 25 34
53 67 39
31 34 28
8 8 10
22 28 23
24 30 32
11 11 13
25 19 27
18 14 20
24 30 59
31 24 33
88 55 53
215 215 215
51 40 51
15 15 17
70 45 37
13 13 15
9 9 12
38 28 39
11 11 13
8 8 10
10 10 12
6 6 8
42 30 34
11 11 13
37 29 27
15 15 17
13 13 15
35 23 21
8 8 10
8 8 10
34 29 39
61 58 39
8 8 10
10 10 12
29 23 24
67 48 57
12 12 14
26 31 30
48 48 37
18 21 23
6 6 8
60 56 37
12 12 14
45 33 47
37 28 30
27 25 20
18 21 20
217 217 217
13 13 24
40 56 45
31 35 21
12 12 14
23 19 25
54 31 43
154 147 113
30 21 17
14 14 16
24 18 19
25 25 21
30 22 23
23 30 32
45 31 38
23 19 25
7 7 17
122 52 57
48 35 30
54 44 23
28 20 28
25 32 39
8 8 10
29 29 23
36 30 36
30 34 34
46 25 33
12 12 14
47 45 25
24 18 21
28 28 22
8 8 10
8 8 10
8 8 10
38 33 38
24 22 22
29 29 22
63 56 48
53 53 38
228 182 124
8 8 10
15 12 12
56 39 32
16 23 24
45 63 39
35 24 24
38 38 30
12 12 14
6 6 8
9 9 11
53 36 50
5 5 8
20 20 17
172 172 172
23 31 31
8 8 10
223 223 150
26 20 21
4 4 6
19 27 29
44 39 31
25 25 20
41 36 25
54 71 50
20 16 22
16 12 13
46 54 49
35 24 37
12 12 13
5 5 7
11 8 9
26 26 18
49 56 32
28 19 30
2 2 4
2 2 4
48 37 61
14 21 22
50 63 52
58 34 37
41 33 23
39 17 19
30 18 27
57 43 72
166 166 166
2 2 4
28 25 23
3 3 5
8 13 15
18 13 13
14 9 10
2 2 4
55 56 62
2 2 4
2 2 4
78 66 40
14 14 10
17 26 20
27 18 15
40 69 48
31 50 40
9 12 39
25 21 14
11 7 11
59 102 86
36 24 25
13 20 21
31 36 44
20 25 25
5 5 7
2 2 4
2 2 4
2 2 4
16 24 26
14 14 10
8 5 6
74 66 47
22 17 11
40 63 52
7 7 9
30 40 25
30 40 40
2 2 4
21 28 14
9 10 10
12 8 9
165 162 62
10 6 8
13 26 21
16 11 12
9 6 9
2 2 4
48 20 23
38 25 21
22 14 23
31 52 23
2 2 4
158 105 105
12 19 13
26 26 21
215 149 143
28 26 15
22 43 22
9 6 7
142 64 64
2 2 4
20 25 31
42 29 25
71 50 38
2 2 4
34 21 25
8 12 9
2 2 4
30 18 15
26 64 39
18 13 13
48 46 23
2 2 4
17 9 20
26 17 17
21 12 14
14 18 18
10 16 10
19 13 21
66 57 39
2 2 4
39 38 27
21 11 14
2 2 4
2 2 4
24 29 31
65 30 43
2 2 4
31 21 22
17 22 26
65 38 29
2 2 4
2 2 4
17 11 12
2 2 4
39 26 40
203 135 203
2 2 4
13 8 8
13 9 10
2 2 4
27 18 19
17 30 25
2 2 4
20 16 16
2 2 4
10 15 10
9 6 7
2 2 4
40 30 41
218 145 218
20 24 22
16 7 8
12 8 9
2 2 4
9 6 7
